Windows Batch scripts/FFMPEG batch converters/v7/ACES_Rec2020-ST2084_to_Rec709.cube
TITLE "Generated by Resolve"
LUT_3D_SIZE 9
0 0 0
0.118975 0 0
0.296254 0 0
0.591989 0 0.0245365
0.969665 0 0.0520485
1 0 0.182193
1 0.91223 0.952972
1 0.978943 0.99472
1 0.978943 0.99472
0 0.102174 0
0.100435 0.0979934 0
0.290517 0.0499428 0
0.589334 0 0
0.968597 0 0.047364
1 0 0.182193
1 0.912245 0.952987
1 0.978943 0.99472
1 0.978943 0.99472
0 0.254154 0
0 0.253056 0
0.249851 0.2439 0
0.572137 0.192966 0
0.960128 0 0
1 0 0.176333
1 0.912352 0.953063
1 0.978943 0.99472
1 0.978943 0.99472
0 0.508354 0
0 0.507942 0
0 0.504616 0
0.499718 0.487831 0
0.920989 0.438514 0
1 0.390845 0.127993
1 0.91284 0.953368
1 0.978943 0.99472
1 0.978943 0.99472
0 0.829252 0
0 0.829038 0
0 0.827359 0
0 0.818998 0
0.815641 0.795514 0
1 0.776486 0
1 0.914549 0.954437
1 0.978943 0.99472
1 0.978943 0.99472
0 0.998016 0
0 0.998016 0
0 0.996719 0
0 0.990158 0
0.721401 0.972869 0
0.981735 0.958099 0.166888
1 0.945891 0.956298
1 0.978927 0.99472
1 0.978927 0.99472
0.961868 1 0.982376
0.961868 1 0.982376
0.961868 1 0.982391
0.961913 1 0.982406
0.962036 1 0.982498
0.962417 1 0.982773
1 1 0.991897
1 1 0.99968
1 1 1
0.985031 1 0.999359
0.985031 1 0.999359
0.985031 1 0.999359
0.985031 1 0.999359
0.985031 1 0.999359
0.985031 1 0.999359
1 1 1
1 1 1
1 1 1
0.985031 1 0.999359
0.985031 1 0.999359
0.985031 1 0.999359
0.985031 1 0.999359
0.985031 1 0.999359
0.985031 1 0.999359
1 1 1
1 1 1
1 1 1
0 0 0.101884
0.116854 0 0.100526
0.295064 0 0.099443
0.591928 0 0.0995346
0.96965 0 0.106264
1 0 0.182254
1 0.91223 0.952972
1 0.978943 0.99472
1 0.978943 0.99472
0 0.101961 0.0979477
0.0977798 0.0977798 0.0977798
0.29073 0.0487678 0.0973983
0.58996 0 0.0977188
0.968627 0 0.104646
1 0 0.182239
1 0.912245 0.952987
1 0.978943 0.99472
1 0.978943 0.99472
0 0.254093 0.0780652
0 0.252995 0.0781567
0.249165 0.243854 0.0786755
0.572015 0.192859 0.0799878
0.960266 0 0.0893263
1 0 0.176287
1 0.912367 0.953063
1 0.978943 0.99472
1 0.978943 0.99472
0 0.508324 0
0 0.507912 0
0 0.504585 0
0.499474 0.487816 0
0.920882 0.438483 0
1 0.392126 0.127779
1 0.912856 0.953368
1 0.978943 0.99472
1 0.978943 0.99472
0 0.829236 0
0 0.829023 0
0 0.827344 0
0 0.818982 0
0.815503 0.795499 0
1 0.776654 0
1 0.914565 0.954437
1 0.978943 0.99472
1 0.978943 0.99472
0 0.998016 0
0 0.998016 0
0 0.996719 0
0 0.990143 0
0.721233 0.972854 0
0.98175 0.958099 0.166888
1 0.945891 0.956298
1 0.978927 0.99472
1 0.978927 0.99472
0.961868 1 0.982376
0.961868 1 0.982376
0.961868 1 0.982391
0.961913 1 0.982406
0.962036 1 0.982498
0.962417 1 0.982773
1 1 0.991897
1 1 0.99968
1 1 1
0.985031 1 0.999359
0.985031 1 0.999359
0.985031 1 0.999359
0.985031 1 0.999359
0.985031 1 0.999359
0.985031 1 0.999359
1 1 1
1 1 1
1 1 1
0.985031 1 0.999359
0.985031 1 0.999359
0.985031 1 0.999359
0.985031 1 0.999359
0.985031 1 0.999359
0.985031 1 0.999359
1 1 1
1 1 1
1 1 1
0 0 0.25359
0.0970016 0 0.252735
0.290791 0 0.250217
0.58674 0 0.247654
0.968673 0 0.24799
1 0 0.263569
1 0.912261 0.953002
1 0.978943 0.99472
1 0.978943 0.99472
0 0.100252 0.251347
0.0709544 0.0961166 0.250965
0.285847 0.0449073 0.249317
0.585595 0 0.247089
0.967865 0 0.247501
1 0 0.263279
1 0.912276 0.953002
1 0.978943 0.99472
1 0.978943 0.99472
0 0.253635 0.243793
0 0.252537 0.243748
0.243381 0.243397 0.243397
0.573693 0.190982 0.24242
0.960266 0 0.24329
1 0 0.259617
1 0.912398 0.953079
1 0.978943 0.99472
1 0.978943 0.99472
0 0.508171 0.216861
0 0.507759 0.216876
0 0.504433 0.216953
0.497414 0.487663 0.217105
0.920272 0.438224 0.218936
1 0.393545 0.23801
1 0.912886 0.953384
1 0.978943 0.99472
1 0.978943 0.99472
0 0.829145 0.128374
0 0.828916 0.12842
0 0.827237 0.128862
0 0.818875 0.13019
0.814404 0.795407 0.137026
1 0.776654 0.169543
1 0.914595 0.954452
1 0.978943 0.99472
1 0.978943 0.99472
0 0.997909 0.20708
0 0.997909 0.206958
0 0.996612 0.207126
0 0.990051 0.208042
0.719799 0.972747 0.212833
0.981231 0.958053 0.237201
1 0.945891 0.956329
1 0.978927 0.99472
1 0.978927 0.99472
0.961868 1 0.982391
0.961868 1 0.982391
0.961883 1 0.982391
0.961913 1 0.982422
0.962036 1 0.982498
0.962432 1 0.982788
1 1 0.991913
1 1 0.99968
1 1 1
0.985031 1 0.999359
0.985031 1 0.999359
0.985031 1 0.999359
0.985031 1 0.999359
0.985031 1 0.999359
0.985031 1 0.999359
1 1 1
1 1 1
1 1 1
0.985031 1 0.999359
0.985031 1 0.999359
0.985031 1 0.999359
0.985031 1 0.999359
0.985031 1 0.999359
0.985031 1 0.999359
1 1 1
1 1 1
1 1 1
0 0 0.506783
0 0 0.506416
0.264851 0 0.504326
0.581247 0 0.500191
0.960998 0 0.497276
1 0 0.503639
1 0.912398 0.953094
1 0.978943 0.99472
1 0.978943 0.99472
0 0.0921492 0.505745
0 0.0876783 0.505455
0.259617 0 0.503685
0.579461 0 0.49987
0.96022 0 0.497063
1 0 0.503441
1 0.912413 0.953094
1 0.978943 0.99472
1 0.978943 0.99472
0 0.251286 0.500557
0 0.250187 0.50045
0.210864 0.241093 0.499702
0.564858 0.188052 0.497414
0.953719 0 0.495354
1 0 0.501884
1 0.912535 0.95317
1 0.978943 0.99472
1 0.978943 0.99472
0 0.507332 0.487587
0 0.50692 0.487572
0 0.503594 0.487449
0.486809 0.486839 0.486824
0.918624 0.436301 0.486442
1 0.392096 0.493385
1 0.913024 0.953475
1 0.978943 0.99472
1 0.978943 0.99472
0 0.828611 0.464485
0 0.828397 0.464485
0 0.826719 0.464515
0 0.818341 0.46453
0.80885 0.794903 0.465354
1 0.776059 0.472618
1 0.914733 0.954543
1 0.978943 0.99472
1 0.978943 0.99472
0 0.997452 0.484367
0 0.997452 0.484321
0 0.996139 0.484337
0 0.989563 0.484413
0.713207 0.972305 0.485405
0.976761 0.957626 0.493034
1 0.945891 0.95642
1 0.978927 0.99472
1 0.978927 0.99472
0.961913 1 0.982406
0.961913 1 0.982406
0.961913 1 0.982422
0.961959 1 0.982437
0.962081 1 0.982528
0.962463 1 0.982818
1 1 0.991943
1 1 0.99968
1 1 1
0.985031 1 0.999359
0.985031 1 0.999359
0.985031 1 0.999359
0.985031 1 0.999359
0.985031 1 0.999359
0.985031 1 0.999359
1 1 1
1 1 1
1 1 1
0.985031 1 0.999359
0.985031 1 0.999359
0.985031 1 0.999359
0.985031 1 0.999359
0.985031 1 0.999359
0.985031 1 0.999359
1 1 1
1 1 1
1 1 1
0 0 0.830671
0 0 0.830488
0.166339 0 0.829114
0.555779 0 0.824765
0.950881 0 0.819165
1 0 0.817914
1 0.912886 0.953399
1 0.978943 0.99472
1 0.978943 0.99472
0 0.066865 0.830091
0 0.0596628 0.829923
0.156497 0 0.828626
0.553948 0 0.82446
0.949966 0 0.818967
1 0 0.817868
1 0.912902 0.953399
1 0.978943 0.99472
1 0.978943 0.99472
0 0.245487 0.826261
0 0.244373 0.826154
0 0.235187 0.825299
0.538903 0.180316 0.822156
0.942535 0 0.817441
1 0 0.816617
1 0.913024 0.953475
1 0.978943 0.99472
1 0.978943 0.99472
0 0.505211 0.814893
0 0.504799 0.814847
0 0.501488 0.814527
0.455833 0.484764 0.813092
0.905226 0.434318 0.8103
1 0.391119 0.810162
1 0.913512 0.95378
1 0.978943 0.99472
1 0.978943 0.99472
0 0.827207 0.79559
0 0.826978 0.795575
0 0.825315 0.795453
0 0.816938 0.794858
0.793576 0.793606 0.793591
1 0.774334 0.794369
1 0.915221 0.954849
1 0.978943 0.99472
1 0.978943 0.99472
0 0.996292 0.790814
0 0.996292 0.790814
0 0.994888 0.790722
0 0.988327 0.790295
0.696269 0.971145 0.789441
0.96527 0.956527 0.790417
1 0.945907 0.956756
1 0.978927 0.99472
1 0.978927 0.99472
0.962036 1 0.982498
0.962036 1 0.982498
0.962051 1 0.982513
0.962081 1 0.982544
0.962203 1 0.98262
0.9626 1 0.98291
1 1 0.992035
1 1 0.99971
1 1 1
0.985031 1 0.999359
0.985031 1 0.999359
0.985031 1 0.999359
0.985031 1 0.999359
0.985031 1 0.999359
0.985031 1 0.999359
1 1 1
1 1 1
1 1 1
0.985031 1 0.999359
0.985031 1 0.999359
0.985031 1 0.999359
0.985031 1 0.999359
0.985031 1 0.999359
0.985031 1 0.999359
1 1 1
1 1 1
1 1 1
0 0 1
0 0 1
0 0 1
0.543069 0 0.999405
0.941466 0 0.993255
1 0 0.989929
1 0.914961 0.957168
1 0.978943 0.99472
1 0.978943 0.99472
0 0.0757916 1
0 0.0695811 1
0 0 1
0.541176 0 0.9991
0.940536 0 0.993057
1 0 0.989929
1 0.914977 0.957168
1 0.978943 0.99472
1 0.978943 0.99472
0 0.246983 1
0 0.245838 1
0 0.236774 1
0.525841 0.182498 0.996887
0.933074 0 0.991501
1 0 0.988647
1 0.915099 0.957168
1 0.978943 0.99472
1 0.978943 0.99472
0 0.506127 0.990143
0 0.505714 0.990082
0 0.502419 0.989715
0.439811 0.48571 0.988037
0.89543 0.436286 0.984482
1 0.39295 0.9823
1 0.915587 0.957214
1 0.978943 0.99472
1 0.978943 0.99472
0 0.82649 0.97081
0 0.826276 0.970779
0 0.824582 0.970611
0 0.816175 0.969802
0.782986 0.793164 0.967865
1 0.774121 0.966598
1 0.917296 0.957351
1 0.978943 0.99472
1 0.978943 0.99472
0 0.995254 0.958724
0 0.995071 0.958709
0 0.993637 0.958572
0 0.987091 0.957977
0.684764 0.970138 0.956558
0.955673 0.955688 0.955673
1 0.94789 0.957778
1 0.978927 0.99472
1 0.978927 0.99472
0.962448 1 0.982803
0.962448 1 0.982803
0.962463 1 0.982803
0.962493 1 0.982834
0.962615 1 0.982925
0.963012 1 0.9832
1 1 0.99237
1 1 0.999771
1 1 1
0.985031 1 0.999359
0.985031 1 0.999359
0.985031 1 0.999359
0.985031 1 0.999359
0.985031 1 0.999359
0.985031 1 0.999359
1 1 1
1 1 1
1 1 1
0.985031 1 0.999359
0.985031 1 0.999359
0.985031 1 0.999359
0.985031 1 0.999359
0.985031 1 0.999359
0.985031 1 0.999359
1 1 1
1 1 1
1 1 1
0.590906 0.6327 1
0.590921 0.632715 1
0.591012 0.632792 1
0.591455 0.633173 1
0.856306 0.616266 1
1 0.616983 1
1 0.931991 1
1 0.982406 1
1 0.984161 1
0.590967 0.632761 1
0.590982 0.632776 1
0.591089 0.632853 1
0.591516 0.633219 1
0.85626 0.616342 1
1 0.617044 1
1 0.932006 1
1 0.982406 1
1 0.984161 1
0.591485 0.633204 1
0.591501 0.633219 1
0.591592 0.633295 1
0.592035 0.633661 1
0.855955 0.616846 1
1 0.617548 1
1 0.932113 1
1 0.982406 1
1 0.984161 1
0.593698 0.635081 1
0.593698 0.635081 1
0.593805 0.635172 1
0.594247 0.635538 1
0.854978 0.619013 1
1 0.619669 1
1 0.93254 1
1 0.982406 1
1 0.984161 1
0.491646 0.810101 1
0.491691 0.810086 1
0.491951 0.809995 1
0.493065 0.809644 1
0.786053 0.795178 1
1 0.776898 1
1 0.934051 1
1 0.982437 1
1 0.984161 1
0.450263 0.977142 1
0.450294 0.977142 1
0.450507 0.977127 1
0.451408 0.977096 1
0.689525 0.969467 1
0.951431 0.955505 1
1 0.947814 1
1 0.982422 1
1 0.984161 1
0.963577 1 1
0.963577 1 1
0.963577 1 1
0.963623 1 1
0.963745 1 1
0.964157 1 1
1 1 1
1 1 1
1 1 1
0.984283 1 1
0.984283 1 1
0.984283 1 1
0.984283 1 1
0.984283 1 1
0.984283 1 1
1 1 1
1 1 1
1 1 1
0.984283 1 1
0.984283 1 1
0.984283 1 1
0.984283 1 1
0.984283 1 1
0.984283 1 1
1 1 1
1 1 1
1 1 1
0.869993 0.881651 1
0.869993 0.881651 1
0.869993 0.881651 1
0.869993 0.881651 1
0.869993 0.881636 1
0.990906 0.87509 1
1 0.958083 1
1 0.984161 1
1 0.984161 1
0.869993 0.881651 1
0.869993 0.881651 1
0.869993 0.881651 1
0.869993 0.881651 1
0.869993 0.881636 1
0.990906 0.87509 1
1 0.958099 1
1 0.984161 1
1 0.984161 1
0.869993 0.881651 1
0.869993 0.881651 1
0.869993 0.881651 1
0.869993 0.881651 1
0.869993 0.881636 1
0.990921 0.87509 1
1 0.958144 1
1 0.984161 1
1 0.984161 1
0.869993 0.881636 1
0.869993 0.881636 1
0.869993 0.881636 1
0.869993 0.881636 1
0.869978 0.881636 1
0.990982 0.87509 1
1 0.958404 1
1 0.984161 1
1 0.984161 1
0.869978 0.881636 1
0.869978 0.881636 1
0.869978 0.881636 1
0.869978 0.881636 1
0.869978 0.881636 1
0.991196 0.875074 1
1 0.959274 1
1 0.984161 1
1 0.984161 1
0.832029 0.96408 1
0.832029 0.96408 1
0.832029 0.96408 1
0.832029 0.964065 1
0.832059 0.964004 1
0.955291 0.956573 1
1 0.962188 1
1 0.984161 1
1 0.984161 1
0.970016 1 1
0.970031 1 1
0.970031 1 1
0.970062 1 1
0.970153 1 1
0.970474 1 1
1 1 1
1 1 1
1 1 1
0.984283 1 1
0.984283 1 1
0.984283 1 1
0.984283 1 1
0.984283 1 1
0.984283 1 1
1 1 1
1 1 1
1 1 1
0.984283 1 1
0.984283 1 1
0.984283 1 1
0.984283 1 1
0.984283 1 1
0.984283 1 1
1 1 1
1 1 1
1 1 1
0.869993 0.881651 1
0.869993 0.881636 1
0.869993 0.881636 1
0.869993 0.881636 1
0.869978 0.881636 1
1 0.874723 1
1 0.984161 1
1 0.984161 1
1 0.984161 1
0.869993 0.881636 1
0.869993 0.881636 1
0.869993 0.881636 1
0.869993 0.881636 1
0.869978 0.881636 1
1 0.874723 1
1 0.984161 1
1 0.984161 1
1 0.984161 1
0.869993 0.881636 1
0.869993 0.881636 1
0.869993 0.881636 1
0.869993 0.881636 1
0.869978 0.881636 1
1 0.874723 1
1 0.984161 1
1 0.984161 1
1 0.984161 1
0.869993 0.881636 1
0.869993 0.881636 1
0.869993 0.881636 1
0.869978 0.881636 1
0.869978 0.881636 1
1 0.874723 1
1 0.984161 1
1 0.984161 1
1 0.984161 1
0.869978 0.881636 1
0.869978 0.881636 1
0.869978 0.881636 1
0.869978 0.881636 1
0.869978 0.881636 1
1 0.874708 1
1 0.984161 1
1 0.984161 1
1 0.984161 1
0.830396 0.968399 1
0.830396 0.968383 1
0.830396 0.968383 1
0.830396 0.968368 1
0.830427 0.968322 1
0.967498 0.960082 1
1 0.984161 1
1 0.984161 1
1 0.984161 1
0.984283 1 1
0.984283 1 1
0.984283 1 1
0.984283 1 1
0.984283 1 1
0.984283 1 1
1 1 1
1 1 1
1 1 1
0.984283 1 1
0.984283 1 1
0.984283 1 1
0.984283 1 1
0.984283 1 1
0.984283 1 1
1 1 1
1 1 1
1 1 1
0.984283 1 1
0.984283 1 1
0.984283 1 1
0.984283 1 1
0.984283 1 1
0.984283 1 1
1 1 1
1 1 1
1 1 1
