Windows Batch scripts/FFMPEG batch converters/v7/ACES_Rec2020-ST2084_to_Rec709.cube
TITLE "Generated by Resolve"
LUT_3D_SIZE 33
0 0 0
0 0 0
0 0 0
0.0738994 0 0
0.118975 0 0
0.155886 0 0
0.19765 0 0
0.244633 0 0
0.296254 0 0
0.354589 0 0.0104982
0.422919 0 0.0185702
0.503471 0 0.0223087
0.591989 0 0.0245365
0.685969 0 0.0278172
0.784405 0 0.0330205
0.88368 0 0.0407568
0.969665 0 0.0520485
1 0 0.066453
1 0 0.0843671
1 0 0.126635
1 0 0.182193
1 0 0.261036
1 0 0.392905
1 0.417868 0.636881
1 0.91223 0.952972
1 0.978943 0.99472
1 0.978943 0.99472
1 0.978943 0.99472
1 0.978943 0.99472
1 0.978943 0.99472
1 0.978943 0.99472
1 0.978943 0.99472
1 0.978943 0.99472
0 0.0176699 0
0.017319 0.0169833 0
0.0447852 0.0131075 0
0.0764782 0 0
0.117998 0 0
0.155627 0 0
0.197467 0 0
0.244434 0 0
0.29604 0 0
0.354376 0 0.00856031
0.422751 0 0.0176547
0.503319 0 0.021622
0.591882 0 0.0240024
0.685893 0 0.0274357
0.784344 0 0.0327459
0.883635 0 0.0405432
0.969635 0 0.0518959
1 0 0.066331
1 0 0.0843671
1 0 0.126635
1 0 0.182193
1 0 0.261036
1 0 0.392905
1 0.417868 0.636881
1 0.91223 0.952972
1 0.978943 0.99472
1 0.978943 0.99472
1 0.978943 0.99472
1 0.978943 0.99472
1 0.978943 0.99472
1 0.978943 0.99472
1 0.978943 0.99472
1 0.978943 0.99472
0 0.0484627 0
0 0.0482643 0
0.0476387 0.046479 0
0.0806897 0.0429694 0
0.115206 0.0349279 0
0.15378 0 0
0.19617 0 0
0.243397 0 0
0.295171 0 0
0.353674 0 0
0.422171 0 0.0147555
0.502861 0 0.0194858
0.591531 0 0.0222324
0.685618 0 0.0260319
0.784115 0 0.0316472
0.883452 0 0.0397345
0.969482 0 0.0513008
1 0 0.065919
1 0 0.0842603
1 0 0.126635
1 0 0.182193
1 0 0.261036
1 0 0.392905
1 0.417868 0.636881
1 0.91223 0.952972
1 0.978943 0.99472
1 0.978943 0.99472
1 0.978943 0.99472
1 0.978943 0.99472
1 0.978943 0.99472
1 0.978943 0.99472
1 0.978943 0.99472
1 0.978943 0.99472
0 0.0738689 0
0 0.0737163 0
0.0220645 0.072755 0
0.0726177 0.0708476 0
0.110811 0.0671244 0
0.150317 0.0601358 0
0.193652 0.0457618 0
0.241382 0 0
0.293462 0 0
0.352224 0 0
0.420966 0 0
0.501884 0 0.0128939
0.590753 0 0.0171664
0.684993 0 0.0222171
0.783627 0 0.0289158
0.883055 0 0.0377966
0.969177 0 0.0499733
1 0 0.0650034
1 0 0.08365
1 0 0.126619
1 0 0.182193
1 0 0.261036
1 0 0.392905
1 0.417884 0.636881
1 0.91223 0.952987
1 0.978943 0.99472
1 0.978943 0.99472
1 0.978943 0.99472
1 0.978943 0.99472
1 0.978943 0.99472
1 0.978943 0.99472
1 0.978943 0.99472
1 0.978943 0.99472
0 0.102174 0
0 0.102037 0
0 0.101442 0
0.0510414 0.100252 0
0.100435 0.0979934 0
0.143648 0.0940261 0
0.188968 0.0871443 0
0.237873 0.0749981 0
0.290517 0.0499428 0
0.349676 0 0
0.418799 0 0
0.500099 0 0
0.589334 0 0
0.683864 0 0.00991836
0.782727 0 0.0225986
0.882353 0 0.033814
0.968597 0 0.047364
1 0 0.0632181
1 0 0.0823835
1 0 0.126162
1 0 0.182193
1 0 0.261036
1 0 0.39292
1 0.417899 0.636896
1 0.912245 0.952987
1 0.978943 0.99472
1 0.978943 0.99472
1 0.978943 0.99472
1 0.978943 0.99472
1 0.978943 0.99472
1 0.978943 0.99472
1 0.978943 0.99472
1 0.978943 0.99472
0 0.133776 0
0 0.133654 0
0 0.133272 0
0 0.132464 0
0.078645 0.130953 0
0.131487 0.128328 0
0.180835 0.123964 0
0.232181 0.116869 0
0.286137 0.105577 0
0.345861 0.0853132 0
0.415396 0 0
0.4972 0 0
0.586969 0 0
0.681971 0 0
0.781231 0 0
0.881163 0 0.0246586
0.96762 0 0.0423133
1 0 0.0599832
1 0 0.0799878
1 0 0.125002
1 0 0.182132
1 0 0.261036
1 0 0.39292
1 0.417914 0.636912
1 0.912261 0.952987
1 0.978943 0.99472
1 0.978943 0.99472
1 0.978943 0.99472
1 0.978943 0.99472
1 0.978943 0.99472
1 0.978943 0.99472
1 0.978943 0.99472
1 0.978943 0.99472
0 0.169604 0
0 0.169528 0
0 0.169268 0
0 0.168688 0
0 0.16762 0
0.108049 0.165774 0
0.16672 0.162753 0
0.222477 0.157946 0
0.279332 0.150668 0
0.340612 0.139284 0
0.410742 0.119432 0
0.492973 0.0746624 0
0.583337 0 0
0.678996 0 0
0.77882 0 0
0.87924 0 0
0.966049 0 0.031281
1 0 0.0539864
1 0 0.0755474
1 0 0.122881
1 0 0.181048
1 0 0.261051
1 0 0.392935
1 0.417945 0.636927
1 0.912276 0.953002
1 0.978943 0.99472
1 0.978943 0.99472
1 0.978943 0.99472
1 0.978943 0.99472
1 0.978943 0.99472
1 0.978943 0.99472
1 0.978943 0.99472
1 0.978943 0.99472
0 0.209873 0
0 0.209827 0
0 0.209628 0
0 0.209216 0
0 0.208423 0
0.0387579 0.20708 0
0.141421 0.204868 0
0.206317 0.201404 0
0.267903 0.196231 0
0.332692 0.188373 0
0.404761 0.175952 0
0.487541 0.154757 0
0.578317 0.115419 0
0.674617 0 0
0.775189 0 0
0.87631 0 0
0.963653 0 0
1 0 0.0423438
1 0 0.0676738
1 0 0.119356
1 0 0.179232
1 0 0.260777
1 0 0.39295
1 0.418006 0.636973
1 0.912306 0.953033
1 0.978943 0.99472
1 0.978943 0.99472
1 0.978943 0.99472
1 0.978943 0.99472
1 0.978943 0.99472
1 0.978943 0.99472
1 0.978943 0.99472
1 0.978943 0.99472
0 0.254154 0
0 0.254124 0
0 0.253971 0
0 0.253651 0
0 0.253056 0
0 0.252033 0
0.0859236 0.25037 0
0.1794 0.247761 0
0.249851 0.2439 0
0.319799 0.238102 0
0.395972 0.229084 0
0.48098 0.214908 0
0.572137 0.192966 0
0.668803 0.156817 0
0.770092 0.0752422 0
0.872068 0 0
0.960128 0 0
1 0 0
1 0 0.0556191
1 0 0.113634
1 0 0.176333
1 0 0.259251
1 0 0.392981
1 0.418082 0.637034
1 0.912352 0.953063
1 0.978943 0.99472
1 0.978943 0.99472
1 0.978943 0.99472
1 0.978943 0.99472
1 0.978943 0.99472
1 0.978943 0.99472
1 0.978943 0.99472
1 0.978943 0.99472
0 0.304356 0
0 0.304326 0
0 0.304219 0
0 0.30396 0
0 0.303502 0
0 0.302724 0
0 0.301427 0
0.124895 0.299443 0
0.219776 0.296498 0
0.299199 0.292088 0
0.381262 0.285313 0
0.471046 0.274784 0
0.564446 0.259632 0
0.661418 0.237827 0
0.763104 0.204685 0
0.86598 0.149828 0
0.954955 0 0
1 0 0
1 0 0.0203861
1 0 0.103853
1 0 0.171618
1 0 0.256764
1 0 0.393011
1 0.418204 0.63711
1 0.912428 0.953094
1 0.978943 0.99472
1 0.978943 0.99472
1 0.978943 0.99472
1 0.978943 0.99472
1 0.978943 0.99472
1 0.978943 0.99472
1 0.978943 0.99472
1 0.978943 0.99472
0 0.363226 0
0 0.363195 0
0 0.363119 0
0 0.362921 0
0 0.36257 0
0 0.361959 0
0 0.360952 0
0 0.359426 0
0.159091 0.357153 0
0.264042 0.35378 0
0.357046 0.348608 0
0.453727 0.340627 0
0.552361 0.32929 0
0.651759 0.313985 0
0.753796 0.293034 0
0.857252 0.264149 0
0.94725 0.229572 0
1 0.191638 0
1 0.14815 0
1 0.0861524 0.0852522
1 0 0.163729
1 0 0.252689
1 0 0.391241
1 0.418372 0.637232
1 0.91252 0.953155
1 0.978943 0.99472
1 0.978943 0.99472
1 0.978943 0.99472
1 0.978943 0.99472
1 0.978943 0.99472
1 0.978943 0.99472
1 0.978943 0.99472
1 0.978943 0.99472
0 0.432517 0
0 0.432502 0
0 0.432425 0
0 0.432288 0
0 0.431998 0
0 0.431525 0
0 0.430747 0
0 0.429557 0
0 0.427817 0
0.193881 0.425193 0
0.315801 0.42121 0
0.425147 0.415106 0
0.53135 0.40647 0
0.636576 0.394903 0
0.741283 0.379965 0
0.845151 0.360952 0
0.935943 0.340032 0
1 0.319799 0
1 0.300984 0
1 0.283726 0.0270085
1 0.266346 0.15024
1 0.252583 0.246036
1 0.238529 0.388052
1 0.418601 0.637385
1 0.912657 0.953246
1 0.978943 0.99472
1 0.978943 0.99472
1 0.978943 0.99472
1 0.978943 0.99472
1 0.978943 0.99472
1 0.978943 0.99472
1 0.978943 0.99472
1 0.978943 0.99472
0 0.508354 0
0 0.508339 0
0 0.508278 0
0 0.508156 0
0 0.507942 0
0 0.507561 0
0 0.506935 0
0 0.506004 0
0 0.504616 0
0 0.502541 0
0.242496 0.499382 0
0.380987 0.494575 0
0.499718 0.487831 0
0.612757 0.478813 0
0.723629 0.46714 0
0.829892 0.453086 0
0.920989 0.438514 0
0.9944 0.424765 0
1 0.412345 0
1 0.401556 0
1 0.390845 0.127993
1 0.382681 0.236332
1 0.374807 0.38349
1 0.418921 0.637613
1 0.91284 0.953368
1 0.978943 0.99472
1 0.978943 0.99472
1 0.978943 0.99472
1 0.978943 0.99472
1 0.978943 0.99472
1 0.978943 0.99472
1 0.978943 0.99472
1 0.978943 0.99472
0 0.588754 0
0 0.588739 0
0 0.588693 0
0 0.588602 0
0 0.588418 0
0 0.588113 0
0 0.58761 0
0 0.586847 0
0 0.585718 0
0 0.584039 0
0 0.581476 0
0.309712 0.5776 0
0.453834 0.572183 0
0.578805 0.564965 0
0.697505 0.555611 0
0.809659 0.544335 0
0.902388 0.533211 0
0.976226 0.523171 0
1 0.514061 0
1 0.506355 0
1 0.498573 0.0860456
1 0.492531 0.222736
1 0.486931 0.377462
1 0.47599 0.636011
1 0.9131 0.953521
1 0.978943 0.99472
1 0.978943 0.99472
1 0.978943 0.99472
1 0.978943 0.99472
1 0.978943 0.99472
1 0.978943 0.99472
1 0.978943 0.99472
1 0.978943 0.99472
0 0.672877 0
0 0.672862 0
0 0.672831 0
0 0.672755 0
0 0.672602 0
0 0.672343 0
0 0.671916 0
0 0.67129 0
0 0.670359 0
0 0.668971 0
0 0.666835 0
0.154788 0.66363 0
0.384787 0.65919 0
0.53164 0.653284 0
0.661555 0.645655 0
0.781079 0.636408 0
0.878645 0.627222 0
0.953735 0.619348 0
1 0.612467 0
1 0.606638 0
1 0.600671 0
1 0.59585 0.204044
1 0.591516 0.369879
1 0.58352 0.632074
1 0.913451 0.953735
1 0.978943 0.99472
1 0.978943 0.99472
1 0.978943 0.99472
1 0.978943 0.99472
1 0.978943 0.99472
1 0.978943 0.99472
1 0.978943 0.99472
1 0.978943 0.99472
0 0.757076 0
0 0.757076 0
0 0.757046 0
0 0.75697 0
0 0.756832 0
0 0.756619 0
0 0.756268 0
0 0.755734 0
0 0.75494 0
0 0.75375 0
0 0.751934 0
0 0.749218 0
0.270329 0.745464 0
0.467414 0.74049 0
0.615412 0.734096 0
0.744472 0.72636 0
0.847898 0.718608 0
0.926955 0.711803 0
0.988785 0.706172 0
1 0.701534 0
1 0.696925 0
1 0.692912 0.179965
1 0.689418 0.361486
1 0.683635 0.627817
1 0.913924 0.95404
1 0.978943 0.99472
1 0.978943 0.99472
1 0.978943 0.99472
1 0.978943 0.99472
1 0.978943 0.99472
1 0.978943 0.99472
1 0.978943 0.99472
1 0.978943 0.99472
0 0.829252 0
0 0.829252 0
0 0.829221 0
0 0.82916 0
0 0.829038 0
0 0.82884 0
0 0.828534 0
0 0.828061 0
0 0.827359 0
0 0.826307 0
0 0.824689 0
0 0.822293 0
0 0.818998 0
0.390967 0.814633 0
0.565835 0.809018 0
0.706401 0.802274 0
0.815641 0.795514 0
0.898772 0.789441 0
0.963348 0.784253 0
1 0.780209 0
1 0.776486 0
1 0.773053 0.157488
1 0.770092 0.355673
1 0.765866 0.624903
1 0.914549 0.954437
1 0.978943 0.99472
1 0.978943 0.99472
1 0.978943 0.99472
1 0.978943 0.99472
1 0.978943 0.99472
1 0.978943 0.99472
1 0.978943 0.99472
1 0.978943 0.99472
0 0.886824 0
0 0.886824 0
0 0.886793 0
0 0.886732 0
0 0.886625 0
0 0.886458 0
0 0.886168 0
0 0.88574 0
0 0.885084 0
0 0.884108 0
0 0.882628 0
0 0.88043 0
0 0.87744 0
0.304021 0.873487 0
0.518318 0.868391 0
0.671275 0.862303 0
0.786053 0.856229 0
0.872419 0.850736 0
0.93959 0.845914 0
0.990951 0.842008 0
1 0.838804 0
1 0.835859 0.147997
1 0.833265 0.355505
1 0.829923 0.624674
1 0.915404 0.954955
1 0.978943 0.99472
1 0.978943 0.99472
1 0.978943 0.99472
1 0.978943 0.99472
1 0.978943 0.99472
1 0.978943 0.99472
1 0.978943 0.99472
1 0.978943 0.99472
0 0.932982 0
0 0.932982 0
0 0.932952 0
0 0.932906 0
0 0.932799 0
0 0.932631 0
0 0.932372 0
0 0.931975 0
0 0.93135 0
0 0.930419 0
0 0.929015 0
0 0.92697 0
0 0.924193 0
0.192737 0.920516 0
0.474922 0.915801 0
0.64033 0.910201 0
0.759945 0.904616 0
0.849042 0.899535 0
0.917967 0.895064 0
0.971191 0.891295 0
1 0.888182 0
1 0.885603 0.163912
1 0.883284 0.363668
1 0.880507 0.628183
1 0.916533 0.955673
1 0.978943 0.99472
1 0.978943 0.99472
1 0.978943 0.99472
1 0.978943 0.99472
1 0.978943 0.99472
1 0.978943 0.99472
1 0.978943 0.99472
1 0.978943 0.99472
0 0.969345 0
0 0.969329 0
0 0.969314 0
0 0.969253 0
0 0.969162 0
0 0.969009 0
0 0.96875 0
0 0.968353 0
0 0.967758 0
0 0.966857 0
0 0.965499 0
0 0.963561 0
0 0.960937 0
0 0.957488 0
0.439246 0.953048 0
0.61532 0.947814 0
0.738384 0.942611 0
0.82945 0.937881 0
0.899565 0.933684 0
0.953811 0.930114 0
0.996246 0.927047 0
1 0.92459 0.210788
1 0.922515 0.384039
1 0.920073 0.63711
1 0.918029 0.956603
1 0.978943 0.99472
1 0.978943 0.99472
1 0.978943 0.99472
1 0.978927 0.99472
1 0.978927 0.99472
1 0.978927 0.99472
1 0.978927 0.99472
1 0.978927 0.99472
0 0.998016 0
0 0.998016 0
0 0.998016 0
0 0.998016 0
0 0.998016 0
0 0.997955 0
0 0.997711 0
0 0.997314 0
0 0.996719 0
0 0.995834 0
0 0.994507 0
0 0.99266 0
0 0.990158 0
0 0.986877 0
0.413809 0.982651 0
0.59678 0.977737 0
0.721401 0.972869 0
0.813519 0.968399 0
0.884123 0.964431 0
0.938872 0.961028 0
0.981735 0.958099 0.166888
1 0.955612 0.28426
1 0.953643 0.422797
1 0.951476 0.653956
1 0.945891 0.956298
1 0.978927 0.99472
1 0.978927 0.99472
1 0.978927 0.99472
1 0.978927 0.99472
1 0.978927 0.99472
1 0.978927 0.99472
1 0.978927 0.99472
1 0.978927 0.99472
0 1 0.235538
0 1 0.235538
0 1 0.235538
0 1 0.235538
0 1 0.235538
0 1 0.235538
0 1 0.235538
0 1 0.235538
0 1 0.235523
0 1 0.235843
0 1 0.236576
0 1 0.237552
0 1 0.23888
0 1 0.240726
0.398993 1 0.243305
0.583703 1 0.247105
0.707759 0.996643 0.252857
0.799939 0.992401 0.261494
0.870497 0.988647 0.274449
0.925505 0.985382 0.293843
0.96875 0.982574 0.323247
1 0.980179 0.383337
1 0.97818 0.489342
1 0.976226 0.68336
1 0.971862 0.956893
1 0.978927 0.99472
1 0.978927 0.99472
1 0.978927 0.99472
1 0.978927 0.99472
1 0.978927 0.99472
1 0.978927 0.99472
1 0.978927 0.99472
1 0.978927 0.99472
0 1 0.473579
0 1 0.473579
0 1 0.473579
0 1 0.473579
0 1 0.473579
0 1 0.473579
0 1 0.473579
0 1 0.473579
0 1 0.473579
0 1 0.473579
0 1 0.473594
0 1 0.473594
0 1 0.473823
0 1 0.47451
0.393851 1 0.475486
0.575036 1 0.476967
0.696498 1 0.479286
0.787884 1 0.482887
0.857832 1 0.488533
0.912856 1 0.497459
0.956161 1 0.51194
0.990112 0.998352 0.536843
1 0.996445 0.596139
1 0.994568 0.735958
1 0.990982 0.959243
1 0.989837 0.994034
1 0.989929 0.994034
1 0.990066 0.994018
1 0.99025 0.994018
1 0.990478 0.994003
1 0.990784 0.993988
1 0.991196 0.993957
1 0.991745 0.993927
0.603387 1 0.757885
0.603387 1 0.757885
0.603387 1 0.757885
0.603387 1 0.757885
0.603403 1 0.757885
0.603403 1 0.757885
0.603403 1 0.757885
0.603403 1 0.757885
0.603418 1 0.7579
0.603433 1 0.7579
0.603449 1 0.757916
0.603464 1 0.757916
0.60351 1 0.757946
0.603555 1 0.757961
0.603616 1 0.757992
0.603708 1 0.758038
0.681056 1 0.758404
0.771527 1 0.759213
0.840848 1 0.760632
0.89604 1 0.762997
0.939666 1 0.766949
0.974166 1 0.773877
0.99971 1 0.787289
1 1 0.827832
1 1 0.965133
1 1 0.993591
1 1 0.993591
1 1 0.993591
1 1 0.993606
1 1 0.993606
1 1 0.993606
1 1 0.993606
1 1 0.993622
0.961868 1 0.982376
0.961868 1 0.982376
0.961868 1 0.982376
0.961868 1 0.982376
0.961868 1 0.982376
0.961868 1 0.982376
0.961868 1 0.982376
0.961868 1 0.982376
0.961868 1 0.982391
0.961883 1 0.982391
0.961883 1 0.982391
0.961898 1 0.982406
0.961913 1 0.982406
0.961929 1 0.982422
0.961944 1 0.982437
0.96199 1 0.982467
0.962036 1 0.982498
0.962081 1 0.982544
0.962173 1 0.982605
0.96228 1 0.982681
0.962417 1 0.982773
0.9626 1 0.98291
0.976806 1 0.983169
0.997742 1 0.983978
1 1 0.991897
1 1 0.999191
1 1 0.999298
1 1 0.999451
1 1 0.99968
1 1 1
1 1 1
1 1 1
1 1 1
0.985031 1 0.999359
0.985031 1 0.999359
0.985031 1 0.999359
0.985031 1 0.999359
0.985031 1 0.999359
0.985031 1 0.999359
0.985031 1 0.999359
0.985031 1 0.999359
0.985031 1 0.999359
0.985031 1 0.999359
0.985031 1 0.999359
0.985031 1 0.999359
0.985031 1 0.999359
0.985031 1 0.999359
0.985031 1 0.999359
0.985031 1 0.999359
0.985031 1 0.999359
0.985031 1 0.999359
0.985031 1 0.999359
0.985031 1 0.999359
0.985031 1 0.999359
0.985031 1 0.999359
0.985031 1 0.999359
0.995453 1 0.999405
1 1 1
1 1 1
1 1 1
1 1 1
1 1 1
1 1 1
1 1 1
1 1 1
1 1 1
0.985031 1 0.999359
0.985031 1 0.999359
0.985031 1 0.999359
0.985031 1 0.999359
0.985031 1 0.999359
0.985031 1 0.999359
0.985031 1 0.999359
0.985031 1 0.999359
0.985031 1 0.999359
0.985031 1 0.999359
0.985031 1 0.999359
0.985031 1 0.999359
0.985031 1 0.999359
0.985031 1 0.999359
0.985031 1 0.999359
0.985031 1 0.999359
0.985031 1 0.999359
0.985031 1 0.999359
0.985031 1 0.999359
0.985031 1 0.999359
0.985031 1 0.999359
0.985031 1 0.999359
0.985031 1 0.999359
0.996567 1 0.999405
1 1 1
1 1 1
1 1 1
1 1 1
1 1 1
1 1 1
1 1 1
1 1 1
1 1 1
0.985031 1 0.999359
0.985031 1 0.999359
0.985031 1 0.999359
0.985031 1 0.999359
0.985031 1 0.999359
0.985031 1 0.999359
0.985031 1 0.999359
0.985031 1 0.999359
0.985031 1 0.999359
