Windows Batch scripts/FFMPEG batch converters/v7/ACES_Rec2020-ST2084_to_Rec709.cube
TITLE "Generated by Resolve"
LUT_3D_SIZE 5
0 0 0
0.296254 0 0
0.969665 0 0.0520485
1 0.91223 0.952972
1 0.978943 0.99472
0 0.254154 0
0.249851 0.2439 0
0.960128 0 0
1 0.912352 0.953063
1 0.978943 0.99472
0 0.829252 0
0 0.827359 0
0.815641 0.795514 0
1 0.914549 0.954437
1 0.978943 0.99472
0.961868 1 0.982376
0.961868 1 0.982391
0.962036 1 0.982498
1 1 0.991897
1 1 1
0.985031 1 0.999359
0.985031 1 0.999359
0.985031 1 0.999359
1 1 1
1 1 1
0 0 0.25359
0.290791 0 0.250217
0.968673 0 0.24799
1 0.912261 0.953002
1 0.978943 0.99472
0 0.253635 0.243793
0.243381 0.243397 0.243397
0.960266 0 0.24329
1 0.912398 0.953079
1 0.978943 0.99472
0 0.829145 0.128374
0 0.827237 0.128862
0.814404 0.795407 0.137026
1 0.914595 0.954452
1 0.978943 0.99472
0.961868 1 0.982391
0.961883 1 0.982391
0.962036 1 0.982498
1 1 0.991913
1 1 1
0.985031 1 0.999359
0.985031 1 0.999359
0.985031 1 0.999359
1 1 1
1 1 1
0 0 0.830671
0.166339 0 0.829114
0.950881 0 0.819165
1 0.912886 0.953399
1 0.978943 0.99472
0 0.245487 0.826261
0 0.235187 0.825299
0.942535 0 0.817441
1 0.913024 0.953475
1 0.978943 0.99472
0 0.827207 0.79559
0 0.825315 0.795453
0.793576 0.793606 0.793591
1 0.915221 0.954849
1 0.978943 0.99472
0.962036 1 0.982498
0.962051 1 0.982513
0.962203 1 0.98262
1 1 0.992035
1 1 1
0.985031 1 0.999359
0.985031 1 0.999359
0.985031 1 0.999359
1 1 1
1 1 1
0.590906 0.6327 1
0.591012 0.632792 1
0.856306 0.616266 1
1 0.931991 1
1 0.984161 1
0.591485 0.633204 1
0.591592 0.633295 1
0.855955 0.616846 1
1 0.932113 1
1 0.984161 1
0.491646 0.810101 1
0.491951 0.809995 1
0.786053 0.795178 1
1 0.934051 1
1 0.984161 1
0.963577 1 1
0.963577 1 1
0.963745 1 1
1 1 1
1 1 1
0.984283 1 1
0.984283 1 1
0.984283 1 1
1 1 1
1 1 1
0.869993 0.881651 1
0.869993 0.881636 1
0.869978 0.881636 1
1 0.984161 1
1 0.984161 1
0.869993 0.881636 1
0.869993 0.881636 1
0.869978 0.881636 1
1 0.984161 1
1 0.984161 1
0.869978 0.881636 1
0.869978 0.881636 1
0.869978 0.881636 1
1 0.984161 1
1 0.984161 1
0.984283 1 1
0.984283 1 1
0.984283 1 1
1 1 1
1 1 1
0.984283 1 1
0.984283 1 1
0.984283 1 1
1 1 1
1 1 1
