Windows Batch scripts/FFMPEG batch converters/v7/bt2020_to_bt709_example.cube
LUT_3D_SIZE 33
0 0 0
0.04520624 0 0.004580965
0.07675692 0 0.007778147
0.1083021 0 0.01097477
0.141203 0 0.01430877
0.1760833 0 0.01784337
0.2119505 0 0.02124008
0.251189 0 0.02486616
0.2940519 0 0.02472942
0.3404093 0 0.01803265
0.3905732 0 0
0.444898 0 0
0.5037799 0 0
0.5676594 0 0
0.6370261 0 0
0.7124251 0 0
0.794464 0 0
0.8838079 0 0
0.9812048 0 0
1.087505 0 0
1.203664 0 0
1.330773 0 0
1.470094 0 0
1.623025 0 0
1.627555 0 0
1.627285 0 0
1.626963 0 0
1.626578 0 0
1.626116 0 0
1.62556 0 0
1.624887 0 0.1333073
1.62407 0 0.2023138
1.623073 0 0.2631587
0 0.03521776 0
0.03396524 0.03310632 0.002660276
0.0723479 0.02577718 0.006217798
0.1070945 0 0.01004922
0.1408355 0 0.01380558
0.1758427 0 0.01751713
0.2117907 0 0.02101261
0.2510701 0 0.02470401
0.2939636 0 0.02459612
0.3403425 0 0.01786704
0.3905218 0 0
0.4448579 0 0
0.5037482 0 0
0.5676341 0 0
0.6370058 0 0
0.7124087 0 0
0.7944507 0 0
0.8837971 0 0
0.981196 0 0
1.087498 0 0
1.203658 0 0
1.330768 0 0
1.47009 0 0
1.623022 0 0
1.627555 0 0
1.627285 0 0
1.626963 0 0
1.626578 0 0
1.626116 0 0
1.62556 0 0
1.624887 0 0.1332999
1.62407 0 0.2023095
1.623074 0 0.2631557
0 0.05979721 0
0 0.05951646 0
0.05767052 0.05621212 0.004516955
0.09726389 0.05003524 0.008251253
0.1351158 0.0398716 0.01165277
0.1734267 0.01871005 0.0160774
0.211202 0 0.02014818
0.2506327 0 0.02409564
0.2936391 0 0.02409809
0.3400967 0 0.01724162
0.3903325 0 0
0.4447102 0 0
0.5036317 0 0
0.5675413 0 0
0.6369314 0 0
0.7123485 0 0
0.7944018 0 0
0.8837575 0 0
0.9811638 0 0
1.087472 0 0
1.203637 0 0
1.330751 0 0
1.470076 0 0
1.62301 0 0
1.627556 0 0
1.627286 0 0
1.626963 0 0
1.626579 0 0
1.626117 0 0
1.62556 0 0
1.624888 0 0.1332729
1.624071 0 0.2022938
1.623074 0 0.2631447
0 0.08437236 0
0 0.08423411 0
0.02804296 0.08301424 0
0.08137166 0.07931389 0.00637331
0.1232906 0.07328194 0.01036564
0.1644031 0.06423198 0.01409654
0.2052015 0.05209593 0.01758322
0.2480475 0.02945055 0.02230171
0.2929242 0 0.02295476
0.3395559 0 0.01575949
0.3899164 0 0
0.4443856 0 0
0.5033757 0 0
0.5673375 0 0
0.6367678 0 0
0.7122164 0 0
0.7942946 0 0
0.8836705 0 0
0.981093 0 0
1.087414 0 0
1.20359 0 0
1.330712 0 0
1.470044 0 0
1.622983 0 0
1.627557 0 0
1.627286 0 0
1.626964 0 0
1.626579 0 0
1.626117 0 0
1.625561 0 0
1.624888 0 0.1332135
1.624071 0 0.2022592
1.623074 0 0.2631205
0 0.1100037 0
0 0.1099205 0
0 0.1096139 0
0.05513794 0.1074741 0.001414626
0.1060914 0.1034085 0.008309445
0.1509372 0.09723965 0.01260771
0.1949274 0.08890688 0.01643805
0.2401453 0.07731603 0.01794149
0.287353 0.06004307 0.01645861
0.3371951 0.02278418 0.008171063
0.3891483 0 0
0.443787 0 0
0.5029037 0 0
0.5669619 0 0
0.6364665 0 0
0.7119731 0 0
0.794097 0 0
0.8835102 0 0
0.9809627 0 0
1.087308 0 0
1.203504 0 0
1.330641 0 0
1.469985 0 0
1.622935 0 0
1.627559 0 0
1.627288 0 0
1.626966 0 0
1.626581 0 0
1.626119 0 0
1.625562 0 0
1.624889 0 0.1331041
1.624072 0 0.2021957
1.623075 0 0.2630759
0 0.1371771 0
0 0.1371226 0
0 0.136922 0
0 0.1362344 0
0.0799962 0.1333976 0.00403986
0.1322481 0.1289748 0.008879297
0.1805131 0.1225446 0.01052184
0.2285728 0.1139389 0.007863957
0.2780034 0.1024428 0
0.3296534 0.08647667 0
0.3841653 0.06131929 0
0.4421432 0 0
0.5021108 0 0
0.5663313 0 0
0.6359609 0 0
0.711565 0 0
0.7937657 0 0
0.8832414 0 0
0.9807441 0 0
1.08713 0 0
1.203359 0 0
1.330522 0 0
1.469887 0 0
1.622853 0 0
1.627562 0 0
1.627291 0 0
1.626969 0 0
1.626583 0 0
1.626121 0 0
1.625564 0 0
1.624891 0 0.1329204
1.624074 0 0.202089
1.623076 0 0.2630011
0 0.1665165 0
0 0.1664781 0
0 0.1663366 0
0 0.1660252 0
0 0.1646842 0
0.1045377 0.1613134 0
0.1606458 0.156248 0
0.2127309 0.1494196 0
0.2649804 0.1404457 0
0.3188841 0.1287029 0
0.3752879 0.1129762 0
0.4348486 0.09035602 0
0.4981861 0.04871395 0
0.5653319 0 0
0.6351602 0 0
0.710919 0 0
0.7932416 0 0
0.8828161 0 0
0.9803983 0 0
1.086849 0 0
1.20313 0 0
1.330334 0 0
1.469731 0 0
1.622725 0 0
1.627567 0 0
1.627296 0 0
1.626973 0 0
1.626587 0 0
1.626124 0 0
1.625567 0 0
1.624894 0 0.1326295
1.624076 0 0.2019203
1.623079 0 0.2628829
0 0.1982234 0
0 0.1981961 0
0 0.198096 0
0 0.1978758 0
0 0.1974692 0
0.04913748 0.1950509 0
0.1321397 0.1910262 0
0.1913884 0.1855144 0
0.2476097 0.178221 0
0.3043633 0.1687654 0
0.3630815 0.1565675 0
0.4246192 0.14059 0
0.4896571 0.1186407 0
0.5588366 0.08436403 0
0.6328275 0 0
0.7099366 0 0
0.7924449 0 0
0.8821695 0 0
0.9798728 0 0
1.086421 0 0
1.202782 0 0
1.330049 0 0
1.469495 0 0
1.622529 0 0
1.627575 0 0
1.627303 0 0
1.626979 0 0
1.626592 0 0
1.626129 0 0
1.625572 0 0
1.624898 0 0.1321865
1.62408 0 0.201664
1.623082 0 0.2627033
0 0.2319121 0
0 0.2318919 0
0 0.2318178 0
0 0.231655 0
0 0.2313546 0
0 0.2307069 0
0.08324293 0.2274952 0
0.1615832 0.2230232 0
0.2246004 0.2170286 0
0.2853458 0.2092074 0
0.3469851 0.1991737 0
0.4109218 0.1863647 0
0.4780325 0.1698352 0
0.5490316 0.147747 0
0.6245925 0.115617 0
0.7054347 0.05112618 0
0.7912684 0 0
0.8812144 0 0
0.9790969 0 0
1.08579 0 0
1.202269 0 0
1.329628 0 0
1.469148 0 0
1.622242 0 0
1.627587 0 0
1.627313 0 0
1.626988 0 0
1.626601 0 0
1.626137 0 0
1.625578 0 0
1.624904 0 0.1315304
1.624085 0 0.2012856
1.623087 0 0.2624385
0 0.2682705 0
0 0.2682553 0
0 0.2681992 0
0 0.268076 0
0 0.267849 0
0 0.2674677 0
0 0.2661368 0
0.1142355 0.2625012 0
0.19311 0.2575596 0
0.2604801 0.251041 0
0.3261872 0.2426294 0
0.3931492 0.2319273 0
0.4627659 0.2183735 0
0.5359481 0.2010674 0
0.6134512 0.1783613 0
0.6959983 0.1466348 0
0.7843588 0.09371649 0
0.8793606 0 0
0.9779756 0 0
1.084878 0 0
1.201527 0 0
1.329023 0 0
1.468647 0 0
1.621827 0 0
1.627604 0 0
1.627328 0 0
1.627002 0 0
1.626613 0 0
1.626147 0 0
1.625588 0 0
1.624912 0 0.1305779
1.624093 0 0.2007388
1.623094 0 0.2620563
0 0.3075762 0
0 0.3075645 0
0 0.3075213 0
0 0.3074265 0
0 0.307252 0
0 0.3069589 0
0 0.3064946 0
0 0.3044159 0
0.1454128 0.3003404 0
0.2269726 0.2948998 0
0.2992692 0.2878114 0
0.3704212 0.2787442 0
0.4431963 0.2672841 0
0.5190122 0.2528597 0
0.5988261 0.2345859 0
0.6834453 0.2109148 0
0.7736511 0.1786805 0
0.8702676 0.1290432 0
0.9742112 0 0
1.083582 0 0
1.200474 0 0
1.328165 0 0
1.467938 0 0
1.621241 0 0
1.627628 0 0
1.62735 0 0
1.627021 0 0
1.62663 0 0
1.626163 0 0
1.625602 0 0
1.624925 0 0.1292143
1.624104 0 0.1999614
1.623104 0 0.261514
0 0.3501362 0
0 0.350127 0
0 0.3500933 0
0 0.3500193 0
0 0.3498831 0
0 0.3496545 0
0 0.3492926 0
0 0.348742 0
0 0.3458497 0
0.1775649 0.3413118 0
0.263251 0.3353372 0
0.341104 0.327629 0
0.4182593 0.3178375 0
0.4974143 0.3055274 0
0.5800282 0.2901077 0
0.6671178 0.2706873 0
0.7595538 0.245762 0
0.8581865 0.2124109 0
0.9638964 0.1633617 0
1.077715 0.05441664 0
1.198996 0 0
1.326966 0 0
1.466949 0 0
1.620422 0 0
1.627662 0 0
1.62738 0 0
1.627048 0 0
1.626654 0 0
1.626184 0 0
1.625621 0 0
1.624942 0 0.1272798
1.624119 0 0.1988694
1.623117 0 0.2607545
0 0.3962847 0
0 0.3962775 0
0 0.3962509 0
0 0.3961925 0
0 0.396085 0
0 0.3959046 0
0 0.3956193 0
0 0.3951855 0
0 0.3945448 0
0.07429406 0.3907705 0
0.2109655 0.3857417 0
0.3020064 0.3791922 0
0.3861318 0.3708079 0
0.4699419 0.3602172 0
0.5561347 0.3469585 0
0.6462374 0.3304128 0
0.7413434 0.3096658 0
0.8423964 0.2832177 0
0.9503359 0.2482642 0
1.066086 0.1983675 0
1.190829 0.1069452 0
1.3253 0 0
1.465584 0 0
1.619292 0 0
1.627711 0 0
1.627423 0 0
1.627085 0 0
1.626687 0 0
1.626214 0 0
1.625647 0 0
1.624966 0 0.1245465
1.624141 0 0.1973489
1.623137 0 0.259701
0 0.446353 0
0 0.4463473 0
0 0.4463261 0
0 0.4462796 0
0 0.446194 0
0 0.4460504 0
0 0.4458233 0
0 0.4454782 0
0 0.4449689 0
0 0.4437294 0
0.1145129 0.4395047 0
0.2465748 0.4339508 0
0.3438599 0.4267799 0
0.4349174 0.4176574 0
0.5260312 0.4061862 0
0.6199398 0.3918741 0
0.7182541 0.3740667 0
0.8221575 0.3518128 0
0.9326916 0.3235839 0
1.050898 0.2866067 0
1.177776 0.2348725 0
1.31463 0.1476986 0
1.462857 0 0
1.617747 0 0
1.627779 0 0
1.627482 0 0
1.627137 0 0
1.626733 0 0
1.626255 0 0
1.625684 0 0
1.624998 0 0.1206802
1.62417 0 0.1952434
1.623163 0 0.2582504
0 0.500726 0
0 0.5007214 0
0 0.5007044 0
0 0.500667 0
0 0.5005983 0
0 0.5004831 0
0 0.5003009 0
0 0.5000242 0
0 0.499616 0
0 0.4990268 0
0 0.4971289 0
0.1510729 0.4924305 0
0.2848159 0.4863116 0
0.3891964 0.4784657 0
0.4878973 0.4685347 0
0.5870343 0.456092 0
0.6894191 0.4406092 0
0.7967634 0.4213884 0
0.9103532 0.3974281 0
1.031335 0.3671465 0
1.160861 0.327741 0
1.300066 0.2733706 0
1.450368 0.1861027 0
1.613355 0 0
1.627876 0 0
1.627565 0 0
1.62721 0 0
1.626797 0 0
1.626311 0 0
1.625734 0 0
1.625043 0 0.1151662
1.62421 0 0.1923356
1.623199 0 0.2562629
0 0.5598331 0
0 0.5598294 0
0 0.5598157 0
0 0.5597855 0
0 0.55973 0
0 0.559637 0
0 0.5594898 0
0 0.5592664 0
0 0.558937 0
0 0.5584617 0
0 0.5577876 0
0 0.5551764 0
0.1874931 0.54997 0
0.3260059 0.5432405 0
0.4383617 0.5346597 0
0.5454901 0.5238419 0
0.6534519 0.5103268 0
0.7651635 0.4935438 0
0.8824558 0.4727429 0
1.006733 0.4468584 0
1.139262 0.4142301 0
1.281324 0.3719701 0
1.434209 0.3142302 0
1.599471 0.2243911 0
1.623534 0 0
1.627682 0 0
1.627311 0 0
1.626885 0 0
1.626388 0 0
1.625802 0 0
1.625104 0 0.1071518
1.624264 0 0.1883163
1.623247 0 0.2535466
0 0.6241525 0
0 0.6241495 0
0 0.6241383 0
0 0.6241139 0
0 0.6240688 0
0 0.6239932 0
0 0.6238737 0
0 0.6236923 0
0 0.6234249 0
0 0.6230393 0
0 0.6224927 0
0 0.6217282 0
0 0.6183465 0
0.2250647 0.612593 0
0.3704692 0.6052014 0
0.4917363 0.5958181 0
0.6081616 0.5840263 0
0.7258438 0.5693264 0
0.847836 0.5510991 0
0.9761082 0.5285331 0
1.1122 0.5004839 0
1.257518 0.4651874 0
1.413493 0.4196189 0
1.581594 0.3577815 0
1.609467 0.2857374 0
1.620323 0.1258101 0
1.627452 0 0
1.627006 0 0
1.626494 0 0
1.625896 0 0
1.625186 0 0.09503576
1.624338 0 0.1827329
1.623313 0 0.2498347
0 0.6942178 0
0 0.6942154 0
0 0.6942063 0
0 0.6941863 0
0 0.6941495 0
0 0.6940879 0
0 0.6939904 0
0 0.6938425 0
0 0.6936244 0
0 0.69331 0
0 0.6928646 0
0 0.6922418 0
0 0.6913804 0
0 0.687169 0
0.2644964 0.6808241 0
0.4185476 0.6727122 0
0.5497413 0.6624508 0
0.6764319 0.6495871 0
0.804838 0.6335768 0
0.9381825 0.6137443 0
1.078597 0.5892062 0
1.227777 0.5587236 0
1.38729 0.5204018 0
1.558741 0.4710275 0
1.592069 0.4228657 0
1.602009 0.3504937 0
1.616063 0.2026977 0
1.627177 0 0
1.62664 0 0
1.626023 0 0
1.625298 0 0.07495693
1.624437 0 0.1748923
1.623401 0 0.2447479
0 0.7706268 0
0 0.7706247 0
0 0.7706173 0
0 0.7706009 0
0 0.7705708 0
0 0.7705203 0
0 0.7704405 0
0 0.7703194 0
0 0.7701409 0
0 0.7698835 0
0 0.769519 0
0 0.7690096 0
0 0.7683053 0
0 0.76734 0
0 0.762237 0
0.3062821 0.7552508 0
0.4706093 0.7463533 0
0.6128446 0.7351289 0
0.7508832 0.7210838 0
0.8911406 0.7036221 0
1.037044 0.6820034 0
1.190913 0.6552605 0
1.354623 0.6220418 0
1.529925 0.5802933 0
1.570787 0.5436701 0
1.579893 0.4952197 0
1.592462 0.4181838 0
1.610548 0.2684887 0
1.626845 0 0
1.626198 0 0
1.625451 0 0.02339777
1.624571 0 0.1636575
1.62352 0 0.2377307
0 0.8540505 0
0 0.8540489 0
0 0.8540427 0
0 0.8540293 0
0 0.8540045 0
0 0.8539631 0
0 0.8538975 0
0 0.853798 0
0 0.8536514 0
0 0.8534401 0
0 0.8531408 0
0 0.8527226 0
0 0.8521448 0
0 0.8513532 0
0 0.8502097 0
0 0.8442169 0
0.3508255 0.8365331 0
0.5270549 0.8267766 0
0.681568 0.814494 0
0.8321696 0.7991443 0
0.9855477 0.7800726 0
1.145373 0.7564635 0
1.314181 0.7272524 0
1.494056 0.6909549 0
1.545306 0.6611107 0
1.553464 0.6256033 0
1.56472 0.5731093 0
1.580457 0.4899204 0
1.603582 0.3318432 0
1.626443 0 0
1.625661 0 0
1.624754 0 0.1469393
1.623681 0 0.2279329
0 0.9452449 0
0 0.9452436 0
0 0.9452385 0
0 0.9452274 0
0 0.9452071 0
0 0.9451729 0
0 0.9451189 0
0 0.945037 0
0 0.9449162 0
0 0.9447422 0
0 0.9444958 0
0 0.9441517 0
0 0.9436762 0
0 0.943025 0
0 0.9421395 0
0 0.9404664 0
0 0.9338589 0
0.3984922 0.9254146 0
0.5883245 0.9147169 0
0.7564954 0.901269 0
0.9210276 0.8844759 0
1.08896 0.863615 0
1.264249 0.8377843 0
1.448909 0.8053759 0
1.508221 0.7764474 0
1.52252 0.7530333 0
1.532383 0.7143784 0
1.546134 0.6571503 0
1.565637 0.566396 0
1.595002 0.3951904 0
1.625953 0 0
1.625004 0 0.1199792
1.623899 0 0.2139633
0 1.045064 0
0 1.045062 0
0 1.045058 0
0 1.045049 0
0 1.045032 0
0 1.045004 0
0 1.04496 0
0 1.044892 0
0 1.044792 0
0 1.044649 0
0 1.044445 0
0 1.044161 0
0 1.043769 0
0 1.043232 0
0 1.042503 0
0 1.041516 0
0 1.039287 0
0.02531361 1.032011 0
0.4496357 1.022736 0
0.654904 1.011004 0
0.8382819 0.9962703 0
1.018289 0.9778772 0
1.189332 0.9446463 0
1.341084 0.8909549 0
1.408756 0.8596256 0
1.42705 0.8468545 0
1.452079 0.8281268 0
1.486136 0.7992708 0
1.523749 0.747861 0
1.547677 0.6480588 0
1.58472 0.4592505 0
1.625352 0 0.06275316
1.624197 0 0.1932841
0 1.150518 0
0 1.150517 0
0 1.150516 0
0 1.150512 0
0 1.150506 0
0 1.150495 0
0 1.150477 0
0 1.150451 0
0 1.150412 0
0 1.150355 0
0 1.150275 0
0 1.150162 0
0 1.150004 0
0 1.149784 0
0 1.149478 0
0 1.149052 0
0 1.148452 0
0 1.14502 0
0.1170798 1.130774 0
0.4963849 1.111034 0
0.7068015 1.085061 0
0.8868159 1.051967 0
1.052662 1.010886 0
1.208703 0.9610945 0
1.293868 0.9278621 0
1.30879 0.9199313 0
1.329353 0.9086018 0
1.358084 0.8919198 0
1.398943 0.8662077 0
1.45778 0.8234422 0
1.526311 0.7351901 0
1.572765 0.5238586 0
1.62461 0 0.1602283
0 1.173991 0
0 1.173991 0
0 1.17399 0
0 1.17399 0
0 1.173989 0
0 1.173987 0
0 1.173983 0
0 1.173979 0
0 1.173971 0
0 1.173961 0
0 1.173947 0
0 1.173926 0
0 1.173898 0
0 1.17386 0
0 1.173808 0
0 1.173737 0
0 1.173641 0
0 1.173511 0
0 1.168575 0
0.1541899 1.150511 0
0.5099565 1.127605 0
0.7188185 1.098909 0
0.8977263 1.063447 0
1.062466 1.020301 0
1.173004 0.9845085 0
1.184565 0.9796054 0
1.200426 0.9727167 0
1.222469 0.9628176 0
1.253654 0.9481222 0
1.298894 0.925217 0
1.366609 0.8865833 0
1.471094 0.8112631 0
1.559358 0.5881146 0
0 1.182205 0
0 1.182205 0
0 1.182205 0
0 1.182205 0
0 1.182205 0
0 1.182205 0
0 1.182205 0
0 1.182205 0
0 1.182205 0
0 1.182205 0
0 1.182205 0
0 1.182205 0
0 1.182205 0
0 1.182205 0
0 1.182205 0
0 1.182205 0
0 1.182205 0
0 1.182205 0
0 1.182205 0
0 1.176328 0
0.2036507 1.1572 0
0.5298167 1.133346 0
0.7338897 1.104037 0
0.907708 1.068649 0
1.050362 1.031164 0
1.059049 1.028142 0
1.070907 1.023956 0
1.087269 1.018058 0
1.110188 1.009541 0
1.142972 0.9968025 0
1.191301 0.9767032 0
1.265538 0.9420983 0
1.387087 0.8725374 0
0 1.182205 0
0 1.182205 0
0 1.182205 0
0 1.182205 0
0 1.182205 0
0 1.182205 0
0 1.182205 0
0 1.182205 0
0 1.182205 0
0 1.182205 0
0 1.182205 0
0 1.182205 0
0 1.182205 0
0 1.182205 0
0 1.182205 0
0 1.182205 0
0 1.182205 0
0 1.182205 0
0 1.182205 0
0 1.182205 0
0 1.173718 0
0.36338 1.148734 0
0.6461484 1.118148 0
0.8509972 1.081344 0
1.027123 1.037945 0
1.047825 1.03204 0
1.047825 1.03204 0
1.047825 1.03204 0
1.047825 1.03204 0
1.047825 1.03204 0
1.047825 1.03204 0
1.079642 1.020825 0
1.158807 0.9901701 0
0 1.182205 0
0 1.182205 0
0 1.182205 0
0 1.182205 0
0 1.182205 0
0 1.182205 0
0 1.182205 0
0 1.182205 0
0 1.182205 0
0 1.182205 0
0 1.182205 0
0 1.182205 0
0 1.182205 0
0 1.182205 0
0 1.182205 0
0 1.182205 0
0 1.182205 0
0 1.182205 0
0 1.182205 0
0 1.182205 0
0 1.182205 0
0 1.170351 0
0.4880878 1.13788 0
0.7619174 1.09902 0
0.9696251 1.053426 0
1.047825 1.03204 0
1.047825 1.03204 0
1.047825 1.03204 0
1.047825 1.03204 0
1.047825 1.03204 0
1.047825 1.03204 0
1.047825 1.03204 0
1.047825 1.03204 0
0 1.182205 0
0 1.182205 0
0 1.182205 0
0 1.182205 0
0 1.182205 0
0 1.182205 0
0 1.182205 0
0 1.182205 0
0 1.182205 0
