Windows Batch scripts/FFMPEG batch converters/v7/bt2020_to_bt709_example.cube
LUT_3D_SIZE 9
0 0 0
0.141203 0 0.01430877
0.2940519 0 0.02472942
0.5037799 0 0
0.794464 0 0
1.203664 0 0
1.627555 0 0
1.626116 0 0
1.623073 0 0.2631587
0 0.1100037 0
0.1060914 0.1034085 0.008309445
0.287353 0.06004307 0.01645861
0.5029037 0 0
0.794097 0 0
1.203504 0 0
1.627559 0 0
1.626119 0 0
1.623075 0 0.2630759
0 0.2319121 0
0 0.2313546 0
0.2246004 0.2170286 0
0.4780325 0.1698352 0
0.7912684 0 0
1.202269 0 0
1.627587 0 0
1.626137 0 0
1.623087 0 0.2624385
0 0.3962847 0
0 0.396085 0
0 0.3945448 0
0.3861318 0.3708079 0
0.7413434 0.3096658 0
1.190829 0.1069452 0
1.627711 0 0
1.626214 0 0
1.623137 0 0.259701
0 0.6241525 0
0 0.6240688 0
0 0.6234249 0
0 0.6183465 0
0.6081616 0.5840263 0
1.1122 0.5004839 0
1.609467 0.2857374 0
1.626494 0 0
1.623313 0 0.2498347
0 0.9452449 0
0 0.9452071 0
0 0.9449162 0
0 0.9436762 0
0 0.9338589 0
0.9210276 0.8844759 0
1.508221 0.7764474 0
1.565637 0.566396 0
1.623899 0 0.2139633
0 1.182205 0
0 1.182205 0
0 1.182205 0
0 1.182205 0
0 1.182205 0
0.2036507 1.1572 0
1.050362 1.031164 0
1.110188 1.009541 0
1.387087 0.8725374 0
0 1.182205 0
0 1.182205 0
0 1.182205 0
0 1.182205 0
0 1.182205 0
0 1.182205 0
0.7172693 1.106894 0
1.047825 1.03204 0
1.047825 1.03204 0
0 1.182205 0
0 1.182205 0
0 1.182205 0
0 1.182205 0
0 1.182205 0
0 1.182205 0
0 1.182205 0
1.047825 1.03204 0
1.047825 1.03204 0
0.01518261 0.01518135 0.1366174
0.1355995 0 0.1156606
0.2925208 0 0.09445584
0.5032284 0 0.06305936
0.7940766 0 0
1.203294 0 0
1.627375 0 0
1.625997 0 0
1.622995 0 0.2674095
0 0.1087611 0.1046016
0.1026448 0.102644 0.102643
0.2860008 0.06001322 0.09214509
0.5023519 0 0.06237183
0.7937157 0 0
1.203133 0 0
1.627378 0 0
1.625999 0 0
1.622996 0 0.2673284
0 0.2315438 0.06465916
0 0.2309837 0.06502517
0.2238286 0.2168478 0.06048537
0.477574 0.1697894 0.02795056
0.7909293 0 0
1.201894 0 0
1.627404 0 0
1.626017 0 0
1.623008 0 0.2667049
0 0.3962383 0
0 0.3960383 0
0 0.3944962 0
0.3856547 0.370793 0
0.7409536 0.3096968 0
1.19046 0.1073708 0
1.627518 0 0
1.626092 0 0
1.623057 0 0.2640277
0 0.6241391 0
0 0.6240553 0
0 0.6234115 0
0 0.6183447 0
0.6080592 0.5840195 0
1.112164 0.500471 0
1.609281 0.285838 0
1.626364 0 0
1.623232 0 0.254391
0 0.9452388 0
0 0.945201 0
0 0.9449101 0
0 0.9436701 0
0 0.9338579 0
0.9209813 0.8844729 0
1.508226 0.7764413 0
1.565517 0.566415 0
1.623813 0 0.2195504
0 1.182205 0
0 1.182205 0
0 1.182205 0
0 1.182205 0
0 1.182205 0
0.20347 1.157207 0
1.050364 1.031163 0
1.110191 1.00954 0
1.38698 0.8725151 0
0 1.182205 0
0 1.182205 0
0 1.182205 0
0 1.182205 0
0 1.182205 0
0 1.182205 0
0.7172366 1.106899 0
1.047825 1.03204 0
1.047825 1.03204 0
0 1.182205 0
0 1.182205 0
0 1.182205 0
0 1.182205 0
0 1.182205 0
0 1.182205 0
0 1.182205 0
1.047825 1.03204 0
1.047825 1.03204 0
0.06329118 0.02905089 0.2778636
0.111538 0.02892365 0.2713636
0.2820878 0 0.2405868
0.4978026 0 0.2100458
0.7908453 0 0.1735179
1.201322 0 0.08601034
1.626265 0 0
1.625159 0 0.09926162
1.622409 0 0.2973635
0.03831288 0.101352 0.2594215
0.08405158 0.09768804 0.258189
0.2765295 0.05963585 0.2388007
0.4969146 0 0.2099547
0.7904789 0 0.1733596
1.201158 0 0.08565898
1.626267 0 0
1.625161 0 0.09896709
1.622411 0 0.2972934
0 0.2287742 0.219506
0 0.2282022 0.2196878
0.2155514 0.2155496 0.2155475
0.4726164 0.1698549 0.200887
0.7876544 0 0.1721348
1.199898 0 0.08289613
1.626286 0 0
1.625176 0 0.09666817
1.622422 0 0.2967547
0 0.3952929 0.1701473
0 0.3950919 0.1702353
0 0.3935414 0.1709113
0.3806106 0.3704856 0.1644731
0.7379674 0.3098875 0.1430516
1.188475 0.1093309 0.05691807
1.626366 0 0
1.62524 0 0.08601762
1.622469 0 0.2944461
0 0.6238504 0
0 0.6237665 0
0 0.6231212 0
0 0.6181601 0
0.6056462 0.5839549 0
1.110543 0.500604 0
1.608167 0.2863983 0
1.625471 0 0
1.622634 0 0.2861956
0 0.9451921 0
0 0.9451543 0
0 0.9448634 0
0 0.9436232 0
0 0.9338504 0
0.9206118 0.8844496 0
1.50781 0.7763843 0
1.564694 0.5665348 0
1.623181 0 0.2572685
0 1.182205 0
0 1.182205 0
0 1.182205 0
0 1.182205 0
0 1.182205 0
0.2020756 1.157256 0
1.050384 1.031157 0
1.110213 1.009532 0
1.386188 0.8723403 0
0 1.182205 0
0 1.182205 0
0 1.182205 0
0 1.182205 0
0 1.182205 0
0 1.182205 0
0.716986 1.106942 0
1.047825 1.03204 0
1.047825 1.03204 0
0 1.182205 0
0 1.182205 0
0 1.182205 0
0 1.182205 0
0 1.182205 0
0 1.182205 0
0 1.182205 0
1.047825 1.03204 0
1.047825 1.03204 0
0.1021509 0.05628331 0.4731849
0.1021533 0.05628461 0.4731958
0.2536101 0.04973004 0.4523651
0.4822141 0 0.4112704
0.7819112 0 0.3677471
1.195858 0 0.31703
1.623134 0 0.25983
1.622377 0 0.2989539
1.620185 0 0.3936595
0.09746449 0.08807333 0.4675416
0.09794242 0.08553631 0.4680848
0.2504109 0.05494935 0.4523754
0.4812893 0 0.4113493
0.7815377 0 0.3677224
1.195692 0 0.3169784
1.623136 0 0.2597457
1.622378 0 0.2988844
1.620186 0 0.3936121
0 0.2196408 0.4281138
0 0.2190451 0.4283181
0.1946625 0.2099534 0.4238781
0.4592781 0.1682231 0.4020061
0.7786582 0 0.3675331
1.194415 0 0.3165815
1.623148 0 0.2590971
1.622389 0 0.2983496
1.620195 0 0.3932476
0 0.3910773 0.3752339
0 0.3908726 0.3752989
0 0.3892933 0.3758006
0.3684737 0.3684706 0.368467
0.730088 0.3095816 0.3489009
1.183183 0.1129026 0.3120155
1.623198 0 0.2563107
1.622436 0 0.2960582
1.620235 0 0.3916908
0 0.6221079 0.3084053
0 0.6220235 0.3084386
0 0.6213744 0.3086942
0 0.6168691 0.3089768
0.5976434 0.5833219 0.2996494
1.105532 0.5007419 0.2731158
1.605155 0.2876349 0.2328225
1.622601 0 0.2878716
1.620375 0 0.3861944
0 0.9445109 0.1568655
0 0.944473 0.1569097
0 0.9441813 0.1572488
0 0.9429377 0.1586841
0 0.933401 0.1585896
0.9154896 0.884291 0.1275144
1.504164 0.7759298 0
1.562088 0.566792 0.2102392
1.62083 0 0.3678093
0 1.181905 0
0 1.181905 0
0 1.181904 0
0 1.181901 0
0 1.181891 0
0.1924515 1.15715 0
1.049493 1.030882 0
1.108522 1.009048 0
1.383156 0.8715488 0.1459267
0 1.182205 0
0 1.182205 0
0 1.182205 0
0 1.182205 0
0 1.182205 0
0 1.182205 0
0.7159174 1.107122 0
1.047825 1.03204 0
1.047825 1.03204 0
0 1.182205 0
0 1.182205 0
0 1.182205 0
0 1.182205 0
0 1.182205 0
0 1.182205 0
0 1.182205 0
1.047825 1.03204 0
1.047825 1.03204 0
0.1608887 0.0886468 0.745271
0.1608897 0.08864734 0.7452756
0.1897575 0.08795758 0.7426556
0.4446726 0.07498025 0.7043942
0.7594921 0 0.6477551
1.182393 0 0.5855545
1.616142 0 0.5338136
1.615642 0 0.5493607
1.614077 0 0.59623
0.1608819 0.08864302 0.7452393
0.1608829 0.08864356 0.7452438
0.1862503 0.08804533 0.7429699
0.4436778 0.07505524 0.7045423
0.7591047 0 0.6477881
1.182224 0 0.585546
1.616143 0 0.5337826
1.615643 0 0.549331
1.614078 0 0.5962035
0.1370733 0.2017425 0.7204301
0.1372808 0.2011338 0.7206069
0.1388692 0.1963633 0.7219802
0.4270197 0.1614831 0.6962818
0.7561176 0 0.6480438
1.180923 0 0.585481
1.61615 0 0.533545
1.61565 0 0.5491027
1.614085 0 0.5960001
0 0.3790823 0.6633468
0 0.3788705 0.663419
0 0.377237 0.6639763
0.3412977 0.3613058 0.6556526
0.7114696 0.3068194 0.6279138
1.170447 0.1171951 0.582795
1.616183 0 0.5325317
1.615682 0 0.5481296
1.614115 0 0.5951331
0 0.6159508 0.5909972
0 0.6158649 0.5910245
0 0.6152049 0.5912342
0 0.6120145 0.5919016
0.5803498 0.580345 0.5803393
1.093849 0.5000164 0.5532797
1.598741 0.2892775 0.5206802
1.615792 0 0.544718
1.614219 0 0.5920965
0 0.9417299 0.4975459
0 0.9416917 0.4975604
0 0.9413983 0.4976714
0 0.940147 0.4981442
0 0.9313937 0.4977344
0.9036173 0.8832322 0.4842888
1.49482 0.7736126 0.4563022
1.556288 0.566781 0.5041928
1.614554 0 0.5822211
0 1.178186 0.2713541
0 1.178185 0.2713601
0 1.178185 0.2714059
0 1.178182 0.2716008
0 1.178171 0.272279
0.1375782 1.154468 0.2650895
1.043482 1.028665 0.2157719
1.102165 1.00664 0.2665216
1.374625 0.8685232 0.4405582
0 1.180442 0
0 1.180442 0
0 1.180441 0
0 1.180438 0
0 1.180428 0
0 1.180395 0
0.7074993 1.106305 0
1.043557 1.030792 0
1.041876 1.030188 0.138319
0 1.182205 0
0 1.182205 0
0 1.182205 0
0 1.182205 0
0 1.182205 0
0 1.182205 0
0 1.182205 0
1.047825 1.03204 0
1.047825 1.03204 0
0.2436572 0.1342507 1.128672
0.2436577 0.134251 1.128674
0.2436611 0.1342529 1.12869
0.3646489 0.1308279 1.116019
0.7078379 0.1106814 1.060486
1.150209 0 0.9809898
1.601591 0 0.9129892
1.601266 0 0.9203822
1.600221 0 0.9439282
0.2436541 0.134249 1.128658
0.2436546 0.1342493 1.12866
0.243658 0.1342512 1.128676
0.3635109 0.1308662 1.116146
0.7074245 0.1107152 1.060548
1.150034 0 0.9810047
1.601592 0 0.9129747
1.601267 0 0.9203678
1.600221 0 0.9439144
0.2382787 0.1761288 1.121936
0.2383692 0.1755292 1.122045
0.2390643 0.1708313 1.122892
0.3532806 0.1455497 1.115312
0.7042363 0.1109748 1.061019
1.148688 0 0.9811194
1.601597 0 0.9128633
1.601272 0 0.9202578
1.600226 0 0.9438082
0.1881607 0.35482 1.076344
0.1882599 0.3546024 1.076413
0.1890201 0.3529245 1.07694
0.2713672 0.3438005 1.075241
0.6685495 0.2972176 1.040978
1.140415 0.1184859 0.9799073
1.601618 0 0.9123892
1.601292 0 0.919789
1.600246 0 0.9433561
0 0.5994952 0.9963096
0 0.5994067 0.9963396
0 0.5987262 0.9965706
0 0.5958136 0.9975596
0.5431205 0.570633 0.9840167
1.067519 0.495817 0.9466588
1.58612 0.2897585 0.9026224
1.601364 0 0.9181522
1.600317 0 0.9417776
0 0.9328239 0.895033
0 0.9327851 0.8950454
0 0.9324869 0.8951401
0 0.9312155 0.895544
0 0.9245412 0.8955579
0.8789081 0.8789009 0.8788922
1.471985 0.7643277 0.836384
1.545306 0.5648232 0.8834764
1.600543 0 0.9366967
0 1.166111 0.6507052
0 1.16611 0.650707
0 1.16611 0.6507208
0 1.166107 0.6507798
0 1.166096 0.6509852
0 1.145551 0.6407217
1.030787 1.02116 0.5761126
1.088364 0.9984951 0.6144659
1.353988 0.8581826 0.7849043
0 1.168369 0.6036247
0 1.168369 0.6036267
0 1.168368 0.6036421
0 1.168365 0.6037079
0 1.168355 0.6039371
0 1.168321 0.6046703
0.6800355 1.098899 0.5712799
1.028916 1.023699 0.5373275
1.027892 1.023061 0.5578957
0 1.175789 0.3909252
0 1.175789 0.3909289
0 1.175789 0.3909572
0 1.175786 0.3910778
0 1.175775 0.3914978
0 1.175741 0.3928385
0 1.175637 0.3969714
1.03698 1.0281 0.3446871
1.035687 1.027472 0.3810861
0.3625831 0.1997767 1.679562
0.3625833 0.1997768 1.679563
0.3625849 0.1997777 1.679571
0.3625917 0.1997815 1.679602
0.5983616 0.1925827 1.653383
1.076797 0.162557 1.573328
1.573782 0.08582467 1.482106
1.573782 0.08582467 1.482106
1.573782 0.08582467 1.482106
0.3625816 0.1997759 1.679555
0.3625818 0.199776 1.679556
0.3625834 0.1997769 1.679564
0.3625902 0.1997807 1.679595
0.5978988 0.1926011 1.653446
1.076611 0.1625739 1.573363
1.573782 0.08582467 1.482106
1.573782 0.08582467 1.482106
1.573782 0.08582467 1.482106
0.3625705 0.1997698 1.679504
0.3625707 0.1997699 1.679505
0.3625723 0.1997708 1.679512
0.3625791 0.1997746 1.679544
0.5943282 0.1927427 1.653931
1.075177 0.1627035 1.573628
1.573782 0.08582467 1.482106
1.573782 0.08582467 1.482106
1.573782 0.08582467 1.482106
0.3450167 0.3174272 1.658493
0.3450591 0.3172111 1.65854
0.3453847 0.3155453 1.658906
0.3467703 0.3083147 1.660471
0.5703008 0.2747055 1.644447
1.069036 0.163255 1.574764
1.573782 0.08582467 1.482106
1.573782 0.08582467 1.482106
1.573782 0.08582467 1.482106
0.2615675 0.5654869 1.589941
0.2616161 0.5653959 1.58997
0.2619894 0.5646959 1.590197
0.2635739 0.5617001 1.591166
0.4509929 0.5466065 1.585665
1.007536 0.4819889 1.538893
1.563321 0.2839197 1.474501
1.573782 0.08582467 1.482106
1.573782 0.08582467 1.482106
0 0.9094666 1.476961
0 0.9094267 1.476974
0 0.9091197 1.477078
0 0.9078111 1.477521
0 0.9032216 1.479076
0.8260664 0.8651887 1.458271
1.415566 0.7330739 1.352238
1.527014 0.5560536 1.448675
1.573782 0.08582467 1.482106
0 1.130654 1.10773
0 1.130654 1.107731
0 1.130654 1.107737
0 1.130651 1.107762
0 1.130642 1.107849
0 1.118581 1.097604
0.9997251 0.9997168 0.999707
1.060927 0.9733646 1.046145
1.307415 0.8268459 1.261092
0 1.132692 1.088413
0 1.132692 1.088413
0 1.132691 1.088419
0 1.132689 1.088445
0 1.132679 1.088536
0 1.132649 1.088825
0.6245647 1.07585 1.040606
1.001647 1.001624 0.9777787
1.001029 1.001016 0.9861773
0 1.139433 1.020737
0 1.139433 1.020738
0 1.139432 1.020745
0 1.13943 1.020774
0 1.13942 1.020875
0 1.139389 1.021199
0 1.139293 1.022205
1.006097 1.005881 0.9157933
1.005437 1.005264 0.9251457
0.3625985 0.1997853 1.679634
0.3625985 0.1997853 1.679634
0.3625985 0.1997853 1.679634
0.3625985 0.1997853 1.679634
0.3625985 0.1997853 1.679634
0.9120966 0.1756582 1.60328
1.573782 0.08582467 1.482106
1.573782 0.08582467 1.482106
1.573782 0.08582467 1.482106
0.3625985 0.1997853 1.679634
0.3625985 0.1997853 1.679634
0.3625985 0.1997853 1.679634
0.3625985 0.1997853 1.679634
0.3625985 0.1997853 1.679634
0.9118516 0.1756752 1.603324
1.573782 0.08582467 1.482106
1.573782 0.08582467 1.482106
1.573782 0.08582467 1.482106
0.3625985 0.1997853 1.679634
0.3625985 0.1997853 1.679634
0.3625985 0.1997853 1.679634
0.3625985 0.1997853 1.679634
0.3625985 0.1997853 1.679634
0.9099666 0.175806 1.603657
1.573782 0.08582467 1.482106
1.573782 0.08582467 1.482106
1.573782 0.08582467 1.482106
0.3625985 0.1997853 1.679634
0.3625985 0.1997853 1.679634
0.3625985 0.1997853 1.679634
0.3625985 0.1997853 1.679634
0.3625985 0.1997853 1.679634
0.9018715 0.1763634 1.605088
1.573782 0.08582467 1.482106
1.573782 0.08582467 1.482106
1.573782 0.08582467 1.482106
0.2886119 0.5089077 1.608473
0.2886571 0.5087999 1.608506
0.2890038 0.5079711 1.608754
0.2904769 0.5044185 1.609817
0.2955794 0.4917148 1.61359
0.8420331 0.426002 1.575869
1.572694 0.1260139 1.481311
1.573782 0.08582467 1.482106
1.573782 0.08582467 1.482106
0 0.8859547 1.488105
0 0.8859128 1.488119
0 0.8855912 1.48822
0 0.8842199 1.488653
0 0.8794085 1.490173
0.6097476 0.8509591 1.480348
1.434692 0.7125919 1.370705
1.535007 0.5094764 1.454284
1.573782 0.08582467 1.482106
0 1.129706 1.116563
0 1.129706 1.116563
0 1.129706 1.116563
0 1.129706 1.116563
0 1.129706 1.116563
0 1.129706 1.116563
0.9495141 1.010251 1.027259
1.069986 0.968557 1.058731
1.323568 0.8144098 1.274978
0 1.129706 1.116563
0 1.129706 1.116563
0 1.129706 1.116563
0 1.129706 1.116563
0 1.129706 1.116563
0 1.129706 1.116563
0.4694291 1.09138 1.082592
1.000007 0.9999989 0.9999891
1.000007 0.9999989 0.9999891
0 1.129706 1.116563
0 1.129706 1.116563
0 1.129706 1.116563
0 1.129706 1.116563
0 1.129706 1.116563
0 1.129706 1.116563
0 1.129706 1.116563
1.000007 0.9999989 0.9999891
1.000007 0.9999989 0.9999891
0.3625985 0.1997853 1.679634
0.3625985 0.1997853 1.679634
0.3625985 0.1997853 1.679634
0.3625985 0.1997853 1.679634
0.3625985 0.1997853 1.679634
0.3625985 0.1997853 1.679634
1.387036 0.1252536 1.515731
1.573782 0.08582467 1.482106
1.573782 0.08582467 1.482106
0.3625985 0.1997853 1.679634
0.3625985 0.1997853 1.679634
0.3625985 0.1997853 1.679634
0.3625985 0.1997853 1.679634
0.3625985 0.1997853 1.679634
0.3625985 0.1997853 1.679634
1.386916 0.125273 1.515753
1.573782 0.08582467 1.482106
1.573782 0.08582467 1.482106
0.3625985 0.1997853 1.679634
0.3625985 0.1997853 1.679634
0.3625985 0.1997853 1.679634
0.3625985 0.1997853 1.679634
0.3625985 0.1997853 1.679634
0.3625985 0.1997853 1.679634
1.385992 0.1254213 1.515922
1.573782 0.08582467 1.482106
1.573782 0.08582467 1.482106
0.3625985 0.1997853 1.679634
0.3625985 0.1997853 1.679634
0.3625985 0.1997853 1.679634
0.3625985 0.1997853 1.679634
0.3625985 0.1997853 1.679634
0.3625985 0.1997853 1.679634
1.382046 0.1260511 1.516646
1.573782 0.08582467 1.482106
1.573782 0.08582467 1.482106
0.3625985 0.1997853 1.679634
0.3625985 0.1997853 1.679634
0.3625985 0.1997853 1.679634
0.3625985 0.1997853 1.679634
0.3625985 0.1997853 1.679634
0.3625985 0.1997853 1.679634
1.36813 0.1282281 1.519202
1.573782 0.08582467 1.482106
1.573782 0.08582467 1.482106
0 0.8005701 1.515358
0 0.8005199 1.515374
0 0.8001339 1.515498
0 0.7984873 1.516029
0 0.7926988 1.517897
0 0.7736362 1.524059
1.249622 0.6564362 1.469211
1.56314 0.2860125 1.47437
1.573782 0.08582467 1.482106
0 1.126207 1.137354
0 1.126204 1.137372
0 1.126181 1.137507
0 1.126082 1.138085
0 1.125735 1.140105
0 1.1246 1.146649
0.7064633 1.053695 1.104833
1.102361 0.9527676 1.086079
1.379861 0.7669232 1.323442
0 1.129706 1.116563
0 1.129706 1.116563
0 1.129706 1.116563
0 1.129706 1.116563
0 1.129706 1.116563
0 1.129706 1.116563
0 1.129706 1.116563
1.000007 0.9999989 0.9999891
1.000007 0.9999989 0.9999891
0 1.129706 1.116563
0 1.129706 1.116563
0 1.129706 1.116563
0 1.129706 1.116563
0 1.129706 1.116563
0 1.129706 1.116563
0 1.129706 1.116563
0.8707617 1.030561 1.027833
1.000007 0.9999989 0.9999891
