Windows Batch scripts/FFMPEG batch converters/v7/bt2020_to_bt709_example.cube
LUT_3D_SIZE 5
0 0 0
0.2940519 0 0.02472942
0.794464 0 0
1.627555 0 0
1.623073 0 0.2631587
0 0.2319121 0
0.2246004 0.2170286 0
0.7912684 0 0
1.627587 0 0
1.623087 0 0.2624385
0 0.6241525 0
0 0.6234249 0
0.6081616 0.5840263 0
1.609467 0.2857374 0
1.623313 0 0.2498347
0 1.182205 0
0 1.182205 0
0 1.182205 0
1.050362 1.031164 0
1.387087 0.8725374 0
0 1.182205 0
0 1.182205 0
0 1.182205 0
0 1.182205 0
1.047825 1.03204 0
0.06329118 0.02905089 0.2778636
0.2820878 0 0.2405868
0.7908453 0 0.1735179
1.626265 0 0
1.622409 0 0.2973635
0 0.2287742 0.219506
0.2155514 0.2155496 0.2155475
0.7876544 0 0.1721348
1.626286 0 0
1.622422 0 0.2967547
0 0.6238504 0
0 0.6231212 0
0.6056462 0.5839549 0
1.608167 0.2863983 0
1.622634 0 0.2861956
0 1.182205 0
0 1.182205 0
0 1.182205 0
1.050384 1.031157 0
1.386188 0.8723403 0
0 1.182205 0
0 1.182205 0
0 1.182205 0
0 1.182205 0
1.047825 1.03204 0
0.1608887 0.0886468 0.745271
0.1897575 0.08795758 0.7426556
0.7594921 0 0.6477551
1.616142 0 0.5338136
1.614077 0 0.59623
0.1370733 0.2017425 0.7204301
0.1388692 0.1963633 0.7219802
0.7561176 0 0.6480438
1.61615 0 0.533545
1.614085 0 0.5960001
0 0.6159508 0.5909972
0 0.6152049 0.5912342
0.5803498 0.580345 0.5803393
1.598741 0.2892775 0.5206802
1.614219 0 0.5920965
0 1.178186 0.2713541
0 1.178185 0.2714059
0 1.178171 0.272279
1.043482 1.028665 0.2157719
1.374625 0.8685232 0.4405582
0 1.182205 0
0 1.182205 0
0 1.182205 0
0 1.182205 0
1.047825 1.03204 0
0.3625831 0.1997767 1.679562
0.3625849 0.1997777 1.679571
0.5983616 0.1925827 1.653383
1.573782 0.08582467 1.482106
1.573782 0.08582467 1.482106
0.3625705 0.1997698 1.679504
0.3625723 0.1997708 1.679512
0.5943282 0.1927427 1.653931
1.573782 0.08582467 1.482106
1.573782 0.08582467 1.482106
0.2615675 0.5654869 1.589941
0.2619894 0.5646959 1.590197
0.4509929 0.5466065 1.585665
1.563321 0.2839197 1.474501
1.573782 0.08582467 1.482106
0 1.130654 1.10773
0 1.130654 1.107737
0 1.130642 1.107849
0.9997251 0.9997168 0.999707
1.307415 0.8268459 1.261092
0 1.139433 1.020737
0 1.139432 1.020745
0 1.13942 1.020875
0 1.139293 1.022205
1.005437 1.005264 0.9251457
0.3625985 0.1997853 1.679634
0.3625985 0.1997853 1.679634
0.3625985 0.1997853 1.679634
1.387036 0.1252536 1.515731
1.573782 0.08582467 1.482106
0.3625985 0.1997853 1.679634
0.3625985 0.1997853 1.679634
0.3625985 0.1997853 1.679634
1.385992 0.1254213 1.515922
1.573782 0.08582467 1.482106
0.3625985 0.1997853 1.679634
0.3625985 0.1997853 1.679634
0.3625985 0.1997853 1.679634
1.36813 0.1282281 1.519202
1.573782 0.08582467 1.482106
0 1.126207 1.137354
0 1.126181 1.137507
0 1.125735 1.140105
0.7064633 1.053695 1.104833
1.379861 0.7669232 1.323442
0 1.129706 1.116563
0 1.129706 1.116563
0 1.129706 1.116563
0 1.129706 1.116563
1.000007 0.9999989 0.9999891
