DaVinci Resolve/Wesley_Knapp_HDR_Tools/not used/HDR-Monitor_v2-3_WesleyKnapp.cube
TITLE "Generated by Resolve"
LUT_3D_SIZE 9
0 0 0
0.109453 0 0
0.241947 0 0
0.441855 0 0
0.710567 0 0
0.997711 0 0
1 0 0
1 0 0
1 0 0
0 0.0773327 0
0.0761578 0.0715801 0
0.237308 0.0512245 0
0.458351 0 0
0.742336 0 0
1 0 0
1 0 0
1 0 0
1 0 0
0 0.190829 0
0 0.194018 0
0.192676 0.184649 0
0.441444 0.150591 0
0.751751 0.0450446 0
1 0 0
1 0 0
1 0 0
1 0 0
0 0.366308 0
0 0.381857 0
0 0.385962 0
0.391775 0.378271 0
0.763104 0.347539 0
1 0.295109 0
1 0.287175 0
1 0.326802 0
1 0.348409 0
0 0.658091 0
0 0.688899 0
0 0.705577 0
0.162463 0.714458 0
0.733944 0.711025 0
1 0.704051 0
1 0.722164 0
1 0.737484 0
1 0.736294 0
0 0.981659 0
0 1 0
0 1 0
0 1 0
0.655711 0.996963 0
1 0.97995 0
1 0.9785 0
1 0.974868 0
1 0.964431 0
0 1 0
0 1 0
0 1 0
0 1 0
0.631296 1 0
0.988006 1 0
1 1 0
1 1 0
1 1 0
0 1 0
0 1 0
0 1 0
0 1 0
0.519783 1 0
0.92723 1 0
1 1 0
1 1 0
1 1 0
0 1 0
0 1 0
0 1 0
0 1 0
0.297627 1 0
0.825299 1 0
1 1 0
1 1 0
1 1 0
0 0 0.0782177
0.104555 0 0.073579
0.240162 0 0.0651102
0.442267 0 0.0514992
0.712627 0 0.0289769
1 0 0
1 0 0
1 0 0
1 0 0
0 0.0776532 0.0703136
0.0721599 0.0721599 0.0721599
0.237171 0.0518654 0.0680552
0.460838 0 0.0574044
0.746471 0 0.0365759
1 0 0.0061799
1 0 0
1 0 0
1 0 0
0 0.193072 0.051606
0 0.196536 0.0554055
0.19292 0.18735 0.0535134
0.445594 0.153536 0.0449531
0.75967 0.048127 0.0258793
1 0 0
1 0 0
1 0 0
1 0 0
0 0.372 0.00732433
0 0.388281 0.010132
0 0.393072 0.00839246
0.398276 0.385977 0
0.773663 0.356054 0
1 0.306615 0
1 0.303975 0
1 0.342962 0
1 0.362631 0
0 0.668772 0
0 0.700053 0
0 0.717205 0
0.173419 0.72636 0
0.745174 0.72282 0
1 0.716625 0
1 0.734676 0
1 0.748348 0
1 0.745922 0
0 0.989334 0
0 1 0
0 1 0
0 1 0
0.669261 1 0
1 0.984482 0
1 0.983063 0
1 0.979019 0
1 0.968353 0
0 1 0
0 1 0
0 1 0
0 1 0
0.645899 1 0
0.992935 1 0
1 1 0
1 1 0
1 1 0
0 1 0
0 1 0
0 1 0
0 1 0
0.533959 1 0
0.931945 1 0
1 1 0
1 1 0
1 1 0
0 1 0
0 1 0
0 1 0
0 1 0
0.321294 1 0
0.833005 1 0
1 1 0
1 1 0
1 1 0
0 0 0.193637
0.0922408 0 0.190723
0.233036 0 0.182574
0.437522 0 0.17026
0.709499 0 0.151125
0.99971 0 0.123003
1 0 0.0963302
1 0 0.0939345
1 0 0.100908
0 0.0754253 0.192477
0.060441 0.0703288 0.196567
0.23154 0.05037 0.193606
0.458106 0 0.18529
0.745571 0 0.169604
1 0 0.150042
1 0 0.136858
1 0 0.147555
1 0 0.159899
0 0.192508 0.179751
0 0.196246 0.187182
0.187289 0.187289 0.187289
0.444816 0.153826 0.182269
0.762676 0.048127 0.17261
1 0 0.15938
1 0 0.15555
1 0 0.170153
1 0 0.182223
0 0.374273 0.151156
0 0.391302 0.162661
0 0.396704 0.167239
0.399359 0.390112 0.166979
0.778881 0.360693 0.159533
1 0.313008 0.147417
1 0.313329 0.14902
1 0.351568 0.160327
1 0.369604 0.163561
0 0.674891 0.0730297
0 0.706752 0.0913558
0 0.724376 0.0991989
0.17261 0.733715 0.0976272
0.750317 0.729992 0.0809033
1 0.724117 0.0585489
1 0.741726 0.0585184
1 0.754086 0.0584878
1 0.750698 0.0494545
0 0.993683 0
0 1 0
0 1 0
0 1 0
0.67425 1 0
1 0.98677 0
1 0.985306 0
1 0.980941 0
1 0.970062 0
0 1 0
0 1 0
0 1 0
0 1 0
0.650675 1 0
0.993622 1 0
1 1 0
1 1 0
1 1 0
0 1 0
0 1 0
0 1 0
0 1 0
0.53817 1 0
0.93254 1 0
1 1 0
1 1 0
1 1 0
0 1 0
0 1 0
0 1 0
0 1 0
0.330602 1 0
0.835904 1 0
1 1 0
1 1 0
1 1 0
0 0 0.369589
0.0593729 0 0.367803
0.215686 0 0.35906
0.426474 0 0.346609
0.701778 0 0.329686
0.996048 0 0.309209
1 0 0.300679
1 0 0.312566
1 0 0.334127
0 0.0701457 0.374655
0.0282597 0.0654459 0.381308
0.21474 0.0459602 0.379065
0.448661 0 0.371817
0.740612 0 0.359915
1 0 0.353536
1 0 0.359747
1 0 0.384909
1 0 0.412818
0 0.189563 0.366033
0 0.19353 0.377142
0.1682 0.184756 0.378958
0.437751 0.151736 0.377935
0.762295 0.0446021 0.378103
1 0 0.382544
1 0 0.398886
1 0 0.428824
1 0 0.454856
0 0.375143 0.354406
0 0.393011 0.373587
0 0.399069 0.384253
0.392966 0.392966 0.392966
0.780301 0.363821 0.401221
1 0.317311 0.412573
1 0.319753 0.434516
1 0.356634 0.459937
1 0.372427 0.471168
0 0.680201 0.353567
0 0.712657 0.381079
0 0.730724 0.397879
0.14992 0.740001 0.411307
0.749706 0.735882 0.421698
1 0.729885 0.432792
1 0.74638 0.447623
1 0.757076 0.454231
1 0.752514 0.44831
0 0.996994 0.35436
0 1 0.392172
0 1 0.413123
0 1 0.425284
0.669917 1 0.429068
1 0.987671 0.428031
1 0.985946 0.42681
1 0.981231 0.417258
1 0.970047 0.397391
0 1 0.358526
0 1 0.396033
0 1 0.41474
0 1 0.42179
0.644312 1 0.417746
0.988205 1 0.406638
1 1 0.393912
1 1 0.373175
1 1 0.342336
0 1 0.306752
0 1 0.340673
0 1 0.357183
0 1 0.361669
0.530282 1 0.353964
0.927214 1 0.337392
1 1 0.31931
1 1 0.298039
1 1 0.272251
0 1 0.205798
0 1 0.242222
0 1 0.261112
0 1 0.268574
0.324544 1 0.264424
0.833097 1 0.251286
1 1 0.236973
1 1 0.226352
1 1 0.212116
0 0 0.604471
0 0 0.60412
0.17557 0 0.595605
0.403952 0 0.583322
0.686839 0 0.567376
0.989181 0 0.552621
1 0 0.558221
1 0 0.586099
1 0 0.625559
0 0.0599985 0.614847
0 0.0556649 0.623148
0.173907 0.0367285 0.621622
0.427634 0 0.615213
0.730251 0 0.607813
1 0 0.613123
1 0 0.635004
1 0 0.675288
1 0 0.716762
0 0.183276 0.6094
0 0.187472 0.622538
0.117922 0.179187 0.626642
0.419974 0.146258 0.630793
0.756924 0.0354772 0.639673
1 0 0.657099
1 0 0.688106
1 0 0.729976
1 0 0.76408
0 0.374929 0.613184
0 0.39379 0.638041
0 0.400565 0.65333
0.373114 0.394858 0.668467
0.776135 0.365682 0.686381
1 0.319997 0.710307
1 0.324147 0.742397
1 0.358663 0.773938
1 0.371313 0.787579
0 0.685679 0.651362
0 0.718791 0.684276
0 0.737194 0.705165
0.0759899 0.745998 0.723659
0.741222 0.741222 0.741222
1 0.7346 0.759625
1 0.749203 0.776761
1 0.757733 0.784192
1 0.751553 0.778805
0 0.999588 0.701289
0 1 0.735286
0 1 0.753933
0 1 0.765774
0.6542 1 0.771496
0.997986 0.987243 0.772793
1 0.985077 0.771542
1 0.979843 0.762463
1 0.968215 0.743343
0 1 0.716609
0 1 0.744884
0 1 0.75877
0 1 0.76405
0.624353 1 0.761379
0.975113 1 0.752743
1 1 0.740566
1 1 0.720745
1 1 0.691463
0 1 0.666606
0 1 0.69102
0 1 0.702525
0 1 0.705074
0.505791 1 0.698695
0.913634 1 0.685206
1 1 0.66836
1 1 0.647654
1 1 0.623545
0 1 0.568307
0 1 0.593439
0 1 0.606867
0 1 0.61236
0.295109 1 0.610178
0.821958 1 0.601984
1 1 0.591562
1 1 0.581247
1 1 0.568368
0 0 0.847471
0 0 0.848249
0.0939956 0 0.842084
0.367163 0 0.832639
0.663584 0 0.820203
0.979767 0 0.815778
1 0 0.831128
1 0 0.864927
1 0 0.905135
0 0.0452583 0.858671
0 0.0414282 0.865782
0.0925765 0.0230411 0.865064
0.394217 0 0.860731
0.716106 0 0.861479
1 0 0.873701
1 0 0.899092
1 0 0.936187
1 0 0.969207
0 0.173678 0.856092
0 0.178836 0.868528
0.014023 0.171405 0.874937
0.392218 0.13785 0.882445
0.748653 0.021561 0.89456
1 0 0.91368
1 0 0.942138
1 0 0.97435
1 0 0.996979
0 0.374517 0.87277
0 0.39472 0.894194
0 0.402319 0.907683
0.342779 0.397055 0.921462
0.770153 0.367758 0.937438
1 0.323003 0.957015
1 0.328923 0.979812
1 0.359945 0.99942
1 0.368612 1
0 0.692531 0.915694
0 0.726436 0.93904
0 0.744854 0.953155
0 0.753079 0.965225
0.731945 0.747402 0.976043
1 0.739376 0.98613
1 0.751415 0.994949
1 0.757244 0.998505
1 0.748989 0.995224
0 1 0.953948
0 1 0.971725
0 1 0.980835
0 1 0.985916
0.637751 1 0.987259
0.986374 0.986389 0.986374
1 0.983536 0.985107
1 0.9776 0.979736
1 0.96527 0.968612
0 1 0.961624
0 1 0.975158
0 1 0.981262
0 1 0.982605
0.601007 1 0.979324
0.960601 1 0.972885
1 1 0.965026
1 1 0.952483
1 1 0.93341
0 1 0.928359
0 1 0.940398
0 1 0.945434
0 1 0.945174
0.472221 1 0.939406
0.896071 1 0.92932
1 1 0.917235
1 1 0.902556
1 1 0.885222
0 1 0.854673
0 1 0.869474
0 1 0.876997
0 1 0.879316
0.243778 1 0.876554
0.8047 1 0.869764
1 1 0.861448
1 1 0.853056
1 1 0.842786
0 0 1
0 0 1
0 0 1
0.32694 0 1
0.641962 0 1
0.974365 0 1
1 0 1
1 0 1
1 0 1
0 0.0312963 1
0 0.0281682 1
0 0.0103914 1
0.364202 0 1
0.707897 0 1
1 0 1
1 0 1
1 0 1
1 0 1
0 0.165225 1
0 0.172091 1
0 0.16553 1
0.370687 0.131212 1
0.748089 0.00994888 1
1 0 1
1 0 1
1 0 1
1 0 1
0 0.37673 1
0 0.398672 1
0 0.407431 1
0.328084 0.402823 1
0.775891 0.373785 1
1 0.33051 1
1 0.338537 1
1 0.364004 1
1 0.367758 1
0 0.703151 1
0 0.737469 1
0 0.755657 1
0 0.763119 1
0.737591 0.756207 1
1 0.745663 1
1 0.754589 1
1 0.757214 1
1 0.746395 1
0 1 1
0 1 1
0 1 1
0 1 1
0.637522 1 1
0.985321 0.986206 1
1 0.982467 1
1 0.975601 1
1 0.962325 1
0 1 1
0 1 1
0 1 1
0 1 1
0.591882 1 1
0.9552 1 1
1 1 1
1 1 1
1 1 1
0 1 1
0 1 1
0 1 1
0 1 1
0.450919 1 1
0.885206 1 1
1 1 1
1 1 1
1 1 1
0 1 1
0 1 1
0 1 1
0 1 1
0.197269 1 1
0.790921 1 1
1 1 1
1 1 1
1 1 1
0 0 1
0 0 1
0 0 1
0.310552 0 1
0.640543 0 1
0.983673 0 1
1 0 1
1 0 1
1 0 1
0 0.0259098 1
0 0.0240024 1
0 0.00698863 1
0.364752 0 1
0.719799 0 1
1 0 1
1 0 1
1 0 1
1 0 1
0 0.164569 1
0 0.173175 1
0 0.167636 1
0.381323 0.133425 1
0.7664 0.0084535 1
1 0 1
1 0 1
1 0 1
1 0 1
0 0.384985 1
0 0.408499 1
0 0.418036 1
0.342077 0.413703 1
0.794629 0.384405 1
1 0.341634 1
1 0.350027 1
1 0.367651 1
1 0.365667 1
0 0.71754 1
0 0.751522 1
0 0.769146 1
0 0.775402 1
0.748074 0.765805 1
1 0.751614 1
1 0.756817 1
1 0.755779 1
1 0.742061 1
0 1 1
0 1 1
0 1 1
0 1 1
0.637201 1 1
0.984451 0.985382 1
1 0.980499 1
1 0.97258 1
1 0.958251 1
0 1 1
0 1 1
0 1 1
0 1 1
0.581292 1 1
0.949676 1 1
1 1 1
1 1 1
1 1 1
0 1 1
0 1 1
0 1 1
0 1 1
0.433127 1 1
0.877043 1 1
1 1 1
1 1 1
1 1 1
0 1 1
0 1 1
0 1 1
0 1 1
0.177401 1 1
0.785504 1 1
1 1 1
1 1 1
1 1 1
0 0 1
0 0 1
0 0 1
0.312642 0 1
0.652995 0 1
1 0 1
1 0 1
1 0 1
1 0 1
0 0.0236973 1
0 0.0227054 1
0 0.00575265 1
0.376623 0 1
0.740459 0 1
1 0 1
1 0 1
1 0 1
1 0 1
0 0.167529 1
0 0.177325 1
0 0.172305 1
0.398077 0.137346 1
0.790448 0.0068513 1
1 0 1
1 0 1
1 0 1
1 0 1
0 0.396689 1
0 0.421683 1
0 0.431968 1
0.359579 0.427497 1
0.815564 0.396567 1
1 0.354253 1
1 0.359899 1
1 0.369253 1
1 0.361135 1
0 0.733806 1
0 0.767315 1
0 0.783963 1
0 0.787747 1
0.757122 0.774105 1
1 0.756039 1
1 0.757198 1
1 0.752255 1
1 0.735424 1
0 1 1
0 1 1
0 1 1
0 1 1
0.63418 1 1
0.982483 0.983551 1
1 0.977264 1
1 0.968154 1
1 0.95256 1
0 1 1
0 1 1
0 1 1
0 1 1
0.565713 1 1
0.941833 1 1
1 1 1
1 1 1
1 1 1
0 1 1
0 1 1
0 1 1
0 1 1
0.408942 1 1
0.866423 1 1
1 1 1
1 1 1
1 1 1
0 1 1
0 1 1
0 1 1
0 1 1
0.147768 1 1
0.778241 1 1
1 1 1
1 1 1
1 1 1
