DaVinci Resolve/Wesley_Knapp_HDR_Tools/not used/HDR-Monitor_v2-3_WesleyKnapp.cube
TITLE "Generated by Resolve"
LUT_3D_SIZE 5
0 0 0
0.241947 0 0
0.710567 0 0
1 0 0
1 0 0
0 0.190829 0
0.192676 0.184649 0
0.751751 0.0450446 0
1 0 0
1 0 0
0 0.658091 0
0 0.705577 0
0.733944 0.711025 0
1 0.722164 0
1 0.736294 0
0 1 0
0 1 0
0.631296 1 0
1 1 0
1 1 0
0 1 0
0 1 0
0.297627 1 0
1 1 0
1 1 0
0 0 0.193637
0.233036 0 0.182574
0.709499 0 0.151125
1 0 0.0963302
1 0 0.100908
0 0.192508 0.179751
0.187289 0.187289 0.187289
0.762676 0.048127 0.17261
1 0 0.15555
1 0 0.182223
0 0.674891 0.0730297
0 0.724376 0.0991989
0.750317 0.729992 0.0809033
1 0.741726 0.0585184
1 0.750698 0.0494545
0 1 0
0 1 0
0.650675 1 0
1 1 0
1 1 0
0 1 0
0 1 0
0.330602 1 0
1 1 0
1 1 0
0 0 0.604471
0.17557 0 0.595605
0.686839 0 0.567376
1 0 0.558221
1 0 0.625559
0 0.183276 0.6094
0.117922 0.179187 0.626642
0.756924 0.0354772 0.639673
1 0 0.688106
1 0 0.76408
0 0.685679 0.651362
0 0.737194 0.705165
0.741222 0.741222 0.741222
1 0.749203 0.776761
1 0.751553 0.778805
0 1 0.716609
0 1 0.75877
0.624353 1 0.761379
1 1 0.740566
1 1 0.691463
0 1 0.568307
0 1 0.606867
0.295109 1 0.610178
1 1 0.591562
1 1 0.568368
0 0 1
0 0 1
0.641962 0 1
1 0 1
1 0 1
0 0.165225 1
0 0.16553 1
0.748089 0.00994888 1
1 0 1
1 0 1
0 0.703151 1
0 0.755657 1
0.737591 0.756207 1
1 0.754589 1
1 0.746395 1
0 1 1
0 1 1
0.591882 1 1
1 1 1
1 1 1
0 1 1
0 1 1
0.197269 1 1
1 1 1
1 1 1
0 0 1
0 0 1
0.652995 0 1
1 0 1
1 0 1
0 0.167529 1
0 0.172305 1
0.790448 0.0068513 1
1 0 1
1 0 1
0 0.733806 1
0 0.783963 1
0.757122 0.774105 1
1 0.757198 1
1 0.735424 1
0 1 1
0 1 1
0.565713 1 1
1 1 1
1 1 1
0 1 1
0 1 1
0.147768 1 1
1 1 1
1 1 1
