DaVinci Resolve/Wesley_Knapp_HDR_Tools/not used/HDR-Monitor_v2-3_WesleyKnapp.cube
TITLE "Generated by Resolve"
LUT_3D_SIZE 33
0 0 0
0.0251469 0 0
0.0505684 0 0
0.0793469 0 0
0.109453 0 0
0.137713 0 0
0.168582 0 0
0.203235 0 0
0.241947 0 0
0.284993 0 0
0.332586 0 0
0.384863 0 0
0.441855 0 0
0.503426 0 0
0.569207 0 0
0.638544 0 0
0.710567 0 0
0.783993 0 0
0.857359 0 0
0.929061 0 0
0.997711 0 0
1 0 0
1 0 0
1 0 0
1 0 0
1 0 0
1 0 0
1 0 0
1 0 0
1 0 0
1 0 0
1 0 0
1 0 0
0 0.017258 0
0.016846 0.0158389 0
0.0437934 0.0135042 0
0.0740215 0.0105898 0
0.106279 0.00714122 0
0.136477 0.00318914 0
0.169451 0 0
0.206073 0 0
0.246662 0 0
0.291524 0 0
0.340887 0 0
0.394903 0 0
0.45359 0 0
0.51667 0 0
0.583551 0 0
0.653864 0 0
0.726604 0 0
0.800412 0 0
0.873823 0 0
0.945235 0 0
1 0 0
1 0 0
1 0 0
1 0 0
1 0 0
1 0 0
1 0 0
1 0 0
1 0 0
1 0 0
1 0 0
1 0 0
1 0 0
0 0.0348821 0
0.00675975 0.0340276 0
0.0341802 0.0321202 0
0.0648203 0.0296025 0
0.0986343 0.0265354 0
0.130495 0.0229496 0
0.165057 0.0183413 0
0.203143 0.0124666 0
0.245136 0.00502022 0
0.29131 0 0
0.341924 0 0
0.397131 0 0
0.456947 0 0
0.521157 0 0
0.589319 0 0
0.660746 0 0
0.734356 0 0
0.80882 0 0
0.882582 0 0
0.955261 0 0
1 0 0
1 0 0
1 0 0
1 0 0
1 0 0
1 0 0
1 0 0
1 0 0
1 0 0
1 0 0
1 0 0
1 0 0
1 0 0
0 0.0547799 0
0 0.0544289 0
0.0228885 0.0528267 0
0.0538186 0.0505837 0
0.088777 0.047776 0
0.122698 0.0444038 0
0.158984 0.0399634 0
0.198596 0.034226 0
0.241947 0.0268711 0
0.289403 0.0175174 0
0.341207 0.00576791 0
0.397559 0 0
0.458427 0 0
0.523644 0 0
0.592737 0 0
0.664973 0 0
0.739239 0 0
0.814176 0 0
0.888945 0 0
0.963424 0 0
1 0 0
1 0 0
1 0 0
1 0 0
1 0 0
1 0 0
1 0 0
1 0 0
1 0 0
1 0 0
1 0 0
1 0 0
1 0 0
0 0.0773327 0
0 0.0774548 0
0.00988785 0.0761578 0
0.0410468 0.0741741 0
0.0761578 0.0715801 0
0.112886 0.0683909 0
0.151217 0.0641337 0
0.192508 0.0585031 0
0.237308 0.0512245 0
0.286046 0.0419165 0
0.339025 0.0301366 0
0.39646 0.0153964 0
0.458351 0 0
0.524514 0 0
0.594461 0 0
0.66743 0 0
0.742336 0 0
0.818173 0 0
0.894896 0 0
0.97084 0 0
1 0 0
1 0 0
1 0 0
1 0 0
1 0 0
1 0 0
1 0 0
1 0 0
1 0 0
1 0 0
1 0 0
1 0 0
1 0 0
0 0.101564 0
0 0.102251 0
0 0.101427 0
0.0263523 0.0999466 0
0.0616159 0.0978561 0
0.100633 0.09514 0
0.141512 0.0913405 0
0.184787 0.0860761 0
0.23122 0.0786755 0
0.281346 0.0693675 0
0.335561 0.0575418 0
0.394095 0.0426947 0
0.456992 0.0242924 0
0.524071 0.00181582 0
0.594873 0 0
0.668574 0 0
0.744305 0 0
0.82208 0 0
0.900557 0 0
0.977691 0 0
1 0 0
1 0 0
1 0 0
1 0 0
1 0 0
1 0 0
1 0 0
1 0 0
1 0 0
1 0 0
1 0 0
1 0 0
1 0 0
0 0.127977 0
0 0.129366 0
0 0.129107 0
0.00733959 0.128176 0
0.0426337 0.126665 0
0.082948 0.12459 0
0.127794 0.121553 0
0.173877 0.117266 0
0.222477 0.111437 0
0.274357 0.103532 0
0.330053 0.0928359 0
0.389883 0.0780194 0
0.453925 0.0593881 0
0.522026 0.0365911 0
0.593713 0.00920119 0
0.668482 0 0
0.746334 0 0
0.8262 0 0
0.90634 0 0
0.984604 0 0
1 0 0
1 0 0
1 0 0
1 0 0
1 0 0
1 0 0
1 0 0
1 0 0
1 0 0
1 0 0
1 0 0
1 0 0
1 0 0
0 0.157641 0
0 0.159701 0
0 0.159991 0
0 0.159594 0
0.0178836 0.158633 0
0.0578927 0.157122 0
0.107912 0.154742 0
0.158373 0.151293 0
0.210071 0.146517 0
0.264332 0.140063 0
0.32195 0.131411 0
0.383368 0.11986 0
0.448783 0.104326 0
0.518059 0.0830396 0
0.591333 0.0551003 0
0.668528 0.0223392 0
0.748775 0 0
0.830716 0 0
0.912459 0 0
0.99176 0 0
1 0 0
1 0 0
1 0 0
1 0 0
1 0 0
1 0 0
1 0 0
1 0 0
1 0 0
1 0 0
1 0 0
1 0 0
1 0 0
0 0.190829 0
0 0.193545 0
0 0.194354 0
0 0.194476 0
0 0.194018 0
0.0256809 0.193027 0
0.0776226 0.191257 0
0.136141 0.188525 0
0.192676 0.184649 0
0.25034 0.179339 0
0.310552 0.172244 0
0.374044 0.16286 0
0.441444 0.150591 0
0.513191 0.134554 0
0.589242 0.113176 0
0.669062 0.0836805 0
0.751751 0.0450446 0
0.835737 0.00143435 0
0.919066 0 0
0.999252 0 0
1 0 0
1 0 0
1 0 0
1 0 0
1 0 0
1 0 0
1 0 0
1 0 0
1 0 0
1 0 0
1 0 0
1 0 0
1 0 0
0 0.227726 0
0 0.231113 0
0 0.232441 0
0 0.233066 0
0 0.233097 0
0 0.232593 0
0.0358587 0.231373 0
0.102876 0.229267 0
0.167956 0.226169 0
0.230976 0.221897 0
0.295232 0.216266 0
0.362325 0.208942 0
0.433143 0.199405 0
0.508125 0.187045 0
0.587228 0.171008 0
0.669947 0.150088 0
0.755184 0.122484 0
0.84126 0.0849317 0
0.925994 0.0374151 0
1 0 0
1 0 0
1 0 0
1 0 0
1 0 0
1 0 0
1 0 0
1 0 0
1 0 0
1 0 0
1 0 0
1 0 0
1 0 0
1 0 0
0 0.268559 0
0 0.272587 0
0 0.274434 0
0 0.275547 0
0 0.276112 0
0 0.276188 0
0 0.275654 0
0.0505379 0.274449 0
0.131975 0.272465 0
0.204883 0.26952 0
0.275761 0.265461 0
0.348028 0.259968 0
0.423239 0.252705 0
0.502144 0.243229 0
0.584802 0.230991 0
0.67071 0.215396 0
0.758663 0.195758 0
0.84686 0.171374 0
0.932998 0.141436 0
1 0.104814 0
1 0.0604715 0
1 0.0185245 0
1 0 0
1 0 0
1 0 0
1 0 0
1 0 0
1 0.0041352 0
1 0.018265 0
1 0.0323033 0
1 0.0454719 0
1 0.0563363 0
1 0.063798 0
0 0.313848 0
0 0.318868 0
0 0.32166 0
0 0.32369 0
0 0.325139 0
0 0.326101 0
0 0.326497 0
0 0.326299 0
0.0722362 0.325414 0
0.167056 0.32372 0
0.249134 0.32108 0
0.329015 0.317235 0
0.410193 0.31194 0
0.494087 0.30486 0
0.581048 0.295644 0
0.670634 0.283955 0
0.761624 0.269551 0
0.852033 0.252369 0
0.939467 0.23267 0
1 0.211124 0
1 0.188861 0
1 0.167468 0
1 0.148821 0
1 0.137041 0
1 0.15021 0
1 0.162997 0
1 0.175235 0
1 0.186923 0
1 0.198138 0
1 0.208423 0
1 0.21706 0
1 0.223407 0
1 0.227481 0
0 0.366308 0
0 0.372625 0
0 0.376455 0
0 0.379492 0
0 0.381857 0
0 0.383688 0
0 0.385016 0
0 0.385779 0
0 0.385962 0
0.103883 0.385458 0
0.209598 0.384131 0
0.302007 0.381811 0
0.391775 0.378271 0
0.482322 0.373266 0
0.574716 0.366598 0
0.668727 0.358038 0
0.763104 0.347539 0
0.855909 0.335348 0
0.944595 0.32192 0
1 0.308141 0
1 0.295109 0
1 0.284092 0
1 0.276143 0
1 0.276768 0
1 0.287175 0
1 0.297429 0
1 0.30753 0
1 0.317433 0
1 0.326802 0
1 0.334997 0
1 0.341299 0
1 0.345769 0
1 0.348409 0
0 0.427008 0
0 0.434653 0
0 0.439567 0
0 0.44358 0
0 0.446891 0
0 0.449592 0
0 0.45182 0
0 0.453559 0
0 0.454749 0
0 0.455344 0
0.144183 0.455268 0
0.261402 0.454322 0
0.364797 0.452384 0
0.464729 0.44921 0
0.564202 0.444709 0
0.663661 0.438727 0
0.762081 0.431403 0
0.857527 0.422995 0
0.947448 0.414084 0
1 0.405463 0
1 0.398093 0
1 0.392889 0
1 0.390127 0
1 0.395865 0
1 0.405493 0
1 0.415061 0
1 0.424567 0
1 0.433585 0
1 0.441505 0
1 0.447822 0
1 0.452537 0
1 0.455573 0
1 0.457038 0
0 0.496284 0
0 0.505165 0
0 0.511223 0
0 0.516213 0
0 0.520409 0
0 0.52398 0
0 0.527047 0
0 0.529671 0
0 0.531823 0
0 0.533455 0
0.01149 0.534463 0
0.196063 0.534768 0
0.324483 0.534173 0
0.438575 0.532601 0
0.547707 0.529915 0
0.654108 0.526085 0
0.757427 0.521294 0
0.855817 0.515846 0
0.94699 0.510338 0
1 0.505486 0
1 0.501823 0
1 0.499855 0
1 0.499855 0
1 0.508309 0
1 0.517494 0
1 0.526528 0
1 0.535042 0
1 0.542428 0
1 0.54844 0
1 0.553048 0
1 0.556207 0
1 0.557931 0
1 0.558145 0
0 0.573785 0
0 0.58381 0
0 0.590875 0
0 0.59675 0
0 0.601755 0
0 0.606058 0
0 0.609903 0
0 0.613291 0
0 0.61622 0
0 0.618708 0
0 0.620661 0
0.0661631 0.621958 0
0.263035 0.622477 0
0.400778 0.622141 0
0.523598 0.620905 0
0.639033 0.618723 0
0.748257 0.615854 0
0.850065 0.612558 0
0.94226 0.609232 0
1 0.60647 0
1 0.604807 0
1 0.6047 0
1 0.607538 0
1 0.616053 0
1 0.624277 0
1 0.63183 0
1 0.6383 0
1 0.64361 0
1 0.647761 0
1 0.65066 0
1 0.652308 0
1 0.652674 0
1 0.651743 0
0 0.658091 0
0 0.66894 0
0 0.676768 0
0 0.683314 0
0 0.688899 0
0 0.693782 0
0 0.698146 0
0 0.702083 0
0 0.705577 0
0 0.708675 0
0 0.711223 0
0 0.713191 0
0.162463 0.714458 0
0.348058 0.714916 0
0.491051 0.714458 0
0.61799 0.713085 0
0.733944 0.711025 0
0.839155 0.708614 0
0.932357 0.70631 0
1 0.704662 0
1 0.704051 0
1 0.704753 0
1 0.709133 0
1 0.716045 0
1 0.722164 0
1 0.727428 0
1 0.731746 0
1 0.735119 0
1 0.737484 0
1 0.738796 0
1 0.739071 0
1 0.738231 0
1 0.736294 0
0 0.746258 0
0 0.757458 0
0 0.765652 0
0 0.772457 0
0 0.778302 0
0 0.783413 0
0 0.787991 0
0 0.792142 0
0 0.795834 0
0 0.799008 0
0 0.801617 0
0 0.803555 0
0 0.804746 0
0.276341 0.805051 0
0.449973 0.804501 0
0.591394 0.803159 0
0.715251 0.801205 0
0.824445 0.799039 0
0.919005 0.797086 0
0.998398 0.795621 0
1 0.79498 0
1 0.795041 0
1 0.799008 0
1 0.80354 0
1 0.807431 0
1 0.81062 0
1 0.813092 0
1 0.814755 0
1 0.815595 0
1 0.815579 0
1 0.814694 0
1 0.812924 0
1 0.810208 0
0 0.833829 0
0 0.844572 0
0 0.852384 0
0 0.858808 0
0 0.864271 0
0 0.868986 0
0 0.873167 0
0 0.876844 0
0 0.880079 0
0 0.88278 0
0 0.884901 0
0 0.88632 0
0 0.886976 0
0.179629 0.886809 0
0.403983 0.885786 0
0.562982 0.88397 0
0.695369 0.881575 0
0.808377 0.878874 0
0.903761 0.876173 0
0.982315 0.873808 0
1 0.871977 0
1 0.870741 0
1 0.873671 0
1 0.876295 0
1 0.878401 0
1 0.879942 0
1 0.880919 0
1 0.881254 0
1 0.880964 0
1 0.879973 0
1 0.878279 0
1 0.875853 0
1 0.872663 0
0 0.913832 0
0 0.923201 0
0 0.930007 0
0 0.935515 0
0 0.940185 0
0 0.944183 0
0 0.947677 0
0 0.950698 0
0 0.953216 0
0 0.9552 0
0 0.956527 0
0 0.957153 0
0 0.956924 0
0.0328527 0.955764 0
0.357687 0.953674 0
0.535424 0.950729 0
0.675441 0.947173 0
0.791424 0.943328 0
0.887404 0.939529 0
0.965393 0.93611 0
1 0.933227 0
1 0.931411 0
1 0.932982 0
1 0.934173 0
1 0.934981 0
1 0.935347 0
1 0.935271 0
1 0.934722 0
1 0.933669 0
1 0.932067 0
1 0.9299 0
1 0.927138 0
1 0.923735 0
0 0.981659 0
0 0.989273 0
0 0.994751 0
0 0.999069 0
0 1 0
0 1 0
0 1 0
0 1 0
0 1 0
0 1 0
0 1 0
0 1 0
0 1 0
0 1 0
0.311742 1 0
0.508766 1 0
0.655711 0.996963 0
0.774487 0.992279 0
0.871275 0.987716 0
0.949142 0.983566 0
1 0.97995 0
1 0.977722 0
1 0.978271 0
1 0.978531 0
1 0.9785 0
1 0.978134 0
1 0.977432 0
1 0.976349 0
1 0.974868 0
1 0.972961 0
1 0.970626 0
1 0.967788 0
1 0.964431 0
0 1 0
0 1 0
0 1 0
0 1 0
0 1 0
0 1 0
0 1 0
0 1 0
0 1 0
0 1 0
0 1 0
0 1 0
0 1 0
0 1 0
0.272786 1 0
0.488273 1 0
0.641169 1 0
0.762325 1 0
0.859998 1 0
0.938033 1 0
0.999268 1 0
1 1 0
1 1 0
1 1 0
1 1 0
1 1 0
1 1 0
1 1 0
1 1 0
1 1 0
1 1 0
1 0.999298 0
1 0.996139 0
0 1 0
0 1 0
0 1 0
0 1 0
0 1 0
0 1 0
0 1 0
0 1 0
0 1 0
0 1 0
0 1 0
0 1 0
0 1 0
0 1 0
0.284443 1 0
0.494759 1 0
0.645319 1 0
0.764813 1 0
0.861112 1 0
0.938155 1 0
0.998657 1 0
1 1 0
1 1 0
1 1 0
1 1 0
1 1 0
1 1 0
1 1 0
1 1 0
1 1 0
1 1 0
1 1 0
1 1 0
0 1 0
0 1 0
0 1 0
0 1 0
0 1 0
0 1 0
0 1 0
0 1 0
0 1 0
0 1 0
0 1 0
0 1 0
0 1 0
0 1 0
0.281086 1 0
0.491615 1 0
0.641871 1 0
0.761059 1 0
0.857237 1 0
0.934218 1 0
0.994873 1 0
1 1 0
1 1 0
1 1 0
1 1 0
1 1 0
1 1 0
1 1 0
1 1 0
1 1 0
1 1 0
1 1 0
1 1 0
0 1 0
0 1 0
0 1 0
0 1 0
0 1 0
0 1 0
0 1 0
0 1 0
0 1 0
0 1 0
0 1 0
0 1 0
0 1 0
0 1 0
0.263554 1 0
0.479469 1 0
0.631296 1 0
0.751461 1 0
0.848493 1 0
0.92639 1 0
0.988006 1 0
1 1 0
1 1 0
1 1 0
1 1 0
1 1 0
1 1 0
1 1 0
1 1 0
1 1 0
1 1 0
1 1 0
1 1 0
0 1 0
0 1 0
0 1 0
0 1 0
0 1 0
0 1 0
0 1 0
0 1 0
0 1 0
0 1 0
0 1 0
0 1 0
0 1 0
0 1 0
0.230823 1 0
0.458503 1 0
0.61387 1 0
0.736171 1 0
0.835035 1 0
0.914656 1 0
0.977951 1 0
1 1 0
1 1 0
1 1 0
1 1 0
1 1 0
1 1 0
1 1 0
1 1 0
1 1 0
1 1 0
1 1 0
1 1 0
0 1 0
0 1 0
0 1 0
0 1 0
0 1 0
0 1 0
0 1 0
0 1 0
0 1 0
0 1 0
0 1 0
0 1 0
0 1 0
0 1 0
0.178515 1 0
0.428534 1 0
0.589624 1 0
0.715267 1 0
0.816815 1 0
0.89897 1 0
0.964614 1 0
1 1 0
1 1 0
1 1 0
1 1 0
1 1 0
1 1 0
1 1 0
1 1 0
1 1 0
1 1 0
1 1 0
1 1 0
0 1 0
0 1 0
0 1 0
0 1 0
0 1 0
0 1 0
0 1 0
0 1 0
0 1 0
