DaVinci Resolve/not used/flannel_ninja_hdr_to_sdr_custom_conversion_lut_v1.0.cube
TITLE "Generated by Resolve"
LUT_3D_SIZE 5
0 0 0
0.2224 0.0147707 0.0550546
0.736675 0.0711681 0.172015
0.900633 0.0920729 0.226017
0.900603 0.0921645 0.22623
0.0126955 0.189349 0.102159
0.185534 0.181033 0.0439918
0.713787 0.0920424 0.0713207
0.90071 0.1019 0.169619
0.90071 0.102022 0.169924
0.0729229 0.578347 0.301793
0.0993362 0.576211 0.268666
0.581277 0.563729 0.168063
0.916197 0.516213 0.12282
0.916197 0.516121 0.12282
0.0310826 0.844724 0.346441
0.0500801 0.846372 0.324376
0.415641 0.89099 0.152529
0.920455 0.920455 0.213123
0.920439 0.920439 0.212955
0.0312352 0.844755 0.346883
0.0502327 0.846403 0.324742
0.415167 0.890929 0.15259
0.920485 0.920485 0.213504
0.92047 0.92047 0.213352
0 0.00836194 0.17792
0.218708 0.0216373 0.18732
0.734386 0.0712139 0.234668
0.900542 0.0902266 0.271885
0.900557 0.0903334 0.272099
0.0243381 0.190494 0.185138
0.18056 0.18056 0.18056
0.714122 0.0863355 0.177234
0.900832 0.0992294 0.227237
0.900832 0.0993515 0.227466
0.0630045 0.576837 0.331228
0.0911421 0.574639 0.304326
0.580163 0.563012 0.181231
0.917327 0.511772 0.169055
0.917327 0.511681 0.1691
0.0233921 0.844343 0.368902
0.0433661 0.84622 0.348653
0.396216 0.889586 0.167361
0.92137 0.92137 0.222904
0.92137 0.92137 0.222843
0.0235599 0.844373 0.369329
0.0435187 0.846265 0.349096
0.395819 0.88954 0.167422
0.921386 0.921386 0.223178
0.921386 0.921386 0.223117
0 0.083711 0.557687
0.184222 0.0367285 0.567773
0.714046 0.0875563 0.561898
0.896971 0.0986496 0.577813
0.896971 0.0987716 0.577966
0 0.209674 0.549798
0.115145 0.175647 0.572992
0.693034 0.0961471 0.550652
0.897688 0.105531 0.55494
0.897704 0.105638 0.555093
0.102953 0.584588 0.56286
0.118181 0.581109 0.56022
0.568978 0.568978 0.568978
0.92459 0.503349 0.537606
0.924575 0.503197 0.537575
0.0489357 0.850401 0.604974
0.0650034 0.853117 0.59266
0.307134 0.892531 0.479042
0.944457 0.944457 0.525154
0.944442 0.944442 0.525124
0.0490272 0.850416 0.605447
0.065095 0.853132 0.593103
0.306096 0.892348 0.478752
0.944442 0.944442 0.525032
0.944442 0.944442 0.525002
0 0.110216 0.912764
0.117601 0.0414435 0.932876
0.690517 0.078706 0.910384
0.885267 0.0991836 0.885267
0.885267 0.0992599 0.885267
0 0.209979 0.900572
0 0.17261 0.926162
0.661784 0.0925917 0.914199
0.885344 0.103029 0.885344
0.885344 0.103136 0.885344
0 0.587594 0.861265
0 0.58024 0.870344
0.537179 0.557748 0.941787
0.917739 0.493721 0.917739
0.917723 0.493538 0.917723
0.078294 0.852811 0.852811
0.0893873 0.854826 0.854826
0.273198 0.889158 0.889158
0.948989 0.948989 0.948989
0.950256 0.948837 0.948974
0.0783703 0.852811 0.852811
0.0894636 0.854826 0.854826
0.272084 0.888945 0.888945
0.948241 0.950256 0.948867
0.950256 0.950256 0.948837
0 0.110277 0.913985
0.117311 0.0414435 0.934081
0.690486 0.078706 0.910384
0.885267 0.0992142 0.885267
0.885267 0.0992905 0.885267
0 0.209995 0.901503
0 0.17261 0.927352
0.661723 0.0926223 0.914199
0.885344 0.103059 0.885344
0.885344 0.103166 0.885344
0 0.58761 0.862303
0 0.58024 0.871519
0.537102 0.557748 0.941787
0.917739 0.493706 0.917739
0.917723 0.493538 0.917723
0.0784009 0.852827 0.852827
0.0894789 0.854826 0.854826
0.273045 0.889128 0.889128
0.948898 0.948974 0.950256
0.95024 0.948821 0.95024
0.0784772 0.852842 0.852842
0.0895552 0.854841 0.854841
0.271931 0.888914 0.888914
0.94815 0.950256 0.950256
0.950256 0.950256 0.950256
