DaVinci Resolve/not used/flannel_ninja_hdr_to_sdr_custom_conversion_lut_v1.0.cube
TITLE "Generated by Resolve"
LUT_3D_SIZE 33
0 0 0
0 0 0
0.0136721 0 0
0.0410925 0 0
0.0707408 0 0
0.103944 0 0.0107729
0.140047 0 0.0243229
0.179736 0.0056611 0.0394598
0.2224 0.0147707 0.0550546
0.268956 0.0244144 0.0715953
0.319524 0.0343938 0.0887312
0.374609 0.0442969 0.106355
0.434028 0.0538338 0.123827
0.497719 0.0623178 0.140215
0.56643 0.0694133 0.15523
0.645563 0.0725414 0.16611
0.736675 0.0711681 0.172015
0.830274 0.0670939 0.174441
0.90042 0.0653391 0.178653
0.900511 0.0721599 0.190784
0.900404 0.0779583 0.200778
0.900572 0.082826 0.209445
0.900572 0.0865644 0.216266
0.900618 0.0897688 0.221744
0.900633 0.0920729 0.226017
0.900603 0.0921645 0.22623
0.900603 0.0921645 0.22623
0.900603 0.0921645 0.22623
0.900603 0.0921645 0.22623
0.900603 0.0921645 0.22623
0.900603 0.0921645 0.22623
0.900603 0.0921645 0.22623
0.900603 0.0921645 0.22623
0 0 0
0 0 0
0.0116884 0 0
0.0401007 0 0
0.0701305 0 0
0.103563 0 0.00764477
0.139727 0 0.0221561
0.179507 0.00601205 0.0377203
0.222202 0.0150301 0.0537423
0.268803 0.0246128 0.070573
0.319402 0.0345617 0.0879072
0.374502 0.0444343 0.105684
0.433951 0.0539559 0.123278
0.497658 0.0624094 0.139773
0.566354 0.0695048 0.154833
0.645502 0.0726329 0.165759
0.736584 0.0712444 0.171695
0.830182 0.0671702 0.174151
0.90042 0.0654002 0.178378
0.900526 0.0722057 0.190539
0.900404 0.0780041 0.200534
0.900587 0.0828717 0.209201
0.900572 0.0866255 0.216052
0.900618 0.0898146 0.22153
0.900633 0.0921035 0.225803
0.900603 0.0922103 0.226001
0.900603 0.0922103 0.226001
0.900603 0.0922103 0.226001
0.900603 0.0922103 0.226001
0.900603 0.0922103 0.226001
0.900603 0.0922103 0.226001
0.900603 0.0922103 0.226001
0.900603 0.0922103 0.226001
0 0.00688182 0
0 0.0065156 0
0.00613413 0.00514229 0
0.0365148 0.00300603 0
0.0675822 0 0
0.101884 0 0
0.138643 0 0.0121157
0.178622 0.00724804 0.0308995
0.221515 0.0159762 0.0487831
0.268284 0.0253605 0.066804
0.318944 0.0351568 0.085008
0.374121 0.0449226 0.103365
0.433677 0.0543526 0.121187
0.497414 0.0627604 0.138094
0.566064 0.0698253 0.153353
0.645243 0.0729076 0.164446
0.736248 0.0715343 0.170565
0.829862 0.0674296 0.173114
0.90042 0.0655985 0.177371
0.900542 0.0724041 0.189609
0.900404 0.0781872 0.199634
0.900587 0.0830396 0.208347
0.900572 0.0867933 0.215213
0.900618 0.0899825 0.220706
0.900618 0.092256 0.224979
0.900603 0.0923781 0.225193
0.900603 0.0923781 0.225193
0.900603 0.0923781 0.225193
0.900603 0.0923781 0.225193
0.900603 0.0923781 0.225193
0.900603 0.0923781 0.225193
0.900603 0.0923781 0.225193
0.900603 0.0923781 0.225193
0 0.0306401 0.00296025
0 0.030457 0
0 0.0292821 0
0.0298314 0.0285344 0
0.0634928 0.0264439 0
0.0982376 0.0222171 0
0.135531 0.0144961 0
0.176837 0.00987259 0.00984207
0.220157 0.0179904 0.0357671
0.267201 0.0269627 0.0573587
0.318029 0.0364538 0.0779736
0.373281 0.0460212 0.0976425
0.432883 0.0552224 0.11664
0.496788 0.0635233 0.134386
0.565423 0.0705272 0.150134
0.644617 0.0735637 0.161563
0.735515 0.0721599 0.168032
0.829145 0.0679942 0.171008
0.900465 0.0660258 0.175235
0.900542 0.0728161 0.187533
0.90045 0.0785382 0.197894
0.900587 0.0834363 0.206439
0.900572 0.0871595 0.213352
0.900664 0.0903334 0.218936
0.900603 0.0925917 0.223377
0.900603 0.0927291 0.223575
0.900603 0.0927291 0.223575
0.900603 0.0927291 0.223575
0.900603 0.0927291 0.223575
0.900603 0.0927291 0.223575
0.900603 0.0927291 0.223575
0.900603 0.0927291 0.223575
0.900603 0.0927291 0.223575
0 0.0572518 0.0194553
0 0.0571298 0.0175479
0 0.056672 0.00852979
0.0174105 0.0550393 0
0.0558328 0.0540017 0
0.0927749 0.0519417 0
0.131289 0.0479744 0
0.172229 0.0414588 0
0.216114 0.0297246 0.00534066
0.265003 0.0299229 0.0345006
0.316457 0.0387884 0.0625315
0.371832 0.0479744 0.0862745
0.431464 0.0568246 0.107668
0.49575 0.0649271 0.126955
0.564401 0.0717479 0.144152
0.643336 0.0747539 0.156283
0.734173 0.0732738 0.163424
0.827848 0.0690471 0.166766
0.900526 0.0667887 0.171313
0.900526 0.073579 0.183825
0.900526 0.0792554 0.194278
0.900572 0.084123 0.203067
0.900572 0.0878309 0.210101
0.900755 0.0909438 0.215854
0.900603 0.0932479 0.220081
0.900603 0.09337 0.22031
0.900603 0.09337 0.22031
0.900603 0.09337 0.22031
0.900603 0.09337 0.22031
0.900603 0.09337 0.22031
0.900603 0.09337 0.22031
0.900603 0.09337 0.22031
0.900603 0.09337 0.22031
0 0.0861067 0.037583
0 0.0860304 0.0363165
0 0.0857252 0.0311131
0.00111391 0.0851911 0.0129091
0.0434119 0.0830854 0.000732433
0.0844587 0.0818647 0.00553903
0.124865 0.0797894 0.00183108
0.167147 0.0759136 0.00350958
0.212024 0.0695964 0.00796521
0.259907 0.0595254 0.0141299
0.312062 0.0458228 0.0262303
0.369329 0.0512245 0.0619364
0.429313 0.0594797 0.0901198
0.493721 0.0673075 0.113252
0.562692 0.0738231 0.132799
0.641352 0.0766766 0.147112
0.732235 0.0750591 0.155322
0.825788 0.0707408 0.15967
0.900511 0.0681315 0.164355
0.900511 0.0748302 0.177325
0.900511 0.0804456 0.188128
0.900649 0.0851606 0.197253
0.900572 0.0889448 0.20441
0.900755 0.0920272 0.21033
0.900603 0.094316 0.214649
0.900603 0.0944533 0.214893
0.900603 0.0944533 0.214893
0.900603 0.0944533 0.214893
0.900603 0.0944533 0.214893
0.900603 0.0944533 0.214893
0.900603 0.0944533 0.214893
0.900603 0.0944533 0.214893
0.900603 0.0944533 0.214893
0 0.117693 0.057435
0 0.117632 0.0565347
0 0.117388 0.0531624
0.00544747 0.116945 0.0436866
0.0185702 0.115846 0.0133669
0.071458 0.113558 0.0120089
0.115358 0.112123 0.0172427
0.159457 0.110033 0.0126345
0.205966 0.10605 0.0136721
0.254994 0.0998703 0.0177005
0.307134 0.0905165 0.0234989
0.363302 0.0763561 0.0303655
0.424964 0.0658885 0.0531167
0.490684 0.0709392 0.0868238
0.559686 0.0770428 0.112551
0.638056 0.0797284 0.130694
0.728786 0.0779431 0.141375
0.822416 0.0734417 0.147433
0.900481 0.0702068 0.152834
0.900481 0.0767834 0.166674
0.900496 0.0823072 0.178134
0.900511 0.0868238 0.187411
0.900664 0.0906539 0.195148
0.900755 0.0937362 0.201221
0.900603 0.0959945 0.205753
0.900633 0.0961166 0.206027
0.900633 0.0961166 0.206027
0.900633 0.0961166 0.206027
0.900633 0.0961166 0.206027
0.900633 0.0961166 0.206027
0.900633 0.0961166 0.206027
0.900633 0.0961166 0.206027
0.900633 0.0961166 0.206027
0.0039826 0.152193 0.079057
0.00451667 0.152163 0.0784161
0.00674449 0.151949 0.0758221
0.0112612 0.151476 0.0695964
0.0191653 0.150713 0.054551
0.0456703 0.147997 0.0197452
0.101793 0.1467 0.0245212
0.148959 0.145235 0.0301213
0.197192 0.14287 0.0246738
0.247715 0.138705 0.0247654
0.301076 0.132448 0.028336
0.357946 0.123293 0.0335241
0.418494 0.110185 0.039292
0.483024 0.091783 0.0448463
0.55433 0.08365 0.0721904
0.633631 0.0840925 0.0999619
0.723705 0.0821698 0.116899
0.817761 0.0773327 0.126436
0.900557 0.073228 0.133822
0.900572 0.0796216 0.149386
0.900587 0.0849928 0.162051
0.900481 0.0894636 0.172076
0.900664 0.0932021 0.180499
0.900587 0.0960708 0.18677
0.900725 0.0983902 0.192004
0.900725 0.0985122 0.192264
0.900725 0.0985122 0.192264
0.900725 0.0985122 0.192264
0.900725 0.0985122 0.192264
0.900725 0.0985122 0.192264
0.900725 0.0985122 0.192264
0.900725 0.0985122 0.192264
0.900725 0.0985122 0.192264
0.0126955 0.189349 0.102159
0.0131838 0.189303 0.10164
0.0149538 0.189151 0.0996719
0.0184329 0.188785 0.095201
0.0246738 0.188128 0.0856641
0.0346227 0.187274 0.0627298
0.0772106 0.184115 0.0324254
0.134585 0.182712 0.0379797
0.185534 0.181033 0.0439918
0.237995 0.178607 0.0377813
0.292805 0.174151 0.0369573
0.350835 0.167681 0.0396429
0.412329 0.158495 0.0438087
0.477211 0.146014 0.0482795
0.54612 0.129412 0.0521401
0.622217 0.106966 0.0533761
0.713787 0.0920424 0.0713207
0.810575 0.0829633 0.087892
0.89601 0.0781415 0.101152
0.900511 0.0836957 0.119966
0.900542 0.0888838 0.135103
0.900557 0.0931563 0.147097
0.900771 0.096788 0.156786
0.900649 0.0995499 0.163867
0.90071 0.1019 0.169619
0.90071 0.102022 0.169924
0.90071 0.102022 0.169924
0.90071 0.102022 0.169924
0.90071 0.102022 0.169924
0.90071 0.102022 0.169924
0.90071 0.102022 0.169924
0.90071 0.102022 0.169924
0.90071 0.102022 0.169924
0.0218509 0.229343 0.126528
0.0222477 0.229313 0.126116
0.0235142 0.229221 0.124666
0.0265049 0.228916 0.12137
0.0316014 0.228458 0.114595
0.0396582 0.22768 0.100725
0.0514382 0.226642 0.0669261
0.110307 0.223133 0.0460975
0.170291 0.221668 0.0525368
0.225238 0.219852 0.0590677
0.281819 0.21706 0.0516518
0.341451 0.212482 0.0502022
0.404013 0.205539 0.051606
0.469688 0.196201 0.0542153
0.539101 0.183856 0.0570077
0.614755 0.167636 0.0580148
0.701869 0.145617 0.0547951
0.794324 0.119692 0.0486
0.880064 0.0938277 0.0433661
0.900496 0.0934462 0.0679179
0.900572 0.0956283 0.087541
0.900587 0.0982071 0.102983
0.900679 0.101747 0.115694
0.900694 0.104341 0.125383
0.900755 0.106584 0.132723
0.900755 0.106706 0.133013
0.900755 0.106706 0.133013
0.900755 0.106706 0.133013
0.900755 0.106706 0.133013
0.900755 0.106706 0.133013
0.900755 0.106706 0.133013
0.900755 0.106706 0.133013
0.900755 0.106706 0.133013
0.031281 0.272465 0.152377
0.0315862 0.272435 0.152056
0.0327153 0.272312 0.150835
0.0351568 0.272084 0.148119
0.0393072 0.271702 0.143038
0.0459907 0.271061 0.13341
0.0557259 0.270146 0.114031
0.0733349 0.26865 0.067277
0.145907 0.265049 0.0605478
0.208942 0.263523 0.0677348
0.267964 0.261585 0.0746166
0.329152 0.258778 0.0665751
0.393027 0.253651 0.0639048
0.460334 0.246433 0.0639963
0.530144 0.236622 0.0650187
0.605142 0.223789 0.065095
0.691554 0.20589 0.0615702
0.783841 0.184726 0.0550698
0.870497 0.163073 0.0480201
0.901473 0.149676 0.0483864
0.901335 0.140902 0.0522011
0.901106 0.133028 0.0552071
0.900832 0.125902 0.0577401
0.900786 0.119997 0.0599374
0.900938 0.120836 0.0705272
0.900938 0.120867 0.0710765
0.900938 0.120867 0.0710765
0.900938 0.120867 0.0710765
0.900938 0.120867 0.0710765
0.900938 0.120867 0.0710765
0.900938 0.120867 0.0710765
0.900938 0.120867 0.0710765
0.900938 0.120867 0.0710765
0.0408637 0.318486 0.179049
0.0410773 0.318471 0.178805
0.0420081 0.318395 0.177829
0.0440375 0.318196 0.175753
0.0474861 0.317891 0.171679
0.053254 0.317342 0.164248
0.0614328 0.316564 0.151019
0.0730907 0.315496 0.124117
0.108064 0.312245 0.0753185
0.184604 0.310048 0.0760662
0.25066 0.308476 0.0839094
0.313939 0.306401 0.090898
0.379538 0.303273 0.0821698
0.447684 0.29778 0.0782177
0.518853 0.289998 0.0766461
0.593515 0.279652 0.0755779
0.678752 0.264744 0.0714733
0.771084 0.246113 0.0643931
0.858656 0.227146 0.0568856
0.903487 0.214328 0.0549325
0.903304 0.208087 0.0582589
0.903212 0.202564 0.061326
0.902937 0.197681 0.063447
0.902846 0.193759 0.0654459
0.902754 0.190387 0.0670329
0.902754 0.190204 0.0671092
0.902754 0.190204 0.0671092
0.902754 0.190204 0.0671092
0.902754 0.190204 0.0671092
0.902754 0.190204 0.0671092
0.902754 0.190204 0.0671092
0.902754 0.190204 0.0671092
0.902754 0.190204 0.0671092
0.0502174 0.367269 0.206149
0.0504311 0.367254 0.205936
0.0512245 0.367193 0.205112
0.0527504 0.367071 0.20354
0.0558022 0.366781 0.200107
0.0605478 0.366369 0.194278
0.0677195 0.365682 0.184161
0.0776226 0.364797 0.165789
0.0914015 0.3635 0.128496
0.146105 0.35874 0.0842603
0.225925 0.357748 0.0915541
0.29575 0.356298 0.100511
0.362966 0.354147 0.107622
0.432456 0.350484 0.0978866
0.50457 0.344778 0.092958
0.579446 0.336324 0.0896315
0.663478 0.323949 0.0845655
0.755001 0.307713 0.0770886
0.84361 0.290547 0.0688182
0.905974 0.276921 0.06392
0.905943 0.272007 0.0668193
0.905684 0.267506 0.0692912
0.905623 0.26392 0.0713664
0.905501 0.260716 0.0730755
0.905257 0.258152 0.0743267
0.905257 0.258015 0.074403
0.905257 0.258015 0.074403
0.905257 0.258015 0.074403
0.905257 0.258015 0.074403
0.905257 0.258015 0.074403
0.905257 0.258015 0.074403
0.905257 0.258015 0.074403
0.905257 0.258015 0.074403
0.0586404 0.418448 0.232975
0.0588235 0.418433 0.232776
0.0594949 0.418387 0.23209
0.0609445 0.418235 0.230747
0.0634165 0.418051 0.227909
0.067628 0.417609 0.223041
0.0737774 0.416968 0.214755
0.0823529 0.416129 0.200916
0.0943618 0.415015 0.176074
0.110552 0.413657 0.123003
0.190341 0.408865 0.0993668
0.270848 0.408133 0.107622
0.343893 0.406744 0.117281
0.414786 0.404501 0.124147
0.4878 0.400427 0.113893
0.562783 0.394095 0.10753
0.64506 0.384115 0.10135
0.735729 0.370016 0.0929427
0.825406 0.354376 0.0839246
0.903471 0.340185 0.0763104
0.908797 0.335241 0.0778515
0.908507 0.331502 0.0796979
0.908598 0.328511 0.0814679
0.908461 0.325856 0.0828565
0.908248 0.323735 0.0839094
0.908248 0.323613 0.0839704
0.908248 0.323613 0.0839704
0.908248 0.323613 0.0839704
0.908248 0.323613 0.0839704
0.908248 0.323613 0.0839704
0.908248 0.323613 0.0839704
0.908248 0.323613 0.0839704
0.908248 0.323613 0.0839704
0.065568 0.471077 0.258412
0.0657206 0.471061 0.258289
0.0663005 0.471 0.257832
0.0675669 0.470893 0.256504
0.0698711 0.47071 0.254047
0.0734417 0.470405 0.250019
0.0789349 0.469932 0.243198
0.086717 0.469276 0.231907
0.0974289 0.468284 0.213153
0.111635 0.46688 0.179156
0.146426 0.463767 0.119448
0.23714 0.460868 0.114061
0.319051 0.460548 0.12369
0.394629 0.459068 0.133394
0.468772 0.456611 0.139986
0.544305 0.452445 0.129641
0.624598 0.44477 0.121172
0.713756 0.432929 0.111849
0.803571 0.418784 0.101884
0.883833 0.405539 0.0931868
0.911757 0.398733 0.0912795
0.911482 0.395499 0.0923781
0.911391 0.392691 0.0935683
0.911315 0.390372 0.0946212
0.911116 0.388556 0.0952163
0.911116 0.388464 0.0952621
0.911116 0.388464 0.0952621
0.911116 0.388464 0.0952621
0.911116 0.388464 0.0952621
0.911116 0.388464 0.0952621
0.911116 0.388464 0.0952621
0.911116 0.388464 0.0952621
0.911116 0.388464 0.0952621
0.0708629 0.524742 0.282002
0.0710155 0.524727 0.281865
0.0715038 0.524697 0.281346
0.0725109 0.524636 0.280217
0.0745556 0.524468 0.27805
0.077821 0.524193 0.27454
0.0828107 0.523781 0.268666
0.0899519 0.523156 0.259312
0.0996719 0.522286 0.244053
0.112566 0.52105 0.218433
0.128939 0.519387 0.170199
0.191913 0.513359 0.118502
0.287343 0.514351 0.128405
0.370108 0.51426 0.138949
0.44828 0.512734 0.149142
0.524483 0.510079 0.154726
0.602838 0.505226 0.144045
0.689616 0.495506 0.133074
0.77911 0.483253 0.122011
0.861357 0.470863 0.112383
0.914137 0.461921 0.106523
0.914305 0.45922 0.107134
0.914076 0.456764 0.1075
0.914015 0.454688 0.108049
0.91397 0.452995 0.108583
0.91397 0.452903 0.108614
0.91397 0.452903 0.108614
0.91397 0.452903 0.108614
0.91397 0.452903 0.108614
0.91397 0.452903 0.108614
0.91397 0.452903 0.108614
0.91397 0.452903 0.108614
0.91397 0.452903 0.108614
0.0729229 0.578347 0.301793
0.0730449 0.578332 0.301701
0.073518 0.578302 0.301244
0.0745251 0.578225 0.300175
0.0762493 0.578134 0.298238
0.0791943 0.577905 0.295018
0.0836347 0.577585 0.289693
0.0902113 0.577035 0.281621
0.0993362 0.576211 0.268666
0.111299 0.575082 0.247837
0.126574 0.573526 0.212375
0.149157 0.571115 0.143191
0.248173 0.566918 0.130892
0.340352 0.568154 0.142046
0.424002 0.568185 0.153124
0.503471 0.566629 0.163561
0.581277 0.563729 0.168063
0.665217 0.556771 0.155474
0.753841 0.546426 0.143542
0.836744 0.535348 0.132662
0.907347 0.525612 0.124727
0.916487 0.522103 0.123125
0.91632 0.519753 0.122759
0.916243 0.5178 0.122728
0.916197 0.516213 0.12282
0.916197 0.516121 0.12282
0.916197 0.516121 0.12282
0.916197 0.516121 0.12282
0.916197 0.516121 0.12282
0.916197 0.516121 0.12282
0.916197 0.516121 0.12282
0.916197 0.516121 0.12282
0.916197 0.516121 0.12282
0.0680552 0.632517 0.313436
0.0681773 0.632502 0.313344
0.0686198 0.632471 0.312917
0.0694285 0.632441 0.312016
0.0711833 0.632303 0.310277
0.074052 0.632074 0.307332
0.0782788 0.631739 0.302754
0.0844892 0.631205 0.295567
0.0931411 0.630442 0.284199
0.104494 0.629374 0.26659
0.118822 0.627955 0.237705
0.136599 0.625849 0.186481
0.200565 0.61976 0.132082
0.302831 0.620966 0.139208
0.392844 0.622324 0.151278
0.476722 0.6224 0.162875
0.556863 0.620844 0.173175
0.639551 0.617105 0.176333
0.726787 0.609308 0.163668
0.811109 0.600122 0.153033
0.884733 0.591745 0.144823
0.91931 0.586999 0.140764
0.919203 0.584527 0.139635
0.919127 0.582483 0.139025
0.919051 0.580819 0.138689
0.919051 0.580743 0.138674
0.919051 0.580743 0.138674
0.919051 0.580743 0.138674
0.919051 0.580743 0.138674
0.919051 0.580743 0.138674
0.919051 0.580743 0.138674
0.919051 0.580743 0.138674
0.919051 0.580743 0.138674
0.0573129 0.685161 0.317906
0.0574197 0.685145 0.3178
0.0578317 0.685115 0.317403
0.0587472 0.685039 0.316518
0.0603952 0.684916 0.314916
0.0630198 0.684718 0.312398
0.0671092 0.684382 0.308217
0.0729992 0.683909 0.301579
0.081239 0.683192 0.291264
0.0918593 0.682277 0.275517
0.10573 0.680873 0.250858
0.122789 0.678889 0.209934
0.152636 0.675456 0.138766
0.258106 0.671458 0.129992
0.356298 0.674708 0.143633
0.445533 0.67686 0.157259
0.529427 0.677546 0.169696
0.613458 0.67689 0.180499
0.700221 0.672267 0.181399
0.784726 0.665507 0.170703
0.860151 0.658747 0.162493
0.920058 0.65333 0.156909
0.919921 0.651026 0.154894
0.920089 0.649165 0.153826
0.920043 0.647471 0.152956
0.920043 0.647379 0.152926
0.920043 0.647379 0.152926
0.920043 0.647379 0.152926
0.920043 0.647379 0.152926
0.920043 0.647379 0.152926
0.920043 0.647379 0.152926
0.920043 0.647379 0.152926
0.920043 0.647379 0.152926
0.0446326 0.734096 0.318669
0.0447395 0.734081 0.318563
0.0451362 0.734051 0.318196
0.0460059 0.733989 0.317372
0.0475776 0.733867 0.315847
0.0500191 0.7337 0.313527
0.0540017 0.733394 0.309468
0.059617 0.732952 0.30338
0.0675212 0.732296 0.293935
0.0778973 0.731395 0.279576
0.0910811 0.730144 0.25742
0.107698 0.728252 0.222339
0.127123 0.725505 0.159731
0.209567 0.717662 0.117082
0.318013 0.723796 0.13312
0.41297 0.728374 0.149035
0.501778 0.732158 0.164355
0.586831 0.733822 0.177218
0.674952 0.732341 0.186542
0.75993 0.727565 0.186252
0.836393 0.722652 0.178088
0.900084 0.718044 0.172
0.919829 0.715373 0.168948
0.919509 0.713359 0.166781
0.919432 0.71165 0.165423
0.919432 0.711559 0.165362
0.919432 0.711559 0.165362
0.919432 0.711559 0.165362
0.919432 0.711559 0.165362
0.919432 0.711559 0.165362
0.919432 0.711559 0.165362
0.919432 0.711559 0.165362
0.919432 0.711559 0.165362
0.0335241 0.778103 0.319127
0.0336309 0.778088 0.31902
0.0340124 0.778073 0.3187
0.0348363 0.778012 0.318074
0.0363622 0.777905 0.316625
0.0388495 0.777752 0.314168
0.0425422 0.777523 0.310491
0.0479744 0.777157 0.304677
0.0556191 0.776593 0.295766
0.0658732 0.775738 0.282353
0.0788739 0.774517 0.262287
0.0944839 0.772915 0.230457
0.113252 0.770275 0.177691
0.171695 0.764981 0.117998
0.282277 0.767498 0.122957
0.383719 0.775341 0.141451
0.476463 0.781689 0.159243
0.563928 0.785687 0.17435
0.652033 0.786099 0.185046
0.738155 0.783948 0.192477
0.815 0.780179 0.191608
0.879667 0.776333 0.185077
0.918654 0.773404 0.180819
0.918715 0.771618 0.178546
0.918776 0.770138 0.176898
0.918776 0.770047 0.176806
0.918776 0.770047 0.176806
0.918776 0.770047 0.176806
0.918776 0.770047 0.176806
0.918776 0.770047 0.176806
0.918776 0.770047 0.176806
0.918776 0.770047 0.176806
0.918776 0.770047 0.176806
0.0264134 0.816205 0.321675
0.0265202 0.816205 0.321584
0.0268864 0.81619 0.321233
0.0275425 0.816175 0.320516
0.0289921 0.816083 0.319326
0.0314031 0.815961 0.31696
0.0349279 0.815778 0.313405
0.0401617 0.815518 0.307607
0.0473335 0.815122 0.298939
0.0572824 0.814374 0.286244
0.0699321 0.813291 0.26717
0.0855573 0.811658 0.238056
0.103792 0.809171 0.190997
0.138933 0.805188 0.118303
0.250965 0.805142 0.114519
0.358785 0.815641 0.135714
0.454612 0.823865 0.154681
0.543847 0.830228 0.171893
0.632685 0.832715 0.184756
0.718944 0.831388 0.192859
0.79762 0.828977 0.198718
0.862608 0.826246 0.197009
0.914748 0.824155 0.192493
0.918227 0.822248 0.189258
0.918059 0.820676 0.186984
0.918044 0.820584 0.186877
0.918044 0.820584 0.186877
0.918044 0.820584 0.186877
0.918044 0.820584 0.186877
0.918044 0.820584 0.186877
0.918044 0.820584 0.186877
0.918044 0.820584 0.186877
0.918044 0.820584 0.186877
0.0242771 0.843198 0.327916
0.0243687 0.843214 0.32781
0.0247196 0.843244 0.327459
0.0254673 0.84332 0.326696
0.0268559 0.843458 0.325277
0.0289921 0.843717 0.322927
0.0324865 0.844038 0.319326
0.0374456 0.844541 0.313726
0.0444343 0.845212 0.305211
0.0537881 0.846021 0.292561
0.0655985 0.84625 0.273808
0.0806592 0.844739 0.246265
0.0984665 0.842771 0.202655
0.117784 0.838819 0.125139
0.224491 0.835584 0.108125
0.338338 0.848798 0.131701
0.437995 0.859571 0.152605
0.528847 0.867323 0.171008
0.61735 0.871214 0.185
0.70428 0.87126 0.194247
0.782818 0.869291 0.199985
0.849317 0.867384 0.20502
0.902235 0.865583 0.203021
0.91873 0.863966 0.199405
0.918471 0.86244 0.196872
0.918456 0.862364 0.19675
0.918456 0.862364 0.19675
0.918456 0.862364 0.19675
0.918456 0.862364 0.19675
0.918456 0.862364 0.19675
0.918456 0.862364 0.19675
0.918456 0.862364 0.19675
0.918456 0.862364 0.19675
0.0280766 0.844068 0.33817
0.0281529 0.844083 0.338094
0.0284581 0.844129 0.337758
0.0291905 0.844205 0.337011
0.0305333 0.844312 0.335821
0.0327611 0.844541 0.333486
0.0360266 0.844892 0.329931
0.0409857 0.84538 0.324239
0.0478523 0.846021 0.316075
0.0565347 0.84654 0.303517
0.0682231 0.847547 0.285237
0.0826581 0.848493 0.258381
0.0996262 0.849149 0.216617
0.118227 0.848585 0.146151
0.205432 0.858701 0.107012
0.322316 0.8757 0.129396
0.424887 0.887709 0.151843
0.517189 0.89688 0.170916
0.605722 0.902068 0.185931
0.692607 0.903075 0.19588
0.771695 0.901961 0.202609
0.839002 0.900145 0.207263
0.892424 0.898589 0.211185
0.919417 0.897307 0.208347
0.919112 0.895888 0.205371
0.919097 0.895811 0.205264
0.919097 0.895811 0.205264
0.919097 0.895811 0.205264
0.919097 0.895811 0.205264
0.919097 0.895811 0.205264
0.919097 0.895811 0.205264
0.919097 0.895811 0.205264
0.919097 0.895811 0.205264
0.0310826 0.844724 0.346441
0.0311742 0.844739 0.346349
0.0315099 0.84477 0.346014
0.0322271 0.844846 0.345266
0.0335546 0.844968 0.343938
0.0355688 0.845212 0.341817
0.0389563 0.845548 0.338155
0.0437018 0.846036 0.332738
0.0500801 0.846372 0.324376
0.0591287 0.847196 0.312154
0.070634 0.848188 0.294499
0.0849012 0.849195 0.268284
0.101595 0.849943 0.22858
0.12018 0.849622 0.162707
0.196811 0.857847 0.114626
0.311803 0.87512 0.129946
0.415641 0.89099 0.152529
0.509117 0.90399 0.172045
0.597345 0.913054 0.187488
0.683772 0.917479 0.197711
0.763012 0.919219 0.204562
0.830488 0.919829 0.209476
0.884916 0.920073 0.213291
0.92076 0.92076 0.216434
0.920455 0.920455 0.213123
0.920439 0.920439 0.212955
0.920439 0.920439 0.212955
0.920439 0.920439 0.212955
0.920439 0.920439 0.212955
0.920439 0.920439 0.212955
0.920439 0.920439 0.212955
0.920439 0.920439 0.212955
0.920439 0.920439 0.212955
0.0312352 0.844755 0.346883
0.0313268 0.84477 0.346792
0.0316625 0.8448 0.346456
0.0323796 0.844877 0.345708
0.0337072 0.845014 0.344335
0.0357366 0.845258 0.34226
0.0390936 0.845579 0.338598
0.0438239 0.846036 0.333165
0.0502327 0.846403 0.324742
0.0592508 0.847242 0.312627
0.0707561 0.848234 0.294972
0.085008 0.849226 0.268818
0.101701 0.849989 0.229099
0.120272 0.849668 0.163561
0.196353 0.857801 0.115038
0.311238 0.875044 0.129976
0.415167 0.890929 0.15259
0.508675 0.903944 0.172076
0.596902 0.913024 0.187549
0.683314 0.91751 0.197803
0.762524 0.919219 0.204654
0.830014 0.919844 0.209583
0.884565 0.920058 0.213352
0.92079 0.92079 0.216831
0.920485 0.920485 0.213504
0.92047 0.92047 0.213352
0.92047 0.92047 0.213352
0.92047 0.92047 0.213352
0.92047 0.92047 0.213352
0.92047 0.92047 0.213352
0.92047 0.92047 0.213352
0.92047 0.92047 0.213352
0.92047 0.92047 0.213352
0.0312352 0.844755 0.346883
0.0313268 0.84477 0.346792
0.0316625 0.8448 0.346456
0.0323796 0.844877 0.345708
0.0337072 0.845014 0.344335
0.0357366 0.845258 0.34226
0.0390936 0.845579 0.338598
0.0438239 0.846036 0.333165
0.0502327 0.846403 0.324742
0.0592508 0.847242 0.312627
0.0707561 0.848234 0.294972
0.085008 0.849226 0.268818
0.101701 0.849989 0.229099
0.120272 0.849668 0.163561
0.196353 0.857801 0.115038
0.311238 0.875044 0.129976
0.415167 0.890929 0.15259
0.508675 0.903944 0.172076
0.596902 0.913024 0.187549
0.683314 0.91751 0.197803
0.762524 0.919219 0.204654
0.830014 0.919844 0.209583
0.884565 0.920058 0.213352
0.92079 0.92079 0.216831
0.920485 0.920485 0.213504
0.92047 0.92047 0.213352
0.92047 0.92047 0.213352
0.92047 0.92047 0.213352
0.92047 0.92047 0.213352
0.92047 0.92047 0.213352
