DaVinci Resolve/not used/flannel_ninja_hdr_to_sdr_custom_conversion_lut_v1.0.cube
TITLE "Generated by Resolve"
LUT_3D_SIZE 9
0 0 0
0.0707408 0 0
0.2224 0.0147707 0.0550546
0.434028 0.0538338 0.123827
0.736675 0.0711681 0.172015
0.900404 0.0779583 0.200778
0.900633 0.0920729 0.226017
0.900603 0.0921645 0.22623
0.900603 0.0921645 0.22623
0 0.0572518 0.0194553
0.0558328 0.0540017 0
0.216114 0.0297246 0.00534066
0.431464 0.0568246 0.107668
0.734173 0.0732738 0.163424
0.900526 0.0792554 0.194278
0.900603 0.0932479 0.220081
0.900603 0.09337 0.22031
0.900603 0.09337 0.22031
0.0126955 0.189349 0.102159
0.0246738 0.188128 0.0856641
0.185534 0.181033 0.0439918
0.412329 0.158495 0.0438087
0.713787 0.0920424 0.0713207
0.900542 0.0888838 0.135103
0.90071 0.1019 0.169619
0.90071 0.102022 0.169924
0.90071 0.102022 0.169924
0.0502174 0.367269 0.206149
0.0558022 0.366781 0.200107
0.0914015 0.3635 0.128496
0.362966 0.354147 0.107622
0.663478 0.323949 0.0845655
0.905943 0.272007 0.0668193
0.905257 0.258152 0.0743267
0.905257 0.258015 0.074403
0.905257 0.258015 0.074403
0.0729229 0.578347 0.301793
0.0762493 0.578134 0.298238
0.0993362 0.576211 0.268666
0.248173 0.566918 0.130892
0.581277 0.563729 0.168063
0.907347 0.525612 0.124727
0.916197 0.516213 0.12282
0.916197 0.516121 0.12282
0.916197 0.516121 0.12282
0.0335241 0.778103 0.319127
0.0363622 0.777905 0.316625
0.0556191 0.776593 0.295766
0.113252 0.770275 0.177691
0.476463 0.781689 0.159243
0.815 0.780179 0.191608
0.918776 0.770138 0.176898
0.918776 0.770047 0.176806
0.918776 0.770047 0.176806
0.0310826 0.844724 0.346441
0.0335546 0.844968 0.343938
0.0500801 0.846372 0.324376
0.101595 0.849943 0.22858
0.415641 0.89099 0.152529
0.763012 0.919219 0.204562
0.920455 0.920455 0.213123
0.920439 0.920439 0.212955
0.920439 0.920439 0.212955
0.0312352 0.844755 0.346883
0.0337072 0.845014 0.344335
0.0502327 0.846403 0.324742
0.101701 0.849989 0.229099
0.415167 0.890929 0.15259
0.762524 0.919219 0.204654
0.920485 0.920485 0.213504
0.92047 0.92047 0.213352
0.92047 0.92047 0.213352
0.0312352 0.844755 0.346883
0.0337072 0.845014 0.344335
0.0502327 0.846403 0.324742
0.101701 0.849989 0.229099
0.415167 0.890929 0.15259
0.762524 0.919219 0.204654
0.920485 0.920485 0.213504
0.92047 0.92047 0.213352
0.92047 0.92047 0.213352
0 0 0.0526436
0.0692149 0 0.0557717
0.221912 0.0148623 0.0840162
0.4336 0.0526436 0.137667
0.736004 0.0697948 0.179919
0.900404 0.0768139 0.206989
0.90071 0.0911269 0.231678
0.900694 0.0912337 0.231876
0.900694 0.0912337 0.231876
0 0.0578012 0.0554208
0.0538949 0.0538949 0.0538949
0.21735 0.0249943 0.0583047
0.431083 0.0553445 0.12372
0.733745 0.0718242 0.172091
0.900404 0.078172 0.200565
0.900603 0.0922408 0.225803
0.900603 0.0923629 0.226032
0.900603 0.0923629 0.226032
0.00921645 0.188998 0.115343
0.021622 0.187594 0.102663
0.185168 0.180774 0.0505989
0.414084 0.15555 0.0671397
0.716075 0.0870375 0.0857557
0.900557 0.0878157 0.144213
0.90071 0.100938 0.177066
0.90071 0.101061 0.177356
0.90071 0.101061 0.177356
0.0479133 0.367025 0.212055
0.0536507 0.366537 0.206394
0.0897536 0.363195 0.141054
0.362753 0.354009 0.110216
0.665095 0.322774 0.0957961
0.905913 0.270756 0.0781262
0.905287 0.256733 0.0852522
0.905287 0.256596 0.0853285
0.905287 0.256596 0.0853285
0.0715953 0.578164 0.30544
0.0750439 0.577905 0.301946
0.0982834 0.576013 0.273121
0.243885 0.567178 0.134112
0.58114 0.563638 0.169711
0.908476 0.525124 0.129946
0.916381 0.515709 0.129046
0.916381 0.515633 0.129061
0.916381 0.515633 0.129061
0.0326085 0.777859 0.322225
0.0354467 0.777691 0.319585
0.0548104 0.776364 0.299229
0.112764 0.770153 0.183749
0.474952 0.781933 0.160845
0.814923 0.780102 0.19292
0.91902 0.76994 0.179721
0.91902 0.769863 0.179644
0.91902 0.769863 0.179644
0.0301671 0.844694 0.349264
0.0326543 0.844938 0.346731
0.0492866 0.846372 0.32726
0.101045 0.850065 0.23299
0.413367 0.890837 0.154208
0.762066 0.919326 0.205692
0.920562 0.920562 0.214328
0.920546 0.920546 0.214176
0.920546 0.920546 0.214176
0.0303197 0.844724 0.349706
0.0328069 0.844968 0.347173
0.0494392 0.846403 0.327718
0.101152 0.850095 0.2336
0.412879 0.890761 0.154269
0.761578 0.919341 0.205768
0.920592 0.920592 0.214694
0.920577 0.920577 0.214542
0.920577 0.920577 0.214542
0.0303197 0.844724 0.349706
0.0328069 0.844968 0.347173
0.0494392 0.846403 0.327718
0.101152 0.850095 0.2336
0.412879 0.890761 0.154269
0.761578 0.919341 0.205768
0.920592 0.920592 0.214694
0.920577 0.920577 0.214542
0.920577 0.920577 0.214542
0 0.00836194 0.17792
0.0597238 0 0.180926
0.218708 0.0216373 0.18732
0.43183 0.0555276 0.213199
0.734386 0.0712139 0.234668
0.900481 0.0765545 0.251148
0.900542 0.0902266 0.271885
0.900557 0.0903334 0.272099
0.900557 0.0903334 0.272099
0 0.0660105 0.175677
0.0328832 0.0531472 0.18407
0.21355 0.0254673 0.183078
0.429267 0.0580148 0.206104
0.732158 0.0730297 0.228885
0.900481 0.0777752 0.24593
0.900664 0.0912947 0.266941
0.900664 0.0914168 0.267124
0.900664 0.0914168 0.267124
0.0243381 0.190494 0.185138
0.0309453 0.188968 0.183658
0.18056 0.18056 0.18056
0.426154 0.142885 0.175128
0.714122 0.0863355 0.177234
0.900542 0.0863355 0.20235
0.900832 0.0992294 0.227237
0.900832 0.0993515 0.227466
0.900832 0.0993515 0.227466
0.0484474 0.367147 0.253208
0.0535897 0.366491 0.249439
0.0873579 0.362737 0.211734
0.362982 0.354726 0.143648
0.678828 0.315022 0.160174
0.906004 0.262135 0.143679
0.905501 0.247181 0.148943
0.905486 0.247028 0.148989
0.905486 0.247028 0.148989
0.0630045 0.576837 0.331228
0.0666209 0.576593 0.328283
0.0911421 0.574639 0.304326
0.205234 0.569635 0.156863
0.580163 0.563012 0.181231
0.916472 0.521401 0.164553
0.917327 0.511772 0.169055
0.917327 0.511681 0.1691
0.917327 0.511681 0.1691
0.0256809 0.776013 0.343755
0.0285496 0.775891 0.341405
0.0488746 0.774685 0.323095
0.109071 0.76907 0.224216
0.461753 0.783917 0.173556
0.814481 0.779629 0.202197
0.920424 0.768505 0.198993
0.920439 0.768429 0.199008
0.920439 0.768429 0.199008
0.0233921 0.844343 0.368902
0.0260014 0.844617 0.366567
0.0433661 0.84622 0.348653
0.0969863 0.850767 0.26392
0.396216 0.889586 0.167361
0.755108 0.920043 0.214694
0.92137 0.92137 0.222904
0.92137 0.92137 0.222843
0.92137 0.92137 0.222843
0.0235599 0.844373 0.369329
0.026154 0.844648 0.36701
0.0435187 0.846265 0.349096
0.0970779 0.850797 0.264469
0.395819 0.88954 0.167422
0.754559 0.920043 0.214817
0.921386 0.921386 0.223178
0.921386 0.921386 0.223117
0.921386 0.921386 0.223117
0.0235599 0.844373 0.369329
0.026154 0.844648 0.36701
0.0435187 0.846265 0.349096
0.0970779 0.850797 0.264469
0.395819 0.88954 0.167422
0.754559 0.920043 0.214817
0.921386 0.921386 0.223178
0.921386 0.921386 0.223117
0.921386 0.921386 0.223117
0 0.0469215 0.349722
0 0.0255589 0.354604
0.210849 0.0251774 0.356497
0.425864 0.0653391 0.362982
0.728038 0.0773938 0.367468
0.900023 0.0806287 0.371618
0.899992 0.0937209 0.387259
0.899992 0.093843 0.387396
0.899992 0.093843 0.387396
0 0.0800488 0.347662
0 0.0661784 0.35137
0.200473 0.0337835 0.35581
0.423209 0.0666209 0.360891
0.725567 0.0789197 0.364569
0.900053 0.0817121 0.368307
0.900023 0.0947433 0.383932
0.900023 0.0948501 0.38407
0.900023 0.0948501 0.38407
0 0.201801 0.34313
0 0.198352 0.345357
0.158801 0.177951 0.369009
0.418265 0.140414 0.362005
0.707835 0.0903182 0.34078
0.900206 0.0894484 0.341634
0.90042 0.102068 0.357687
0.90042 0.10219 0.357809
0.90042 0.10219 0.357809
0.0706493 0.369955 0.35935
0.0736553 0.369268 0.358801
0.0944686 0.364294 0.354192
0.354452 0.354452 0.354452
0.697993 0.304265 0.333104
0.905974 0.243824 0.30428
0.90547 0.231662 0.308232
0.90547 0.23154 0.308278
0.90547 0.23154 0.308278
0.078294 0.579873 0.41883
0.081239 0.579553 0.41709
0.100969 0.577371 0.403403
0.171969 0.573068 0.328344
0.580392 0.567575 0.319356
0.921157 0.516335 0.288396
0.92015 0.501701 0.288777
0.920134 0.50161 0.288853
0.920134 0.50161 0.288853
0.0323491 0.778836 0.421454
0.0349126 0.778683 0.420005
0.0536965 0.777279 0.406973
0.110887 0.771527 0.342824
0.417212 0.798413 0.247623
0.819623 0.787091 0.262699
0.926497 0.76907 0.272984
0.926513 0.768933 0.273182
0.926513 0.768933 0.273182
0.0263523 0.846265 0.44358
0.0288243 0.846571 0.441733
0.045716 0.848707 0.428061
0.0980545 0.85449 0.36582
0.323445 0.882246 0.218372
0.732021 0.923522 0.256657
0.924483 0.924483 0.260304
0.924498 0.924498 0.260548
0.924498 0.924498 0.260548
0.0264744 0.846296 0.4439
0.0289464 0.846586 0.44213
0.0458228 0.848722 0.428443
0.0981155 0.85452 0.366247
0.322728 0.882139 0.218372
0.731258 0.923537 0.256809
0.924483 0.924483 0.260197
0.924498 0.924498 0.260456
0.924498 0.924498 0.260456
0.0264744 0.846296 0.4439
0.0289464 0.846586 0.44213
0.0458228 0.848722 0.428443
0.0981155 0.85452 0.366247
0.322728 0.882139 0.218372
0.731258 0.923537 0.256809
0.924483 0.924483 0.260197
0.924498 0.924498 0.260456
0.924498 0.924498 0.260456
0 0.083711 0.557687
0 0.0732128 0.561212
0.184222 0.0367285 0.567773
0.416861 0.0650645 0.56788
0.714046 0.0875563 0.561898
0.897032 0.0865187 0.562387
0.896971 0.0986496 0.577813
0.896971 0.0987716 0.577966
0.896971 0.0987716 0.577966
0 0.0996567 0.554955
0 0.0890059 0.557794
0.170596 0.045304 0.567452
0.412695 0.0679026 0.567361
0.711498 0.0885634 0.560555
0.897246 0.0873426 0.559976
0.897139 0.0994736 0.575311
0.897154 0.0995804 0.575448
0.897154 0.0995804 0.575448
0 0.209674 0.549798
0 0.205676 0.552209
0.115145 0.175647 0.572992
0.394797 0.143343 0.576623
0.693034 0.0961471 0.550652
0.897856 0.0935683 0.542123
0.897688 0.105531 0.55494
0.897704 0.105638 0.555093
0.897704 0.105638 0.555093
0 0.381842 0.541466
0 0.380514 0.542565
0 0.370169 0.551583
0.332998 0.350042 0.590753
0.680476 0.301976 0.573037
0.90457 0.240299 0.537041
0.903807 0.228702 0.533013
0.903838 0.228611 0.533013
0.903838 0.228611 0.533013
0.102953 0.584588 0.56286
0.104845 0.584176 0.562509
0.118181 0.581109 0.56022
0.163302 0.570077 0.551095
0.568978 0.568978 0.568978
0.926497 0.519875 0.541436
0.92459 0.503349 0.537606
0.924575 0.503197 0.537575
0.924575 0.503197 0.537575
0.0540169 0.786206 0.572717
0.0560769 0.785977 0.571649
0.0709544 0.784237 0.563836
0.1196 0.777447 0.529717
0.412604 0.807767 0.515206
0.820172 0.803479 0.539513
0.944289 0.784253 0.53669
0.94432 0.7841 0.53669
0.94432 0.7841 0.53669
0.0489357 0.850401 0.604974
0.0509346 0.850721 0.603479
0.0650034 0.853117 0.59266
0.110765 0.860533 0.548287
0.307134 0.892531 0.479042
0.731334 0.943374 0.526024
0.944457 0.944457 0.525154
0.944442 0.944442 0.525124
0.944442 0.944442 0.525124
0.0490272 0.850416 0.605447
0.0510414 0.850736 0.603937
0.065095 0.853132 0.593103
0.110826 0.860548 0.548653
0.306096 0.892348 0.478752
0.73048 0.943343 0.525887
0.944442 0.944442 0.525032
0.944442 0.944442 0.525002
0.944442 0.944442 0.525002
0.0490272 0.850416 0.605447
0.0510414 0.850736 0.603937
0.065095 0.853132 0.593103
0.110826 0.860548 0.548653
0.306096 0.892348 0.478752
0.73048 0.943343 0.525887
0.944442 0.944442 0.525032
0.944442 0.944442 0.525002
0.944442 0.944442 0.525002
0 0.103319 0.777966
0 0.0955367 0.781918
0.145266 0.0411688 0.79678
0.399481 0.0610513 0.797482
0.698192 0.085832 0.784939
0.888975 0.0870985 0.786252
0.888457 0.0978714 0.803784
0.888441 0.0979629 0.803952
0.888441 0.0979629 0.803952
0 0.110582 0.773114
0 0.103426 0.777203
0.127611 0.0485237 0.796536
0.394751 0.0651255 0.797086
0.695323 0.0868544 0.784436
0.889067 0.0877241 0.784253
0.888563 0.098558 0.801404
0.888563 0.0986648 0.801556
0.888563 0.0986648 0.801556
0 0.211063 0.765682
0 0.207233 0.768948
0.0484932 0.172 0.792905
0.369665 0.137453 0.808392
0.673381 0.0951095 0.781521
0.889662 0.0920272 0.769802
0.889525 0.103563 0.7841
0.88954 0.103655 0.784253
0.88954 0.103655 0.784253
0 0.382773 0.748577
0 0.381262 0.750362
0 0.368612 0.766949
0.302403 0.338323 0.854383
0.655589 0.292332 0.837842
0.896117 0.229862 0.793072
0.895903 0.219471 0.779812
0.895903 0.219364 0.779706
0.895903 0.219364 0.779706
0 0.586358 0.739422
0 0.585687 0.740032
0 0.58024 0.745068
0.149508 0.565438 0.77882
0.549035 0.56199 0.832013
0.923278 0.5149 0.805463
0.920562 0.497551 0.800122
0.920531 0.497383 0.800076
0.920531 0.497383 0.800076
0.0717632 0.791119 0.749538
0.0733959 0.790784 0.749249
0.0848554 0.788373 0.746807
0.12459 0.77911 0.739452
0.396033 0.805493 0.778134
0.806607 0.806607 0.806607
0.949935 0.787686 0.80351
0.949935 0.787503 0.803479
0.949935 0.787503 0.803479
0.0677806 0.851865 0.788266
0.0693675 0.85214 0.787503
0.0802777 0.853864 0.781323
0.118288 0.860655 0.758114
0.287816 0.892378 0.738628
0.71899 0.949157 0.790585
0.950576 0.950439 0.789212
0.950576 0.950286 0.789197
0.950576 0.950286 0.789197
0.0678721 0.851881 0.788663
0.0694438 0.852155 0.787976
0.0803388 0.853864 0.781781
0.118349 0.860655 0.75845
0.286748 0.89218 0.738277
0.718166 0.949126 0.790402
0.950576 0.950576 0.789075
0.950576 0.950576 0.789059
0.950576 0.950576 0.789059
0.0678721 0.851881 0.788663
0.0694438 0.852155 0.787976
0.0803388 0.853864 0.781781
0.118349 0.860655 0.75845
0.286748 0.89218 0.738277
0.718166 0.949126 0.790402
0.950576 0.950576 0.789075
0.950576 0.950576 0.789059
0.950576 0.950576 0.789059
0 0.110216 0.912764
0 0.103227 0.916091
0.117601 0.0414435 0.932876
0.387366 0.0587778 0.932052
0.690517 0.078706 0.910384
0.884962 0.0879683 0.884962
0.885267 0.0991836 0.885267
0.885267 0.0992599 0.885267
0.885267 0.0992599 0.885267
0 0.116686 0.908125
0 0.110323 0.911864
0.0957351 0.0482643 0.932692
0.382483 0.0629892 0.932204
0.687053 0.0803388 0.910811
0.884978 0.088365 0.884978
0.885267 0.0995499 0.885267
0.885252 0.0996262 0.885252
0.885252 0.0996262 0.885252
0 0.209979 0.900572
0 0.205966 0.903258
0 0.17261 0.926162
0.3552 0.132601 0.932082
0.661784 0.0925917 0.914199
0.884855 0.0910658 0.884855
0.885344 0.103029 0.885344
0.885344 0.103136 0.885344
0.885344 0.103136 0.885344
0 0.380606 0.881956
0 0.378958 0.884199
0 0.365698 0.900847
0.286381 0.333837 0.935363
0.642725 0.288563 0.924086
0.892058 0.224521 0.892058
0.891432 0.21442 0.891432
0.891417 0.214328 0.891417
0.891417 0.214328 0.891417
0 0.587594 0.861265
0 0.586725 0.862181
0 0.58024 0.870344
0.135012 0.561486 0.913222
0.537179 0.557748 0.941787
0.912764 0.511864 0.921248
0.917739 0.493721 0.917739
0.917723 0.493538 0.917723
0.917723 0.493538 0.917723
0.0037232 0.7879 0.842695
0.0065156 0.787747 0.842985
0.0276188 0.785779 0.845853
0.0965744 0.777478 0.858213
0.383627 0.801373 0.914122
0.795972 0.805386 0.950317
0.949691 0.786343 0.949691
0.949645 0.786175 0.949645
0.949645 0.786175 0.949645
0.078294 0.852811 0.852811
0.0795605 0.853056 0.853056
0.0893873 0.854826 0.854826
0.122957 0.860746 0.860746
0.273198 0.889158 0.889158
0.708232 0.949325 0.949325
0.948989 0.948989 0.948989
0.950256 0.948837 0.948974
0.950256 0.948837 0.948974
0.0783703 0.852811 0.852811
0.0796216 0.853086 0.853086
0.0894636 0.854826 0.854826
0.123033 0.860761 0.860761
0.272084 0.888945 0.888945
0.7075 0.949264 0.949264
0.948241 0.950256 0.948867
0.950256 0.950256 0.948837
0.950256 0.950256 0.948837
0.0783703 0.852811 0.852811
0.0796216 0.853086 0.853086
0.0894636 0.854826 0.854826
0.123033 0.860761 0.860761
0.272084 0.888945 0.888945
0.7075 0.949264 0.949264
0.948241 0.950256 0.948867
0.950256 0.950256 0.948837
0.950256 0.950256 0.948837
0 0.110277 0.913985
0 0.103304 0.917128
0.117311 0.0414435 0.934081
0.387304 0.0588235 0.932052
0.690486 0.078706 0.910384
0.884962 0.088014 0.884962
0.885267 0.0992142 0.885267
0.885267 0.0992905 0.885267
0.885267 0.0992905 0.885267
0 0.116747 0.909346
0 0.110384 0.913069
0.0953994 0.0482643 0.933898
0.382422 0.0630198 0.932204
0.687022 0.0803388 0.910826
0.884978 0.0884108 0.884978
0.885267 0.0995804 0.885267
0.885252 0.0996567 0.885252
0.885252 0.0996567 0.885252
0 0.209995 0.901503
0 0.205966 0.904479
0 0.17261 0.927352
0.355108 0.132601 0.932082
0.661723 0.0926223 0.914199
0.884855 0.0911116 0.884855
0.885344 0.103059 0.885344
0.885344 0.103166 0.885344
0.885344 0.103166 0.885344
0 0.380591 0.883192
0 0.378958 0.885115
0 0.365667 0.902068
0.286259 0.333837 0.935363
0.642618 0.288563 0.924102
0.892058 0.224521 0.892058
0.891432 0.21442 0.891432
0.891402 0.214313 0.891402
0.891402 0.214313 0.891402
0 0.58761 0.862303
0 0.586725 0.86334
0 0.58024 0.871519
0.134874 0.561456 0.914412
0.537102 0.557748 0.941787
0.912673 0.511864 0.921248
0.917739 0.493706 0.917739
0.917723 0.493538 0.917723
0.917723 0.493538 0.917723
0.00225834 0.787778 0.843488
0.00509651 0.78764 0.843809
0.0265812 0.785763 0.846769
0.0961776 0.777462 0.859281
0.38352 0.801358 0.914107
0.795865 0.805386 0.950317
0.949691 0.786328 0.949691
0.949645 0.78616 0.949645
0.949645 0.78616 0.949645
0.0784009 0.852827 0.852827
0.0796521 0.853086 0.853086
0.0894789 0.854826 0.854826
0.123003 0.860761 0.860761
0.273045 0.889128 0.889128
0.708125 0.949325 0.949325
0.948898 0.948974 0.950256
0.95024 0.948821 0.95024
0.95024 0.948821 0.95024
0.0784772 0.852842 0.852842
0.0797131 0.853101 0.853101
0.0895552 0.854841 0.854841
0.123079 0.860777 0.860777
0.271931 0.888914 0.888914
0.707408 0.949264 0.949264
0.94815 0.950256 0.950256
0.950256 0.950256 0.950256
0.950256 0.950256 0.950256
0.0784772 0.852842 0.852842
0.0797131 0.853101 0.853101
0.0895552 0.854841 0.854841
0.123079 0.860777 0.860777
0.271931 0.888914 0.888914
0.707408 0.949264 0.949264
0.94815 0.950256 0.950256
0.950256 0.950256 0.950256
0.950256 0.950256 0.950256
0 0.110277 0.913985
0 0.103304 0.917128
0.117311 0.0414435 0.934081
0.387304 0.0588235 0.932052
0.690486 0.078706 0.910384
0.884962 0.088014 0.884962
0.885267 0.0992142 0.885267
0.885267 0.0992905 0.885267
0.885267 0.0992905 0.885267
0 0.116747 0.909346
0 0.110384 0.913069
0.0953994 0.0482643 0.933898
0.382422 0.0630198 0.932204
0.687022 0.0803388 0.910826
0.884978 0.0884108 0.884978
0.885267 0.0995804 0.885267
0.885252 0.0996567 0.885252
0.885252 0.0996567 0.885252
0 0.209995 0.901503
0 0.205966 0.904479
0 0.17261 0.927352
0.355108 0.132601 0.932082
0.661723 0.0926223 0.914199
0.884855 0.0911116 0.884855
0.885344 0.103059 0.885344
0.885344 0.103166 0.885344
0.885344 0.103166 0.885344
0 0.380591 0.883192
0 0.378958 0.885115
0 0.365667 0.902068
0.286259 0.333837 0.935363
0.642618 0.288563 0.924102
0.892058 0.224521 0.892058
0.891432 0.21442 0.891432
0.891402 0.214313 0.891402
0.891402 0.214313 0.891402
0 0.58761 0.862303
0 0.586725 0.86334
0 0.58024 0.871519
0.134874 0.561456 0.914412
0.537102 0.557748 0.941787
0.912673 0.511864 0.921248
0.917739 0.493706 0.917739
0.917723 0.493538 0.917723
0.917723 0.493538 0.917723
0.00225834 0.787778 0.843488
0.00509651 0.78764 0.843809
0.0265812 0.785763 0.846769
0.0961776 0.777462 0.859281
0.38352 0.801358 0.914107
0.795865 0.805386 0.950317
0.949691 0.786328 0.949691
0.949645 0.78616 0.949645
0.949645 0.78616 0.949645
0.0784009 0.852827 0.852827
0.0796521 0.853086 0.853086
0.0894789 0.854826 0.854826
0.123003 0.860761 0.860761
0.273045 0.889128 0.889128
0.708125 0.949325 0.949325
0.948898 0.948974 0.950256
0.95024 0.948821 0.95024
0.95024 0.948821 0.95024
0.0784772 0.852842 0.852842
0.0797131 0.853101 0.853101
0.0895552 0.854841 0.854841
0.123079 0.860777 0.860777
0.271931 0.888914 0.888914
0.707408 0.949264 0.949264
0.94815 0.950256 0.950256
0.950256 0.950256 0.950256
0.950256 0.950256 0.950256
0.0784772 0.852842 0.852842
0.0797131 0.853101 0.853101
0.0895552 0.854841 0.854841
0.123079 0.860777 0.860777
0.271931 0.888914 0.888914
0.707408 0.949264 0.949264
0.94815 0.950256 0.950256
0.950256 0.950256 0.950256
0.950256 0.950256 0.950256
