Programming/LUT/Fuji_Provia.cube
TITLE "Provia"
LUT_3D_SIZE 9
0.0024420 0.0021978 0.0019536
0.0652015 0.0034188 0.0053724
0.2126984 0.0068376 0.0102564
0.3704518 0.0153846 0.0131868
0.5128205 0.0334554 0.0185592
0.6598291 0.0644689 0.0271062
0.8036630 0.1091575 0.0398046
0.9260073 0.1716728 0.0605617
0.9870574 0.2268620 0.0749695
0.0024420 0.0410256 0.0019536
0.0461538 0.0505495 0.0026862
0.1853480 0.0630037 0.0046398
0.3548230 0.0810745 0.0068376
0.5023199 0.1020757 0.0087912
0.6478633 0.1308913 0.0129426
0.7921856 0.1738706 0.0207570
0.9213675 0.2302808 0.0405372
0.9848596 0.2617827 0.0600733
0.0034188 0.1623932 0.0000000
0.0488400 0.1743590 0.0009768
0.1811966 0.1887668 0.0019536
0.3474970 0.2021978 0.0026862
0.4908425 0.2190476 0.0043956
0.6327229 0.2410256 0.0070818
0.7802198 0.2717949 0.0124542
0.9169719 0.3150183 0.0312576
0.9894994 0.3531136 0.0981685
0.0043956 0.3250305 0.0000000
0.0473748 0.3286935 0.0000000
0.1775336 0.3377289 0.0000000
0.3328449 0.3438340 0.0009768
0.4757021 0.3516484 0.0021978
0.6166056 0.3636142 0.0046398
0.7643468 0.3814408 0.0100122
0.9020757 0.4109890 0.0334554
0.9846154 0.4395604 0.0864469
0.0063492 0.4666667 0.0000000
0.0490842 0.4683761 0.0000000
0.1663004 0.4676435 0.0000000
0.3191697 0.4688645 0.0012210
0.4568987 0.4739927 0.0021978
0.5980464 0.4764347 0.0048840
0.7460318 0.4854701 0.0134310
0.8864469 0.5045177 0.0473748
0.9775336 0.5264958 0.1010989
0.0090354 0.6034188 0.0004884
0.0515263 0.6012210 0.0014652
0.1577534 0.5987790 0.0019536
0.3020757 0.5899878 0.0024420
0.4390720 0.5943834 0.0041514
0.5758242 0.5985348 0.0095238
0.7238095 0.6004884 0.0261294
0.8625153 0.6131868 0.0649573
0.9626374 0.6241758 0.1223443
0.0129426 0.7377290 0.0063492
0.0600733 0.7357754 0.0078144
0.1536020 0.7328449 0.0090354
0.2862027 0.7260073 0.0119658
0.4173382 0.7235653 0.0195360
0.5572650 0.7191697 0.0336996
0.6998779 0.7177045 0.0581197
0.8415141 0.7213675 0.0964591
0.9089133 0.7238095 0.1213675
0.0202686 0.8109890 0.0283272
0.0757021 0.8114774 0.0290598
0.1413919 0.8363858 0.0512821
0.2840049 0.8258852 0.0578755
0.4158730 0.7963370 0.0537241
0.5274726 0.8134310 0.0808303
0.6840049 0.8078144 0.1174603
0.8258852 0.8075702 0.1387057
0.8962149 0.8156288 0.1746032
0.0241758 0.9050061 0.1316239
0.1047619 0.8515263 0.0603175
0.1479854 0.8434677 0.0554335
0.2898657 0.8476191 0.0813187
0.4498169 0.8380952 0.0969475
0.5240538 0.8236874 0.0893773
0.6764347 0.8283272 0.1389499
0.8229548 0.8156288 0.1445666
0.9245421 0.8766789 0.2427350
0.0051282 0.0073260 0.0568987
0.0639805 0.0151404 0.0527473
0.2024420 0.0124542 0.0808303
0.3792430 0.0241758 0.0937729
0.5201465 0.0451770 0.0971917
0.6681319 0.0788767 0.1001221
0.8100122 0.1206349 0.1152625
0.9365079 0.1821734 0.1433455
0.9875458 0.2229548 0.1728938
0.0070818 0.0571429 0.0539683
0.0634921 0.0644689 0.0581197
0.2039072 0.0793651 0.0693529
0.3680098 0.0954823 0.0798535
0.5123321 0.1155067 0.0852259
0.6532357 0.1426129 0.0945055
0.7960928 0.1814408 0.1094017
0.9308913 0.2378510 0.1343101
0.9956044 0.2964591 0.1836386
0.0073260 0.1833944 0.0483516
0.0632479 0.1916972 0.0498169
0.1960928 0.2043956 0.0549451
0.3565324 0.2158730 0.0600733
0.4971917 0.2310134 0.0666667
0.6361417 0.2505495 0.0774115
0.7811966 0.2788767 0.0942613
0.9199023 0.3206349 0.1238095
0.9953602 0.3680098 0.1733822
0.0078144 0.3379731 0.0344322
0.0566545 0.3416362 0.0344322
0.1860806 0.3455434 0.0388278
0.3396825 0.3516484 0.0444444
0.4796093 0.3579976 0.0525031
0.6188034 0.3680098 0.0637363
0.7650794 0.3851038 0.0835165
0.9030525 0.4153846 0.1196581
0.9919414 0.4507937 0.1721612
0.0107448 0.4720391 0.0312576
0.0571429 0.4717949 0.0329670
0.1760684 0.4720391 0.0366300
0.3250305 0.4717949 0.0422466
0.4605617 0.4747253 0.0500611
0.6004884 0.4796093 0.0630037
0.7470086 0.4898657 0.0857143
0.8847375 0.5098901 0.1238095
0.9858364 0.5374848 0.1731380
0.0156288 0.6014652 0.0424908
0.0615385 0.6007326 0.0459096
0.1672772 0.5997558 0.0498169
0.3074481 0.5968254 0.0549451
0.4429792 0.5943834 0.0639805
0.5797314 0.5958486 0.0800977
0.7255189 0.5992674 0.1030525
0.8639805 0.6102564 0.1374847
0.9716728 0.6278389 0.1792430
0.0197802 0.7391942 0.0678877
0.0686203 0.7362638 0.0725275
0.1626374 0.7323565 0.0761905
0.2923077 0.7264957 0.0835165
0.4229548 0.7213675 0.0937729
0.5587302 0.7167277 0.1076923
0.7003663 0.7164835 0.1282051
0.8417583 0.7191697 0.1579976
0.9501832 0.7321123 0.1970696
0.0271062 0.8620269 0.1123321
0.0822955 0.8525031 0.1142857
0.1645910 0.8520147 0.1240537
0.2810745 0.8420025 0.1277167
0.4048840 0.8302808 0.1323565
0.5399268 0.8249084 0.1460318
0.6774115 0.8231990 0.1655678
0.8173382 0.8200244 0.1907204
0.9296703 0.8324786 0.2297924
0.0258852 0.9167277 0.1523810
0.0903541 0.8971917 0.1604396
0.1770452 0.9003663 0.1760684
0.2788767 0.8952381 0.1633700
0.3724054 0.8783883 0.1645910
0.5382174 0.8678877 0.1877900
0.6564103 0.8757021 0.1934066
0.8383394 0.8612943 0.2214896
0.9301587 0.8947497 0.2693529
0.0175824 0.0219780 0.2146520
0.0796093 0.0376068 0.2481074
0.2112332 0.0603175 0.2393162
0.4024420 0.0459096 0.2515263
0.5284494 0.0905983 0.2578755
0.6725275 0.0962149 0.2559219
0.8078144 0.1433455 0.2700855
0.9394383 0.2046398 0.2915751
0.9975580 0.2666667 0.2996337
0.0156288 0.0898657 0.2153846
0.0927961 0.1013431 0.2227106
0.2246642 0.1120879 0.2275946
0.3855922 0.1238095 0.2380952
0.5218560 0.1401709 0.2461538
0.6564103 0.1641026 0.2547009
0.7965812 0.1985348 0.2683761
0.9321123 0.2525031 0.2820513
0.9980464 0.3115995 0.3042735
0.0161172 0.2083028 0.2048840
0.0864469 0.2136752 0.2095238
0.2195360 0.2219780 0.2188034
0.3709402 0.2310134 0.2258852
0.5052503 0.2437118 0.2336996
0.6402931 0.2620269 0.2400488
0.7824176 0.2896215 0.2483516
0.9191697 0.3311355 0.2669109
0.9958486 0.3804640 0.2935287
0.0180708 0.3499390 0.1948718
0.0815629 0.3533578 0.1958486
0.2073260 0.3557998 0.2021978
0.3531136 0.3594628 0.2068376
0.4874237 0.3663004 0.2144078
0.6229548 0.3760684 0.2214896
0.7653236 0.3919414 0.2336996
0.9018315 0.4212454 0.2556777
0.9926740 0.4588523 0.2852259
0.0175824 0.4771673 0.1858364
0.0771673 0.4764347 0.1868132
0.1948718 0.4759463 0.1912088
0.3382173 0.4754579 0.1958486
0.4688645 0.4781441 0.2021978
0.6051282 0.4815629 0.2112332
0.7470086 0.4927961 0.2246642
0.8842491 0.5133089 0.2483516
0.9868132 0.5421246 0.2783883
0.0229548 0.6048840 0.1821734
0.0788767 0.6048840 0.1833944
0.1853480 0.6012210 0.1865690
0.3211233 0.5982906 0.1912088
0.4510379 0.5956044 0.1973138
0.5848596 0.5987790 0.2075702
0.7264957 0.6021978 0.2212454
0.8642247 0.6134310 0.2437118
0.9753358 0.6341881 0.2742369
0.0288156 0.7411478 0.1885226
0.0820513 0.7394384 0.1890110
0.1770452 0.7340659 0.1914530
0.3037851 0.7282051 0.1958486
0.4297924 0.7228327 0.2024420
0.5623932 0.7199023 0.2119658
0.7015873 0.7191697 0.2258852
0.8412699 0.7223443 0.2481074
0.9575092 0.7340659 0.2803419
0.0427350 0.8691087 0.2122100
0.0947497 0.8642247 0.2144078
0.1780220 0.8581197 0.2170940
0.2923077 0.8507937 0.2210012
0.4122100 0.8442003 0.2273504
0.5413920 0.8376068 0.2363858
0.6796093 0.8312576 0.2490842
0.8180708 0.8305250 0.2700855
0.9394383 0.8378510 0.3052503
0.0571429 0.9504274 0.2700855
0.1145299 0.9492064 0.2761905
0.1894994 0.9460317 0.2871795
0.2925519 0.9108669 0.2490842
0.4058608 0.9008547 0.2507937
0.5306472 0.8959707 0.2598291
0.6671551 0.8864469 0.2732601
0.8112332 0.8815629 0.2930403
0.9333333 0.8844933 0.3274725
0.0356532 0.0573871 0.3916972
0.1194139 0.0903541 0.4102564
0.2549451 0.0971917 0.4537241
0.3916972 0.1164835 0.4722833
0.5501832 0.1250305 0.4266178
0.6666667 0.1562882 0.4351648
0.8105006 0.1802198 0.4456654
0.9443223 0.2319902 0.4366300
0.9990232 0.2920635 0.4522589
0.0295482 0.1255189 0.3995116
0.1264957 0.1362637 0.4019536
0.2588523 0.1467644 0.4183150
0.4014652 0.1587302 0.4246642
0.5326008 0.1706960 0.4175824
0.6593407 0.1926740 0.4229548
0.7973138 0.2249084 0.4229548
0.9306471 0.2725275 0.4258852
0.9973138 0.3294261 0.4385836
0.0288156 0.2368742 0.3860806
0.1194139 0.2412698 0.3887668
0.2471306 0.2478632 0.3924298
0.3868132 0.2556777 0.3946276
0.5145299 0.2676435 0.3968254
0.6454213 0.2830281 0.3980464
0.7833944 0.3059829 0.4021978
0.9147741 0.3445666 0.4114774
0.9948718 0.3946276 0.4219780
0.0268620 0.3680098 0.3626374
0.1103785 0.3689866 0.3658120
0.2339438 0.3689866 0.3663004
0.3706960 0.3728938 0.3716728
0.4979243 0.3777778 0.3738706
0.6293041 0.3860806 0.3782662
0.7667888 0.4024420 0.3826618
0.8996337 0.4319902 0.3931624
0.9921856 0.4705739 0.4085470
0.0302808 0.4840049 0.3465202
0.1094017 0.4852259 0.3472528
0.2227106 0.4830281 0.3496948
0.3555556 0.4813187 0.3516484
0.4805861 0.4852259 0.3545788
0.6122100 0.4896215 0.3594628
0.7482296 0.4996337 0.3658120
0.8835165 0.5179487 0.3787546
0.9873016 0.5484738 0.3990232
0.0341880 0.6097680 0.3311355
0.1057387 0.6087912 0.3313797
0.2107448 0.6046398 0.3328449
0.3387057 0.6004884 0.3355311
0.4642247 0.5985348 0.3396825
0.5926740 0.6004884 0.3443224
0.7279609 0.6046398 0.3536020
0.8632479 0.6163614 0.3672772
0.9782662 0.6385837 0.3890110
0.0402930 0.7411478 0.3228327
0.1076923 0.7374848 0.3221001
0.2021978 0.7318681 0.3242979
0.3230769 0.7252747 0.3274725
0.4439560 0.7206349 0.3321123
0.5714286 0.7172161 0.3384615
0.7059829 0.7177045 0.3477412
0.8429793 0.7221001 0.3619048
0.9633700 0.7360196 0.3863248
0.0566545 0.8691087 0.3286935
0.1201465 0.8639805 0.3296703
0.2017094 0.8583639 0.3316239
0.3103785 0.8503053 0.3352869
0.4256410 0.8434677 0.3394383
0.5496948 0.8373626 0.3448108
0.6835165 0.8319902 0.3543346
0.8190476 0.8317460 0.3709402
0.9467643 0.8405373 0.4026862
0.0737485 0.9631258 0.3499390
0.1326007 0.9597070 0.3518926
0.2031746 0.9575092 0.3555556
0.3089133 0.9470086 0.3599512
0.4131868 0.9377289 0.3604396
0.5347986 0.9326007 0.3655678
0.6627595 0.9203907 0.3692308
0.8000000 0.9174603 0.3970696
0.9238095 0.9189255 0.4212454
0.0791209 0.1218559 0.5506716
0.1721612 0.1396825 0.5648352
0.2984127 0.1440782 0.6043956
0.4063492 0.1389499 0.5760684
0.5028083 0.1435897 0.5724054
0.6761905 0.1943834 0.5750916
0.8280830 0.2244200 0.6224664
0.9396825 0.2583639 0.5743590
0.9975580 0.3169719 0.5750916
0.0551893 0.1658120 0.5545788
0.1726496 0.1782662 0.5560440
0.2874237 0.1882784 0.5680098
0.4195360 0.1941392 0.5684982
0.5328450 0.2043956 0.5619048
0.6637363 0.2261294 0.5648352
0.7980464 0.2527473 0.5643468
0.9255189 0.2967033 0.5616606
0.9973138 0.3536020 0.5623932
0.0466422 0.2700855 0.5374848
0.1582418 0.2735043 0.5399268
0.2793651 0.2774115 0.5426130
0.4046398 0.2835165 0.5426130
0.5260074 0.2932845 0.5416362
0.6505495 0.3069597 0.5423688
0.7843712 0.3282051 0.5438340
0.9120879 0.3631258 0.5431014
0.9946276 0.4122100 0.5494506
0.0439560 0.3868132 0.5137973
0.1487180 0.3863248 0.5145299
0.2661783 0.3873016 0.5152625
0.3902320 0.3897436 0.5169719
0.5111111 0.3948718 0.5186813
0.6363859 0.4024420 0.5179487
0.7687424 0.4183150 0.5184371
0.8979243 0.4442002 0.5223444
0.9919414 0.4835165 0.5323566
0.0410256 0.4974359 0.4898657
0.1421245 0.4964591 0.4908425
0.2527473 0.4959707 0.4915751
0.3763126 0.4945055 0.4937729
0.4949939 0.4971917 0.4957265
0.6192918 0.5001221 0.4967033
0.7516484 0.5094017 0.4974359
0.8822955 0.5289378 0.5035409
0.9865690 0.5606838 0.5164835
0.0478632 0.6153846 0.4708181
0.1406593 0.6117216 0.4717949
0.2405372 0.6090354 0.4708181
0.3609280 0.6068376 0.4732601
0.4783883 0.6039072 0.4747253
0.6009768 0.6051282 0.4761905
0.7321123 0.6085470 0.4788767
0.8637363 0.6217338 0.4884005
0.9782662 0.6456655 0.5054945
0.0578755 0.7421246 0.4527473
0.1406593 0.7369964 0.4532357
0.2317460 0.7326007 0.4539683
0.3443224 0.7269841 0.4547009
0.4593407 0.7218559 0.4573871
0.5811966 0.7189255 0.4593407
0.7106227 0.7194139 0.4647131
0.8442003 0.7235653 0.4759463
0.9645910 0.7396826 0.4976801
0.0666667 0.8673993 0.4468865
0.1455434 0.8605617 0.4481075
0.2280830 0.8554335 0.4490843
0.3318681 0.8485959 0.4493285
0.4417582 0.8427351 0.4527473
0.5599512 0.8371184 0.4568987
0.6896215 0.8322344 0.4630037
0.8224664 0.8322344 0.4757021
0.9494506 0.8424909 0.5052503
0.0844933 0.9621490 0.4576313
0.1570208 0.9599512 0.4581197
0.2310134 0.9550672 0.4620269
0.3286935 0.9489622 0.4615385
0.4327228 0.9404151 0.4649573
0.5489622 0.9326007 0.4691087
0.6759463 0.9264957 0.4778999
0.8080586 0.9208791 0.4925519
0.9338217 0.9291819 0.5257632
0.1721612 0.2166056 0.7260073
0.1670330 0.1841270 0.6476191
0.3142857 0.1902320 0.6998779
0.4410256 0.2046398 0.7233211
0.5516484 0.2102564 0.7133089
0.6803419 0.2378510 0.7269841
0.8244200 0.2549451 0.7304029
0.9352869 0.2930403 0.7103785
0.9975580 0.3472528 0.7084249
0.1137973 0.2253968 0.7091575
0.2222222 0.2339438 0.7118437
0.3247863 0.2317460 0.7081807
0.4439560 0.2412698 0.7098901
0.5528694 0.2510379 0.7115995
0.6722833 0.2666667 0.7098901
0.7987790 0.2891331 0.7062271
0.9208791 0.3274725 0.6969475
0.9956044 0.3831502 0.6974359
0.0727717 0.3118437 0.6852259
0.2100122 0.3137973 0.6866911
0.3184371 0.3155067 0.6886447
0.4293040 0.3213675 0.6891331
0.5426130 0.3274725 0.6898657
0.6605617 0.3387057 0.6876679
0.7858364 0.3567766 0.6840049
0.9094017 0.3870574 0.6781441
0.9943834 0.4376068 0.6793651
0.0698413 0.4134310 0.6634921
0.1995116 0.4117216 0.6654457
0.3040293 0.4129426 0.6647131
0.4173382 0.4146520 0.6669109
0.5274726 0.4197802 0.6671551
0.6454213 0.4266178 0.6630037
0.7706960 0.4398046 0.6595849
0.8962149 0.4620269 0.6576313
0.9916972 0.5040293 0.6622711
0.0632479 0.5140415 0.6385837
0.1899878 0.5120879 0.6383395
0.2903541 0.5106227 0.6383395
0.4031746 0.5103785 0.6380953
0.5135531 0.5113553 0.6393163
0.6290599 0.5159951 0.6378511
0.7557998 0.5240538 0.6356533
0.8815629 0.5416362 0.6351649
0.9865690 0.5743590 0.6439561
0.0642247 0.6263736 0.6131868
0.1824176 0.6219780 0.6126984
0.2778999 0.6175824 0.6112332
0.3875458 0.6148962 0.6109890
0.4976801 0.6141636 0.6134310
0.6126984 0.6148962 0.6134310
0.7372406 0.6185592 0.6139194
0.8654457 0.6297925 0.6156288
0.9789988 0.6549451 0.6266178
0.0747253 0.7445666 0.5892552
0.1809524 0.7379732 0.5882784
0.2691087 0.7335775 0.5892552
0.3726496 0.7286935 0.5887668
0.4796093 0.7245421 0.5909646
0.5943834 0.7223443 0.5912088
0.7172161 0.7230769 0.5924298
0.8456655 0.7272283 0.5970696
0.9665446 0.7457876 0.6139194
0.0832723 0.8654457 0.5731380
0.1831502 0.8578755 0.5724054
0.2622711 0.8520147 0.5738706
0.3599512 0.8466423 0.5738706
0.4630037 0.8420025 0.5743590
0.5748474 0.8368742 0.5760684
0.6984127 0.8332112 0.5811966
0.8263736 0.8327228 0.5892552
0.9550672 0.8466423 0.6144078
0.1020757 0.9619048 0.5746032
0.1916972 0.9606838 0.5746032
0.2637363 0.9565324 0.5758242
0.3560440 0.9506716 0.5746032
0.4554335 0.9433455 0.5777778
0.5650794 0.9362637 0.5799756
0.6859585 0.9294261 0.5880342
0.8148962 0.9240537 0.6000000
0.9423687 0.9357753 0.6261294
0.2639805 0.3067155 0.8510379
0.3201465 0.3389499 0.9218559
0.3675214 0.2752137 0.8564103
0.4783883 0.2644689 0.8461539
0.5855922 0.2732601 0.8693529
0.7001221 0.2835165 0.8844933
0.8092796 0.3045177 0.8688645
0.9262515 0.3377289 0.8539683
0.9968254 0.3880342 0.8437119
0.2026862 0.2903541 0.8625153
0.2864469 0.2937729 0.8586081
0.3770452 0.2962149 0.8644689
0.4764347 0.3028083 0.8654457
0.5760684 0.3079365 0.8647131
0.6849817 0.3184371 0.8581197
0.8004884 0.3372405 0.8495727
0.9172161 0.3694750 0.8390720
0.9946276 0.4231990 0.8310134
0.1282051 0.3606838 0.8432235
0.2769231 0.3619048 0.8439561
0.3665446 0.3626374 0.8444445
0.4642247 0.3667888 0.8451771
0.5658120 0.3716728 0.8422467
0.6737485 0.3807082 0.8371184
0.7892552 0.3970696 0.8297924
0.9067155 0.4244200 0.8205128
0.9929182 0.4730159 0.8173382
0.1047619 0.4483517 0.8173382
0.2647131 0.4466422 0.8190476
0.3531136 0.4461538 0.8197802
0.4529915 0.4473749 0.8170940
0.5521368 0.4517705 0.8136752
0.6593407 0.4578755 0.8097680
0.7758242 0.4693529 0.8051282
0.8940171 0.4918193 0.8000000
0.9914530 0.5328450 0.7978022
0.0969475 0.5396826 0.7936508
0.2549451 0.5352870 0.7936508
0.3411478 0.5352870 0.7909646
0.4405372 0.5340660 0.7887668
0.5394384 0.5343102 0.7858364
0.6446887 0.5404152 0.7841270
0.7619048 0.5474970 0.7807082
0.8813187 0.5638584 0.7760684
0.9855922 0.5980464 0.7789988
0.0945055 0.6427351 0.7658120
0.2461538 0.6358975 0.7623932
0.3299145 0.6329671 0.7616606
0.4271062 0.6300367 0.7604396
0.5255190 0.6295483 0.7584860
0.6300367 0.6300367 0.7562882
0.7455434 0.6344323 0.7543346
0.8678877 0.6432235 0.7536020
0.9787546 0.6727717 0.7599512
0.0996337 0.7521368 0.7345544
0.2380952 0.7428572 0.7321123
0.3177045 0.7396826 0.7311355
0.4117216 0.7362638 0.7306471
0.5086691 0.7323565 0.7291819
0.6139194 0.7301587 0.7291819
0.7284493 0.7313797 0.7289377
0.8505495 0.7357754 0.7323565
0.9699634 0.7582418 0.7445666
0.1094017 0.8637363 0.7103785
0.2371184 0.8556777 0.7089133
0.3103785 0.8507937 0.7079365
0.4000000 0.8463981 0.7079365
0.4945055 0.8420025 0.7084249
0.5975580 0.8378510 0.7094017
0.7113553 0.8351648 0.7103785
0.8336996 0.8366300 0.7157509
0.9601954 0.8539683 0.7355312
0.1306471 0.9645910 0.7013431
0.2424908 0.9616606 0.7008547
0.3111111 0.9582418 0.7015873
0.3968254 0.9548230 0.7003663
0.4896215 0.9484738 0.7015873
0.5916972 0.9423687 0.7035409
0.7042735 0.9357753 0.7084249
0.8249084 0.9311355 0.7157509
0.9499390 0.9423687 0.7391942
0.3699634 0.4200244 0.9956044
0.3770452 0.4117216 0.9948718
0.4188034 0.4014652 0.9916972
0.5113553 0.4019536 0.9968254
0.6051282 0.3660562 0.9919414
0.7091575 0.3675214 0.9899878
0.8139194 0.3741148 0.9860806
0.9230769 0.4009768 0.9787546
0.9960928 0.4454212 0.9721612
0.3108669 0.3760684 0.9887668
0.3677656 0.3758242 0.9885226
0.4395604 0.3763126 0.9880342
0.5201465 0.3787546 0.9887668
0.6087912 0.3824176 0.9873016
0.7037851 0.3897436 0.9843712
0.8075702 0.4036630 0.9785104
0.9155067 0.4297924 0.9689866
0.9946276 0.4771673 0.9606838
0.2400488 0.4227106 0.9797314
0.3577534 0.4246642 0.9792430
0.4283272 0.4253968 0.9782662
0.5123321 0.4275946 0.9755800
0.5987790 0.4327228 0.9726496
0.6937729 0.4395604 0.9684982
0.7978022 0.4525031 0.9633700
0.9064713 0.4749695 0.9533578
0.9921856 0.5189255 0.9457875
0.1663004 0.4991453 0.9621490
0.3474970 0.4957265 0.9594628
0.4180708 0.4959707 0.9582418
0.5025641 0.4959707 0.9555556
0.5880342 0.4993895 0.9528694
0.6825397 0.5050061 0.9477412
0.7865690 0.5150183 0.9411477
0.8962149 0.5340660 0.9326007
0.9892552 0.5721612 0.9301587
0.1462760 0.5785104 0.9384615
0.3399267 0.5733822 0.9360195
0.4083028 0.5724054 0.9335775
0.4920635 0.5719170 0.9294261
0.5782662 0.5726496 0.9269841
0.6700855 0.5763126 0.9238095
0.7750916 0.5829060 0.9186813
0.8859585 0.5963370 0.9130647
0.9855922 0.6300367 0.9130647
0.1423687 0.6661783 0.9115995
0.3289377 0.6578755 0.9062271
0.3968254 0.6564103 0.9050061
0.4786325 0.6549451 0.9020757
0.5650794 0.6539683 0.8996337
0.6588523 0.6547009 0.8974359
0.7614164 0.6593407 0.8952381
0.8735043 0.6686203 0.8908425
0.9787546 0.6984127 0.8949939
0.1431013 0.7667888 0.8796093
0.3194139 0.7562882 0.8747253
0.3858364 0.7538462 0.8749695
0.4669109 0.7501832 0.8732601
0.5516484 0.7482296 0.8727717
0.6444445 0.7474970 0.8703297
0.7474970 0.7484738 0.8673993
0.8590965 0.7540904 0.8656899
0.9706960 0.7777778 0.8754579
0.1492064 0.8705739 0.8498169
0.3145299 0.8610501 0.8471307
0.3785104 0.8581197 0.8468865
0.4568987 0.8542125 0.8461539
0.5396826 0.8503053 0.8454213
0.6315019 0.8471307 0.8454213
0.7347986 0.8449329 0.8451771
0.8468865 0.8463981 0.8473749
0.9653236 0.8654457 0.8620269
0.1746032 0.9682540 0.8354090
0.3184371 0.9653236 0.8349206
0.3794872 0.9623932 0.8344322
0.4571429 0.9584860 0.8341880
0.5399268 0.9540904 0.8334554
0.6307693 0.9487180 0.8351648
0.7318681 0.9452991 0.8366300
0.8422467 0.9421245 0.8400488
0.9579976 0.9518926 0.8544567
0.4864469 0.5672772 1.0000000
0.4703297 0.5350428 1.0000000
0.5113553 0.5369964 1.0000000
0.5787546 0.5223444 1.0000000
0.6647131 0.5362638 1.0000000
0.7514042 0.5340660 1.0000000
0.8449329 0.5333334 1.0000000
0.9413919 0.5426130 1.0000000
0.9973138 0.5401710 1.0000000
0.4561661 0.5296704 1.0000000
0.4827839 0.5316240 1.0000000
0.5396826 0.5308914 1.0000000
0.6058608 0.5228328 1.0000000
0.6840049 0.5374848 1.0000000
0.7587302 0.5311356 1.0000000
0.8449329 0.5416362 1.0000000
0.9365079 0.5599512 1.0000000
0.9958486 0.5660562 1.0000000
0.4327228 0.5450550 1.0000000
0.4971917 0.5521368 1.0000000
0.5499390 0.5533578 1.0000000
0.6112332 0.5518926 1.0000000
0.6796093 0.5599512 1.0000000
0.7538462 0.5653236 1.0000000
0.8376068 0.5743590 1.0000000
0.9299145 0.5914530 1.0000000
0.9946276 0.5978022 1.0000000
0.3560440 0.6024420 1.0000000
0.4896215 0.6041514 1.0000000
0.5423688 0.6053724 1.0000000
0.6041514 0.6048840 1.0000000
0.6688645 0.6041514 1.0000000
0.7467644 0.6158730 1.0000000
0.8305250 0.6227106 0.9995116
0.9228327 0.6366301 0.9980464
0.9929182 0.6398047 0.9975580
0.2781441 0.6691087 0.9997558
0.4852259 0.6644689 0.9990232
0.5384616 0.6664225 0.9987790
0.6002442 0.6652015 0.9980464
0.6644689 0.6634921 0.9975580
0.7396826 0.6693529 0.9973138
0.8244200 0.6788767 0.9963370
0.9167277 0.6881563 0.9956044
0.9904762 0.6879121 0.9951160
0.2510379 0.7435898 0.9960928
0.4822955 0.7360196 0.9946276
0.5330892 0.7350428 0.9946276
0.5960928 0.7357754 0.9941392
0.6608059 0.7333333 0.9931624
0.7338217 0.7345544 0.9926740
0.8185592 0.7428572 0.9924298
0.9094017 0.7472528 0.9919414
0.9870574 0.7452992 0.9921856
0.2488400 0.8266178 0.9907204
0.4764347 0.8156288 0.9890110
0.5262516 0.8139194 0.9887668
0.5885226 0.8126984 0.9885226
0.6539683 0.8112332 0.9882784
0.7267399 0.8107448 0.9877900
0.8102564 0.8117216 0.9870574
0.8996337 0.8148962 0.9865690
0.9811966 0.8095238 0.9868132
0.2517705 0.9145299 0.9829060
0.4691087 0.9030525 0.9819292
0.5191697 0.9001221 0.9816850
0.5804640 0.8971917 0.9809524
0.6444445 0.8940171 0.9804640
0.7167277 0.8918193 0.9794872
0.7987790 0.8896215 0.9789988
0.8893773 0.8876679 0.9787546
0.9731380 0.8869353 0.9772894
0.2415140 0.9846154 0.9670330
0.4258852 0.9777778 0.9645910
0.4793651 0.9760684 0.9648352
0.5431014 0.9721612 0.9631258
0.6109890 0.9680098 0.9614164
0.6862027 0.9641026 0.9601954
0.7719170 0.9592186 0.9589744
0.8673993 0.9536020 0.9587302
0.9650794 0.9562882 0.9604396
