Programming/LUT/Fuji_Provia.cube
TITLE "Provia"
LUT_3D_SIZE 5
0.0024420 0.0021978 0.0019536
0.2126984 0.0068376 0.0102564
0.5128205 0.0334554 0.0185592
0.8036630 0.1091575 0.0398046
0.9870574 0.2268620 0.0749695
0.0034188 0.1623932 0.0000000
0.1811966 0.1887668 0.0019536
0.4908425 0.2190476 0.0043956
0.7802198 0.2717949 0.0124542
0.9894994 0.3531136 0.0981685
0.0063492 0.4666667 0.0000000
0.1663004 0.4676435 0.0000000
0.4568987 0.4739927 0.0021978
0.7460318 0.4854701 0.0134310
0.9775336 0.5264958 0.1010989
0.0129426 0.7377290 0.0063492
0.1536020 0.7328449 0.0090354
0.4173382 0.7235653 0.0195360
0.6998779 0.7177045 0.0581197
0.9089133 0.7238095 0.1213675
0.0241758 0.9050061 0.1316239
0.1479854 0.8434677 0.0554335
0.4498169 0.8380952 0.0969475
0.6764347 0.8283272 0.1389499
0.9245421 0.8766789 0.2427350
0.0175824 0.0219780 0.2146520
0.2112332 0.0603175 0.2393162
0.5284494 0.0905983 0.2578755
0.8078144 0.1433455 0.2700855
0.9975580 0.2666667 0.2996337
0.0161172 0.2083028 0.2048840
0.2195360 0.2219780 0.2188034
0.5052503 0.2437118 0.2336996
0.7824176 0.2896215 0.2483516
0.9958486 0.3804640 0.2935287
0.0175824 0.4771673 0.1858364
0.1948718 0.4759463 0.1912088
0.4688645 0.4781441 0.2021978
0.7470086 0.4927961 0.2246642
0.9868132 0.5421246 0.2783883
0.0288156 0.7411478 0.1885226
0.1770452 0.7340659 0.1914530
0.4297924 0.7228327 0.2024420
0.7015873 0.7191697 0.2258852
0.9575092 0.7340659 0.2803419
0.0571429 0.9504274 0.2700855
0.1894994 0.9460317 0.2871795
0.4058608 0.9008547 0.2507937
0.6671551 0.8864469 0.2732601
0.9333333 0.8844933 0.3274725
0.0791209 0.1218559 0.5506716
0.2984127 0.1440782 0.6043956
0.5028083 0.1435897 0.5724054
0.8280830 0.2244200 0.6224664
0.9975580 0.3169719 0.5750916
0.0466422 0.2700855 0.5374848
0.2793651 0.2774115 0.5426130
0.5260074 0.2932845 0.5416362
0.7843712 0.3282051 0.5438340
0.9946276 0.4122100 0.5494506
0.0410256 0.4974359 0.4898657
0.2527473 0.4959707 0.4915751
0.4949939 0.4971917 0.4957265
0.7516484 0.5094017 0.4974359
0.9865690 0.5606838 0.5164835
0.0578755 0.7421246 0.4527473
0.2317460 0.7326007 0.4539683
0.4593407 0.7218559 0.4573871
0.7106227 0.7194139 0.4647131
0.9645910 0.7396826 0.4976801
0.0844933 0.9621490 0.4576313
0.2310134 0.9550672 0.4620269
0.4327228 0.9404151 0.4649573
0.6759463 0.9264957 0.4778999
0.9338217 0.9291819 0.5257632
0.2639805 0.3067155 0.8510379
0.3675214 0.2752137 0.8564103
0.5855922 0.2732601 0.8693529
0.8092796 0.3045177 0.8688645
0.9968254 0.3880342 0.8437119
0.1282051 0.3606838 0.8432235
0.3665446 0.3626374 0.8444445
0.5658120 0.3716728 0.8422467
0.7892552 0.3970696 0.8297924
0.9929182 0.4730159 0.8173382
0.0969475 0.5396826 0.7936508
0.3411478 0.5352870 0.7909646
0.5394384 0.5343102 0.7858364
0.7619048 0.5474970 0.7807082
0.9855922 0.5980464 0.7789988
0.0996337 0.7521368 0.7345544
0.3177045 0.7396826 0.7311355
0.5086691 0.7323565 0.7291819
0.7284493 0.7313797 0.7289377
0.9699634 0.7582418 0.7445666
0.1306471 0.9645910 0.7013431
0.3111111 0.9582418 0.7015873
0.4896215 0.9484738 0.7015873
0.7042735 0.9357753 0.7084249
0.9499390 0.9423687 0.7391942
0.4864469 0.5672772 1.0000000
0.5113553 0.5369964 1.0000000
0.6647131 0.5362638 1.0000000
0.8449329 0.5333334 1.0000000
0.9973138 0.5401710 1.0000000
0.4327228 0.5450550 1.0000000
0.5499390 0.5533578 1.0000000
0.6796093 0.5599512 1.0000000
0.8376068 0.5743590 1.0000000
0.9946276 0.5978022 1.0000000
0.2781441 0.6691087 0.9997558
0.5384616 0.6664225 0.9987790
0.6644689 0.6634921 0.9975580
0.8244200 0.6788767 0.9963370
0.9904762 0.6879121 0.9951160
0.2488400 0.8266178 0.9907204
0.5262516 0.8139194 0.9887668
0.6539683 0.8112332 0.9882784
0.8102564 0.8117216 0.9870574
0.9811966 0.8095238 0.9868132
0.2415140 0.9846154 0.9670330
0.4793651 0.9760684 0.9648352
0.6109890 0.9680098 0.9614164
0.7719170 0.9592186 0.9589744
0.9650794 0.9562882 0.9604396
