Programming/LUT/Fuji_Classic Chrome.cube
TITLE "Classic Chrome"
LUT_3D_SIZE 9
0.0020010 0.0025013 0.0015008
0.0560280 0.0077539 0.0092546
0.1798399 0.0207604 0.0230115
0.3269134 0.0435218 0.0397699
0.4754877 0.0767884 0.0620310
0.6230615 0.1180590 0.0902952
0.7538769 0.1725863 0.1230615
0.8624312 0.2456228 0.1635818
0.9147074 0.3024012 0.1930965
0.0045023 0.0330165 0.0042521
0.0477739 0.0445223 0.0090045
0.1648324 0.0662831 0.0225113
0.3204102 0.0952976 0.0402701
0.4724863 0.1258129 0.0605303
0.6188094 0.1645823 0.0862931
0.7523762 0.2188594 0.1178089
0.8659329 0.2891446 0.1605803
0.9149575 0.3299150 0.1905953
0.0152576 0.1240620 0.0105053
0.0662831 0.1388194 0.0175088
0.1790895 0.1613307 0.0310155
0.3301651 0.1865933 0.0457729
0.4762381 0.2151076 0.0647824
0.6188094 0.2501251 0.0887944
0.7531266 0.2976488 0.1205603
0.8706853 0.3611806 0.1678339
0.9512256 0.4207104 0.2373687
0.0315158 0.2581291 0.0247624
0.0862931 0.2681341 0.0327664
0.1990996 0.2883942 0.0447724
0.3396698 0.3086543 0.0607804
0.4819910 0.3311656 0.0800400
0.6223112 0.3594297 0.1038019
0.7546273 0.3964482 0.1360680
0.8706853 0.4494748 0.1855928
0.9507254 0.4979990 0.2421211
0.0437719 0.3961981 0.0440220
0.1045523 0.4042021 0.0545273
0.2103552 0.4149575 0.0665333
0.3491746 0.4309655 0.0830415
0.4859930 0.4507254 0.1035518
0.6230615 0.4692346 0.1260630
0.7531266 0.4972486 0.1593297
0.8689345 0.5385193 0.2106053
0.9497249 0.5787894 0.2668834
0.0552776 0.5372686 0.0735368
0.1238119 0.5417709 0.0827914
0.2256128 0.5497749 0.0940470
0.3566783 0.5540270 0.1095548
0.4917459 0.5715358 0.1293147
0.6225613 0.5887944 0.1555778
0.7508754 0.6088044 0.1918459
0.8631816 0.6390696 0.2401201
0.9447224 0.6653327 0.2971486
0.0712856 0.6708354 0.1175588
0.1505753 0.6748374 0.1263131
0.2466233 0.6808404 0.1373187
0.3709355 0.6855928 0.1538269
0.4972486 0.6938469 0.1740870
0.6270635 0.7026013 0.2003502
0.7486243 0.7146073 0.2341171
0.8614307 0.7333667 0.2803902
0.9154577 0.7438719 0.3091546
0.0922961 0.7393697 0.1553277
0.1778389 0.7456228 0.1643322
0.2528764 0.7743872 0.1940970
0.3916959 0.7771386 0.2116058
0.5120060 0.7606303 0.2158579
0.6188094 0.7848924 0.2493747
0.7503752 0.7941471 0.2941471
0.8616809 0.8071536 0.3281641
0.9182091 0.8221611 0.3691846
0.1143072 0.8259130 0.2581291
0.2136068 0.7846423 0.2003502
0.2606303 0.7813907 0.1993497
0.4024512 0.7963982 0.2348674
0.5527764 0.8014007 0.2596298
0.6180590 0.7931466 0.2573787
0.7483742 0.8119060 0.3139070
0.8604302 0.8139070 0.3341671
0.9509755 0.8776888 0.4422211
0.0042521 0.0107554 0.0400200
0.0547774 0.0220110 0.0442721
0.1683342 0.0315158 0.0725363
0.3341671 0.0595298 0.0992996
0.4822411 0.0920460 0.1183092
0.6313156 0.1343172 0.1405703
0.7601300 0.1865933 0.1730865
0.8729365 0.2603802 0.2188594
0.9257129 0.3081541 0.2556278
0.0107554 0.0505253 0.0477739
0.0605303 0.0615308 0.0572786
0.1785893 0.0855428 0.0780390
0.3319159 0.1128064 0.1015508
0.4822411 0.1423212 0.1218109
0.6253127 0.1798399 0.1468234
0.7558779 0.2313657 0.1785893
0.8741871 0.3026513 0.2226113
0.9564782 0.3766883 0.2826413
0.0225113 0.1465733 0.0667834
0.0772886 0.1583292 0.0752876
0.1895948 0.1800900 0.0912956
0.3384192 0.2041021 0.1098049
0.4824913 0.2313657 0.1300650
0.6230615 0.2648824 0.1540770
0.7553777 0.3099050 0.1845923
0.8739370 0.3726864 0.2306153
0.9612306 0.4409705 0.2901451
0.0390195 0.2766383 0.0850425
0.0927964 0.2853927 0.0907954
0.2038519 0.3011506 0.1043022
0.3451726 0.3221611 0.1220610
0.4859930 0.3431716 0.1410705
0.6243122 0.3689345 0.1633317
0.7558779 0.4059530 0.1950976
0.8726863 0.4592296 0.2438719
0.9602301 0.5162581 0.3034017
0.0555278 0.4077038 0.1033017
0.1095548 0.4132066 0.1098049
0.2163582 0.4254627 0.1225613
0.3529265 0.4397199 0.1388194
0.4884942 0.4569785 0.1568284
0.6255628 0.4774888 0.1800900
0.7546273 0.5070035 0.2133567
0.8694347 0.5485243 0.2613807
0.9577289 0.5942972 0.3191596
0.0710355 0.5422711 0.1315658
0.1293147 0.5467734 0.1390695
0.2306153 0.5562781 0.1510755
0.3604302 0.5662832 0.1663332
0.4942471 0.5770385 0.1850926
0.6255628 0.5925463 0.2103552
0.7531266 0.6120560 0.2431216
0.8664332 0.6410705 0.2878940
0.9539770 0.6730865 0.3394197
0.0842921 0.6770886 0.1735868
0.1550775 0.6803402 0.1825913
0.2511256 0.6853427 0.1938469
0.3741871 0.6908454 0.2103552
0.5010005 0.6970986 0.2291146
0.6280640 0.7043522 0.2518759
0.7493747 0.7173587 0.2828915
0.8631816 0.7346173 0.3241621
0.9512256 0.7588794 0.3741871
0.1055528 0.7888945 0.2328664
0.1873437 0.7861431 0.2391196
0.2773887 0.7931466 0.2556278
0.3909455 0.7941471 0.2673837
0.5085043 0.7936468 0.2801401
0.6313156 0.7991496 0.3034017
0.7478740 0.8086543 0.3336668
0.8581791 0.8191596 0.3701851
0.9482241 0.8414207 0.4227113
0.1188094 0.8376688 0.2778890
0.2028514 0.8261631 0.2868935
0.2981491 0.8364182 0.3094047
0.4014507 0.8401701 0.3081541
0.4882441 0.8329164 0.3134067
0.6373187 0.8369185 0.3466733
0.7403702 0.8521761 0.3659330
0.8809405 0.8564282 0.4084542
0.9584792 0.8936968 0.4694847
0.0120060 0.0332666 0.1485743
0.0600300 0.0540270 0.1798399
0.1740870 0.0825413 0.1875938
0.3554277 0.0900450 0.2101050
0.4917459 0.1368184 0.2343672
0.6363181 0.1580790 0.2486243
0.7618809 0.2136068 0.2821411
0.8801901 0.2883942 0.3269134
0.9614807 0.3614307 0.3609305
0.0195098 0.0862931 0.1605803
0.0817909 0.1025513 0.1730865
0.1930965 0.1215608 0.1888444
0.3479240 0.1455728 0.2131066
0.4914958 0.1725863 0.2346173
0.6290646 0.2073537 0.2593797
0.7586293 0.2556278 0.2903952
0.8779390 0.3254127 0.3286643
0.9652326 0.4012006 0.3739370
0.0322661 0.1765883 0.1753377
0.0922961 0.1880940 0.1853427
0.2046023 0.2071036 0.2041021
0.3494247 0.2293647 0.2243622
0.4897449 0.2541271 0.2451226
0.6275638 0.2856428 0.2671336
0.7586293 0.3296648 0.2936468
0.8766884 0.3921961 0.3329165
0.9682341 0.4624812 0.3804402
0.0475238 0.2998999 0.1963482
0.1073036 0.3099050 0.2033517
0.2158579 0.3244122 0.2183592
0.3539270 0.3421711 0.2351176
0.4922461 0.3629315 0.2546273
0.6288144 0.3881941 0.2751376
0.7568784 0.4232116 0.3021511
0.8734367 0.4744872 0.3426713
0.9667334 0.5330165 0.3901951
0.0580290 0.4244622 0.2136068
0.1215608 0.4312156 0.2203602
0.2266133 0.4419710 0.2333667
0.3616808 0.4554777 0.2488744
0.4942471 0.4714857 0.2661331
0.6288144 0.4902451 0.2873937
0.7551275 0.5192596 0.3151576
0.8699350 0.5597799 0.3549275
0.9637319 0.6065533 0.4012006
0.0752876 0.5550275 0.2353677
0.1403202 0.5615308 0.2423712
0.2411206 0.5677839 0.2536268
0.3696848 0.5780390 0.2688845
0.4992496 0.5872936 0.2853927
0.6293147 0.6035518 0.3074037
0.7541271 0.6220610 0.3341671
0.8674337 0.6495748 0.3711856
0.9609805 0.6848424 0.4172086
0.0947974 0.6870936 0.2681341
0.1633317 0.6905953 0.2738869
0.2591296 0.6943472 0.2846423
0.3806903 0.6995998 0.2991496
0.5052526 0.7048524 0.3154077
0.6305653 0.7128564 0.3356678
0.7506253 0.7248625 0.3609305
0.8641821 0.7421210 0.3966984
0.9592296 0.7661331 0.4427214
0.1310655 0.8016508 0.3169084
0.1988494 0.8021511 0.3239120
0.2868935 0.8046523 0.3339170
0.3986993 0.8071536 0.3469235
0.5155078 0.8106554 0.3621811
0.6335668 0.8144072 0.3804402
0.7506253 0.8201601 0.4039520
0.8609304 0.8319160 0.4377189
0.9582291 0.8504252 0.4862431
0.1660830 0.8724362 0.3849425
0.2366183 0.8761881 0.3969485
0.3156578 0.8801901 0.4137068
0.4139570 0.8586794 0.3844422
0.5235118 0.8589295 0.3946973
0.6363181 0.8639320 0.4127063
0.7493747 0.8664332 0.4357179
0.8631816 0.8741871 0.4684843
0.9602301 0.8886943 0.5145072
0.0222611 0.0767884 0.2853927
0.0897949 0.1118059 0.3124062
0.2056028 0.1308154 0.3584292
0.3406703 0.1585793 0.3909455
0.5140070 0.1768384 0.3709355
0.6353177 0.2156078 0.3966984
0.7666333 0.2556278 0.4242121
0.8859430 0.3229114 0.4457228
0.9679840 0.3964482 0.4862431
0.0285143 0.1273137 0.3039019
0.1018009 0.1440720 0.3144072
0.2163582 0.1643322 0.3401701
0.3601801 0.1868434 0.3616808
0.5025012 0.2098549 0.3716858
0.6333166 0.2428714 0.3934467
0.7623812 0.2886443 0.4149575
0.8786893 0.3534267 0.4449725
0.9697348 0.4282141 0.4842421
0.0390195 0.2143572 0.3174087
0.1113057 0.2266133 0.3271636
0.2223612 0.2436218 0.3421711
0.3619310 0.2641321 0.3591796
0.4982491 0.2878940 0.3761881
0.6328164 0.3169084 0.3936968
0.7601300 0.3564282 0.4169585
0.8759380 0.4147074 0.4497249
0.9742371 0.4857429 0.4859930
0.0500250 0.3299150 0.3286643
0.1233117 0.3399200 0.3386693
0.2318659 0.3516758 0.3494247
0.3664332 0.3689345 0.3669335
0.5000000 0.3871936 0.3819410
0.6333166 0.4104552 0.4009505
0.7583792 0.4444722 0.4224612
0.8734367 0.4944972 0.4537269
0.9719860 0.5535268 0.4912456
0.0637819 0.4442221 0.3424212
0.1398199 0.4542271 0.3504252
0.2423712 0.4632316 0.3616808
0.3721861 0.4744872 0.3749375
0.5025012 0.4907454 0.3904452
0.6338169 0.5095047 0.4084542
0.7568784 0.5355178 0.4297149
0.8701851 0.5730365 0.4602301
0.9684842 0.6215608 0.5002501
0.0807904 0.5712857 0.3589295
0.1565783 0.5777889 0.3656828
0.2553777 0.5835418 0.3756878
0.3799400 0.5910455 0.3886943
0.5082541 0.6003001 0.4034517
0.6338169 0.6148074 0.4199600
0.7541271 0.6330665 0.4427214
0.8679340 0.6595798 0.4729865
0.9659830 0.6960980 0.5130065
0.1005503 0.6958479 0.3821911
0.1800900 0.6990995 0.3884442
0.2738869 0.7021011 0.3981991
0.3921961 0.7058529 0.4102051
0.5137569 0.7111055 0.4244622
0.6348174 0.7186093 0.4419710
0.7523762 0.7308654 0.4637319
0.8649325 0.7481241 0.4927464
0.9649825 0.7741371 0.5327664
0.1385693 0.8091546 0.4189595
0.2173587 0.8106554 0.4254627
0.3024012 0.8124062 0.4339670
0.4104552 0.8139070 0.4462231
0.5240120 0.8164082 0.4594797
0.6385693 0.8204102 0.4749875
0.7526263 0.8261631 0.4954978
0.8616809 0.8376688 0.5242621
0.9647323 0.8584292 0.5682842
0.1808404 0.8896949 0.4589795
0.2518759 0.8906953 0.4662331
0.3284142 0.8941971 0.4764882
0.4334667 0.8944472 0.4887444
0.5355178 0.8946974 0.4977489
0.6453227 0.8989495 0.5127564
0.7513757 0.8986993 0.5252627
0.8606803 0.9082041 0.5622811
0.9582291 0.9212106 0.5962982
0.0482741 0.1435718 0.4369685
0.1225613 0.1688344 0.4652326
0.2363682 0.1838419 0.5020010
0.3514257 0.1855928 0.4852426
0.4584792 0.1990996 0.4919960
0.6455728 0.2593797 0.5225112
0.7861431 0.3091546 0.5815408
0.8851926 0.3549275 0.5632817
0.9727364 0.4294647 0.5900450
0.0402701 0.1740870 0.4442221
0.1300650 0.1938469 0.4557279
0.2351176 0.2126063 0.4764882
0.3741871 0.2298649 0.4912456
0.5002501 0.2496248 0.4997499
0.6383191 0.2828915 0.5202602
0.7651325 0.3239120 0.5390195
0.8786893 0.3849425 0.5612807
0.9754878 0.4609805 0.5887944
0.0467734 0.2571286 0.4524762
0.1325663 0.2703852 0.4632316
0.2428714 0.2848924 0.4767384
0.3739370 0.3029014 0.4902451
0.5072536 0.3241621 0.5040020
0.6373187 0.3506753 0.5200100
0.7613807 0.3889445 0.5390195
0.8754377 0.4424712 0.5610305
0.9769885 0.5125062 0.5920460
0.0550275 0.3629315 0.4612306
0.1428214 0.3729365 0.4699850
0.2511256 0.3846923 0.4807404
0.3794397 0.3994497 0.4939970
0.5095047 0.4169585 0.5082541
0.6383191 0.4384692 0.5215108
0.7603802 0.4712356 0.5387694
0.8724362 0.5165083 0.5622811
0.9732366 0.5742871 0.5937969
0.0632816 0.4714857 0.4677339
0.1570785 0.4802401 0.4767384
0.2598799 0.4902451 0.4867434
0.3856928 0.5002501 0.4992496
0.5120060 0.5145072 0.5125062
0.6375688 0.5307654 0.5260130
0.7593797 0.5550275 0.5420210
0.8706853 0.5917959 0.5655327
0.9712356 0.6398199 0.5977989
0.0830415 0.5877939 0.4799900
0.1748374 0.5935467 0.4884942
0.2713857 0.6000500 0.4959980
0.3934467 0.6083041 0.5085043
0.5165083 0.6158079 0.5205103
0.6383191 0.6280640 0.5337669
0.7566283 0.6448224 0.5492746
0.8691846 0.6715858 0.5737869
0.9692346 0.7088544 0.6070535
0.1073036 0.7048524 0.4957479
0.1993497 0.7083542 0.5037519
0.2906453 0.7123562 0.5122561
0.4042021 0.7163582 0.5217609
0.5222611 0.7206103 0.5335168
0.6405703 0.7276138 0.5457729
0.7548774 0.7393697 0.5622811
0.8659329 0.7558779 0.5857929
0.9677339 0.7833917 0.6218109
0.1403202 0.8149074 0.5217609
0.2331166 0.8161581 0.5295147
0.3176588 0.8181591 0.5370185
0.4232116 0.8201601 0.5452726
0.5335168 0.8229114 0.5565283
0.6445723 0.8264132 0.5690345
0.7561281 0.8321661 0.5850425
0.8636819 0.8436719 0.6088044
0.9677339 0.8654327 0.6480740
0.1860930 0.8991996 0.5545273
0.2706353 0.9004502 0.5610305
0.3476738 0.9009505 0.5700350
0.4472236 0.9032016 0.5770385
0.5497749 0.9037018 0.5872936
0.6545773 0.9052026 0.5992997
0.7613807 0.9097049 0.6170585
0.8664332 0.9162081 0.6393197
0.9672336 0.9354677 0.6788394
0.1015508 0.2471236 0.6135568
0.1093047 0.2131066 0.5465233
0.2396198 0.2348674 0.5962982
0.3811906 0.2593797 0.6258129
0.5112556 0.2716358 0.6260630
0.6483242 0.3106553 0.6543272
0.7838919 0.3449225 0.6735868
0.8854427 0.3971986 0.6765883
0.9787394 0.4692346 0.6973487
0.0672836 0.2426213 0.5872936
0.1570785 0.2591296 0.5995498
0.2591296 0.2666333 0.6053026
0.3941971 0.2856428 0.6203101
0.5182591 0.3051526 0.6340671
0.6455728 0.3324162 0.6473237
0.7658830 0.3694347 0.6608304
0.8776888 0.4244622 0.6733367
0.9799900 0.5002501 0.6973487
0.0555278 0.3111556 0.5862932
0.1613307 0.3251626 0.5972986
0.2693847 0.3371686 0.6088044
0.3929465 0.3534267 0.6213107
0.5195097 0.3714357 0.6340671
0.6450725 0.3951976 0.6455728
0.7636318 0.4289645 0.6575788
0.8744372 0.4772386 0.6710855
0.9812406 0.5470235 0.6953477
0.0642821 0.4057029 0.5930465
0.1703352 0.4162081 0.6033016
0.2746373 0.4274637 0.6120560
0.3974487 0.4404702 0.6245623
0.5197599 0.4569785 0.6358179
0.6438219 0.4764882 0.6448224
0.7623812 0.5045022 0.6553277
0.8721861 0.5442721 0.6708354
0.9764882 0.6035518 0.6953477
0.0700350 0.5030015 0.5957979
0.1820910 0.5135068 0.6050525
0.2811406 0.5212606 0.6130565
0.4024512 0.5312656 0.6225613
0.5235118 0.5427714 0.6330665
0.6430715 0.5590295 0.6435718
0.7608804 0.5807904 0.6545773
0.8709354 0.6133066 0.6700850
0.9732366 0.6605803 0.6958479
0.0830415 0.6113057 0.6010505
0.1975988 0.6183091 0.6098049
0.2928964 0.6220610 0.6155578
0.4092046 0.6288144 0.6238119
0.5277639 0.6373187 0.6350675
0.6445723 0.6480740 0.6458229
0.7588794 0.6635818 0.6578289
0.8699350 0.6870936 0.6738369
0.9722361 0.7241120 0.6995998
0.1110555 0.7178589 0.6090545
0.2228614 0.7213607 0.6163082
0.3121561 0.7243622 0.6235618
0.4204602 0.7281141 0.6315658
0.5332666 0.7323662 0.6415708
0.6468234 0.7393697 0.6515758
0.7581291 0.7501251 0.6633317
0.8664332 0.7661331 0.6793396
0.9709855 0.7951476 0.7086043
0.1450725 0.8221611 0.6235618
0.2566283 0.8239120 0.6310655
0.3379190 0.8249124 0.6380690
0.4394697 0.8271636 0.6458229
0.5450225 0.8304152 0.6540771
0.6515758 0.8339170 0.6635818
0.7601300 0.8399200 0.6768384
0.8661831 0.8504252 0.6943472
0.9734867 0.8751876 0.7281141
0.1910955 0.9074537 0.6473237
0.2938969 0.9097049 0.6553277
0.3686844 0.9109555 0.6618309
0.4644822 0.9124562 0.6680840
0.5635318 0.9134567 0.6768384
0.6643322 0.9152076 0.6860930
0.7673837 0.9187093 0.7006003
0.8711856 0.9249625 0.7191095
0.9752376 0.9464732 0.7523762
0.1580790 0.3516758 0.7291145
0.2076038 0.3916959 0.7601300
0.2788894 0.3289145 0.7308654
0.4142071 0.3291646 0.7313657
0.5407704 0.3476738 0.7571285
0.6640821 0.3709355 0.7778890
0.7706353 0.4034517 0.7801400
0.8801901 0.4522261 0.7868934
0.9807404 0.5197599 0.7991496
0.1150575 0.3236618 0.7203602
0.1968484 0.3336668 0.7243622
0.2991496 0.3454227 0.7376188
0.4182091 0.3611806 0.7498749
0.5357679 0.3759380 0.7596298
0.6555778 0.3974487 0.7661331
0.7678840 0.4297149 0.7743872
0.8761881 0.4782391 0.7826413
0.9814907 0.5490245 0.7968984
0.0745373 0.3796898 0.7171085
0.2018509 0.3941971 0.7283642
0.3024012 0.4034517 0.7378689
0.4169585 0.4174587 0.7483742
0.5360180 0.4324662 0.7563782
0.6538269 0.4529765 0.7643822
0.7671336 0.4827414 0.7721361
0.8741871 0.5262631 0.7801400
0.9824913 0.5915458 0.7971486
0.0752876 0.4602301 0.7173587
0.2078539 0.4732366 0.7291145
0.3056528 0.4812406 0.7376188
0.4214607 0.4917459 0.7453727
0.5367684 0.5055028 0.7528765
0.6520761 0.5230115 0.7601300
0.7653827 0.5472736 0.7678840
0.8729365 0.5840420 0.7778890
0.9787394 0.6395698 0.7951476
0.0795398 0.5472736 0.7191095
0.2183592 0.5572786 0.7298650
0.3134067 0.5642821 0.7361181
0.4267133 0.5720360 0.7428715
0.5395198 0.5812907 0.7486243
0.6518259 0.5972986 0.7568784
0.7641321 0.6160581 0.7648824
0.8721861 0.6443222 0.7746373
0.9767384 0.6903452 0.7941471
0.0902952 0.6423212 0.7206103
0.2346173 0.6493247 0.7288644
0.3249125 0.6530765 0.7343672
0.4344672 0.6578289 0.7408704
0.5450225 0.6653327 0.7473737
0.6540771 0.6740870 0.7541271
0.7628815 0.6883442 0.7626313
0.8706853 0.7086043 0.7743872
0.9759880 0.7476238 0.7956478
0.1145573 0.7373687 0.7211106
0.2551275 0.7408704 0.7286143
0.3406703 0.7436218 0.7338669
0.4447224 0.7471235 0.7403702
0.5500250 0.7508754 0.7463732
0.6573287 0.7563782 0.7546273
0.7633817 0.7666333 0.7638819
0.8689345 0.7818909 0.7773887
0.9764882 0.8139070 0.8019009
0.1503252 0.8321661 0.7268634
0.2881441 0.8344172 0.7351176
0.3661831 0.8354177 0.7396198
0.4632316 0.8381691 0.7463732
0.5622811 0.8404202 0.7533767
0.6633317 0.8439220 0.7618809
0.7661331 0.8499250 0.7708855
0.8699350 0.8611806 0.7851426
0.9779890 0.8884442 0.8136568
0.2031015 0.9209605 0.7431216
0.3269134 0.9219610 0.7511256
0.3999500 0.9237118 0.7566283
0.4919960 0.9267133 0.7623812
0.5847924 0.9274637 0.7698849
0.6800901 0.9292146 0.7778890
0.7781391 0.9322161 0.7891446
0.8779390 0.9382191 0.8029014
0.9809905 0.9587294 0.8319160
0.2356178 0.4867434 0.8509254
0.2483742 0.4782391 0.8509254
0.3066533 0.4727364 0.8554277
0.4294647 0.4827414 0.8729365
0.5505252 0.4557279 0.8744372
0.6685843 0.4682341 0.8824412
0.7763882 0.4857429 0.8806903
0.8794397 0.5270135 0.8874437
0.9824913 0.5860430 0.8986993
0.1845923 0.4339670 0.8441721
0.2551275 0.4392196 0.8494247
0.3466733 0.4469735 0.8579290
0.4502251 0.4569785 0.8656828
0.5597799 0.4689845 0.8714357
0.6680840 0.4859930 0.8751876
0.7748874 0.5110055 0.8791896
0.8771886 0.5500250 0.8846924
0.9812406 0.6110556 0.8959480
0.1288144 0.4694847 0.8371686
0.2583792 0.4822411 0.8476738
0.3471736 0.4899950 0.8539270
0.4529765 0.4994997 0.8594297
0.5592796 0.5125062 0.8651826
0.6668334 0.5292646 0.8694347
0.7728865 0.5530265 0.8764382
0.8761881 0.5875438 0.8819410
0.9802401 0.6438219 0.8936968
0.0940470 0.5345173 0.8341671
0.2651326 0.5475237 0.8456728
0.3521761 0.5537769 0.8509254
0.4567284 0.5615308 0.8559279
0.5612807 0.5725363 0.8611806
0.6668334 0.5860430 0.8669335
0.7716358 0.6063032 0.8726863
0.8754377 0.6358179 0.8784392
0.9784892 0.6838419 0.8916959
0.0950475 0.6060531 0.8329164
0.2743872 0.6170585 0.8439220
0.3594297 0.6213107 0.8474237
0.4622311 0.6278139 0.8516758
0.5652826 0.6350675 0.8576788
0.6670836 0.6463231 0.8634317
0.7713857 0.6620811 0.8689345
0.8744372 0.6853427 0.8756878
0.9752376 0.7268634 0.8906953
0.1045523 0.6820911 0.8304152
0.2866433 0.6888444 0.8386694
0.3691846 0.6923462 0.8436719
0.4679840 0.6965983 0.8489245
0.5687844 0.7026013 0.8544272
0.6703352 0.7103552 0.8594297
0.7711356 0.7228614 0.8664332
0.8739370 0.7413707 0.8734367
0.9764882 0.7783892 0.8914457
0.1250625 0.7651325 0.8281641
0.3064032 0.7691346 0.8371686
0.3841921 0.7716358 0.8424212
0.4794897 0.7741371 0.8471736
0.5755377 0.7783892 0.8531766
0.6743371 0.7841421 0.8584292
0.7736368 0.7923962 0.8641821
0.8741871 0.8066533 0.8726863
0.9774888 0.8379189 0.8934467
0.1583292 0.8511756 0.8294147
0.3351676 0.8539270 0.8389195
0.4087043 0.8556778 0.8434217
0.4984992 0.8574287 0.8484242
0.5892947 0.8594297 0.8536769
0.6825913 0.8626813 0.8601801
0.7793897 0.8681841 0.8674337
0.8779390 0.8784392 0.8779390
0.9817409 0.9059530 0.9017009
0.2176088 0.9384692 0.8414207
0.3756878 0.9404702 0.8509254
0.4444722 0.9417208 0.8551776
0.5297649 0.9429715 0.8606803
0.6158079 0.9444723 0.8659329
0.7031016 0.9457229 0.8731866
0.7943972 0.9499750 0.8816909
0.8886943 0.9562281 0.8914457
0.9867434 0.9739870 0.9129565
0.3536768 0.6510755 0.9854928
0.3266633 0.6235618 0.9822411
0.3896948 0.6278139 0.9817409
0.4879940 0.6200600 0.9869935
0.6020510 0.6380690 0.9922462
0.7063532 0.6430715 0.9952476
0.8066533 0.6523262 0.9982491
0.9034517 0.6720861 1.0000000
0.9842421 0.6815908 0.9982491
0.3126563 0.6155578 0.9799900
0.3501751 0.6195598 0.9817409
0.4314657 0.6225613 0.9847423
0.5257629 0.6205603 0.9857429
0.6270635 0.6393197 0.9922462
0.7156078 0.6405703 0.9922462
0.8089045 0.6585793 0.9952476
0.9014508 0.6840920 0.9982491
0.9844922 0.7001001 0.9962481
0.2901451 0.6248124 0.9747373
0.3821911 0.6353177 0.9784892
0.4559780 0.6408204 0.9819910
0.5410205 0.6438219 0.9829915
0.6298149 0.6568284 0.9884942
0.7173587 0.6678339 0.9902451
0.8076538 0.6833417 0.9927464
0.9002001 0.7071036 0.9959980
0.9832416 0.7226113 0.9947474
0.2123562 0.6665833 0.9664832
0.3889445 0.6773387 0.9747373
0.4617309 0.6825913 0.9784892
0.5455227 0.6865933 0.9809905
0.6290646 0.6908454 0.9829915
0.7198600 0.7071036 0.9887444
0.8086543 0.7201101 0.9917459
0.9002001 0.7406203 0.9944972
0.9812406 0.7521260 0.9932466
0.1603302 0.7151076 0.9609805
0.4002001 0.7253627 0.9717359
0.4727364 0.7306153 0.9762381
0.5547774 0.7343672 0.9792396
0.6358179 0.7373687 0.9814907
0.7226113 0.7476238 0.9874938
0.8121561 0.7623812 0.9922462
0.9024512 0.7783892 0.9942471
0.9807404 0.7863932 0.9914957
0.1590795 0.7726363 0.9599800
0.4164582 0.7816408 0.9714857
0.4852426 0.7838919 0.9749875
0.5675338 0.7883942 0.9792396
0.6465733 0.7913957 0.9832416
0.7286143 0.7971486 0.9869935
0.8171586 0.8106554 0.9917459
0.9049525 0.8219110 0.9944972
0.9827414 0.8276638 0.9922462
0.1768384 0.8376688 0.9587294
0.4357179 0.8429214 0.9709855
0.5012506 0.8444222 0.9744872
0.5800400 0.8474237 0.9787394
0.6573287 0.8506753 0.9822411
0.7371185 0.8551776 0.9852426
0.8216608 0.8621811 0.9894947
0.9069535 0.8719360 0.9942471
0.9842421 0.8739370 0.9912456
0.2073537 0.9082041 0.9584792
0.4599800 0.9109555 0.9704853
0.5227614 0.9114558 0.9734867
0.5965483 0.9132066 0.9764882
0.6690845 0.9144572 0.9797398
0.7453727 0.9172086 0.9829915
0.8264132 0.9209605 0.9867434
0.9102051 0.9267133 0.9907454
0.9859930 0.9324662 0.9912456
0.2381191 0.9687344 0.9452226
0.4499750 0.9682341 0.9557279
0.5140070 0.9694847 0.9597299
0.5882941 0.9692346 0.9619810
0.6623312 0.9689845 0.9649825
0.7381191 0.9704853 0.9687344
0.8194097 0.9719860 0.9729865
0.9042021 0.9747373 0.9784892
0.9894947 0.9847423 0.9864932
