Programming/LUT/Fuji_Classic Chrome.cube
TITLE "Classic Chrome"
LUT_3D_SIZE 5
0.0020010 0.0025013 0.0015008
0.1798399 0.0207604 0.0230115
0.4754877 0.0767884 0.0620310
0.7538769 0.1725863 0.1230615
0.9147074 0.3024012 0.1930965
0.0152576 0.1240620 0.0105053
0.1790895 0.1613307 0.0310155
0.4762381 0.2151076 0.0647824
0.7531266 0.2976488 0.1205603
0.9512256 0.4207104 0.2373687
0.0437719 0.3961981 0.0440220
0.2103552 0.4149575 0.0665333
0.4859930 0.4507254 0.1035518
0.7531266 0.4972486 0.1593297
0.9497249 0.5787894 0.2668834
0.0712856 0.6708354 0.1175588
0.2466233 0.6808404 0.1373187
0.4972486 0.6938469 0.1740870
0.7486243 0.7146073 0.2341171
0.9154577 0.7438719 0.3091546
0.1143072 0.8259130 0.2581291
0.2606303 0.7813907 0.1993497
0.5527764 0.8014007 0.2596298
0.7483742 0.8119060 0.3139070
0.9509755 0.8776888 0.4422211
0.0120060 0.0332666 0.1485743
0.1740870 0.0825413 0.1875938
0.4917459 0.1368184 0.2343672
0.7618809 0.2136068 0.2821411
0.9614807 0.3614307 0.3609305
0.0322661 0.1765883 0.1753377
0.2046023 0.2071036 0.2041021
0.4897449 0.2541271 0.2451226
0.7586293 0.3296648 0.2936468
0.9682341 0.4624812 0.3804402
0.0580290 0.4244622 0.2136068
0.2266133 0.4419710 0.2333667
0.4942471 0.4714857 0.2661331
0.7551275 0.5192596 0.3151576
0.9637319 0.6065533 0.4012006
0.0947974 0.6870936 0.2681341
0.2591296 0.6943472 0.2846423
0.5052526 0.7048524 0.3154077
0.7506253 0.7248625 0.3609305
0.9592296 0.7661331 0.4427214
0.1660830 0.8724362 0.3849425
0.3156578 0.8801901 0.4137068
0.5235118 0.8589295 0.3946973
0.7493747 0.8664332 0.4357179
0.9602301 0.8886943 0.5145072
0.0482741 0.1435718 0.4369685
0.2363682 0.1838419 0.5020010
0.4584792 0.1990996 0.4919960
0.7861431 0.3091546 0.5815408
0.9727364 0.4294647 0.5900450
0.0467734 0.2571286 0.4524762
0.2428714 0.2848924 0.4767384
0.5072536 0.3241621 0.5040020
0.7613807 0.3889445 0.5390195
0.9769885 0.5125062 0.5920460
0.0632816 0.4714857 0.4677339
0.2598799 0.4902451 0.4867434
0.5120060 0.5145072 0.5125062
0.7593797 0.5550275 0.5420210
0.9712356 0.6398199 0.5977989
0.1073036 0.7048524 0.4957479
0.2906453 0.7123562 0.5122561
0.5222611 0.7206103 0.5335168
0.7548774 0.7393697 0.5622811
0.9677339 0.7833917 0.6218109
0.1860930 0.8991996 0.5545273
0.3476738 0.9009505 0.5700350
0.5497749 0.9037018 0.5872936
0.7613807 0.9097049 0.6170585
0.9672336 0.9354677 0.6788394
0.1580790 0.3516758 0.7291145
0.2788894 0.3289145 0.7308654
0.5407704 0.3476738 0.7571285
0.7706353 0.4034517 0.7801400
0.9807404 0.5197599 0.7991496
0.0745373 0.3796898 0.7171085
0.3024012 0.4034517 0.7378689
0.5360180 0.4324662 0.7563782
0.7671336 0.4827414 0.7721361
0.9824913 0.5915458 0.7971486
0.0795398 0.5472736 0.7191095
0.3134067 0.5642821 0.7361181
0.5395198 0.5812907 0.7486243
0.7641321 0.6160581 0.7648824
0.9767384 0.6903452 0.7941471
0.1145573 0.7373687 0.7211106
0.3406703 0.7436218 0.7338669
0.5500250 0.7508754 0.7463732
0.7633817 0.7666333 0.7638819
0.9764882 0.8139070 0.8019009
0.2031015 0.9209605 0.7431216
0.3999500 0.9237118 0.7566283
0.5847924 0.9274637 0.7698849
0.7781391 0.9322161 0.7891446
0.9809905 0.9587294 0.8319160
0.3536768 0.6510755 0.9854928
0.3896948 0.6278139 0.9817409
0.6020510 0.6380690 0.9922462
0.8066533 0.6523262 0.9982491
0.9842421 0.6815908 0.9982491
0.2901451 0.6248124 0.9747373
0.4559780 0.6408204 0.9819910
0.6298149 0.6568284 0.9884942
0.8076538 0.6833417 0.9927464
0.9832416 0.7226113 0.9947474
0.1603302 0.7151076 0.9609805
0.4727364 0.7306153 0.9762381
0.6358179 0.7373687 0.9814907
0.8121561 0.7623812 0.9922462
0.9807404 0.7863932 0.9914957
0.1768384 0.8376688 0.9587294
0.5012506 0.8444222 0.9744872
0.6573287 0.8506753 0.9822411
0.8216608 0.8621811 0.9894947
0.9842421 0.8739370 0.9912456
0.2381191 0.9687344 0.9452226
0.5140070 0.9694847 0.9597299
0.6623312 0.9689845 0.9649825
0.8194097 0.9719860 0.9729865
0.9894947 0.9847423 0.9864932
