Programming/LUT/Fuji_Astia.cube
TITLE "Astia"
LUT_3D_SIZE 5
0.0026862 0.0021978 0.0021978
0.2444444 0.0046398 0.0012210
0.5284494 0.0175824 0.0024420
0.7890110 0.0705739 0.0590965
0.9450549 0.1821734 0.1663004
0.0058608 0.1838828 0.0000000
0.2063492 0.2012210 0.0000000
0.5091575 0.2200244 0.0000000
0.7680098 0.2603175 0.0158730
0.9733822 0.3304029 0.1785104
0.0219780 0.4940171 0.0000000
0.2185592 0.4908425 0.0000000
0.4935287 0.4962149 0.0000000
0.7394384 0.5020757 0.0102564
0.9474970 0.5328450 0.1553114
0.0735043 0.7526252 0.0034188
0.2654457 0.7435898 0.0029304
0.4979243 0.7338217 0.0056166
0.7179487 0.7264957 0.0468864
0.8881563 0.7267399 0.1570208
0.1560440 0.8864469 0.1504274
0.2947497 0.8329670 0.0398046
0.5526252 0.8288156 0.0808303
0.7150183 0.8214896 0.1418803
0.9208791 0.8673993 0.2937729
0.0053724 0.0090354 0.2551893
0.1985348 0.0454212 0.2576313
0.5291820 0.0647131 0.2622711
0.7892552 0.1045177 0.2979243
0.9892552 0.2180708 0.3789988
0.0107448 0.2124542 0.2212454
0.2190476 0.2214896 0.2188034
0.5130647 0.2361416 0.2229548
0.7663004 0.2754579 0.2559219
0.9843712 0.3616606 0.3545788
0.0332112 0.4949939 0.1880342
0.2290598 0.4930403 0.1753358
0.4962149 0.4942613 0.1743590
0.7374848 0.5059829 0.2129426
0.9592186 0.5470086 0.3223443
0.0984127 0.7462760 0.1965812
0.2744811 0.7367522 0.1829060
0.5025641 0.7269841 0.1858364
0.7164835 0.7233211 0.2239316
0.9367521 0.7304029 0.3238095
0.2205128 0.9201465 0.3115995
0.3645910 0.9174603 0.3162393
0.5333334 0.8815629 0.2639805
0.7152625 0.8737485 0.2927961
0.9289377 0.8725275 0.3743590
0.0119658 0.0996337 0.6192918
0.2417582 0.1194139 0.6627595
0.4837607 0.1133089 0.6129426
0.7987790 0.1873016 0.6615385
0.9929182 0.2759463 0.6376069
0.0166056 0.2620269 0.6126984
0.2432234 0.2678877 0.5929182
0.5181929 0.2805861 0.5692308
0.7609280 0.3135531 0.5672772
0.9826618 0.3965812 0.5960928
0.0354090 0.5089133 0.5523810
0.2532357 0.5067155 0.5250306
0.5047619 0.5067155 0.5069597
0.7352870 0.5179487 0.5054945
0.9648352 0.5631258 0.5484738
0.1057387 0.7372406 0.5145299
0.2991453 0.7279609 0.4891331
0.5133089 0.7191697 0.4737485
0.7184371 0.7177045 0.4769231
0.9450549 0.7326007 0.5264958
0.2417582 0.9352869 0.5211233
0.3934066 0.9274725 0.5047619
0.5560440 0.9191697 0.4925519
0.7240537 0.9125763 0.4971917
0.9311355 0.9189255 0.5411478
0.0910867 0.2969475 0.9423687
0.2610501 0.2590965 0.9296703
0.5448108 0.2500611 0.9120879
0.7726496 0.2793651 0.8930403
0.9877900 0.3645910 0.8573871
0.0373626 0.3567766 0.9394383
0.2869353 0.3587302 0.9042735
0.5308914 0.3663004 0.8717949
0.7538462 0.3924298 0.8380952
0.9802198 0.4669109 0.8178266
0.0505495 0.5514042 0.8761905
0.2967033 0.5462760 0.8329670
0.5238096 0.5440782 0.7985348
0.7340659 0.5570208 0.7750916
0.9650794 0.6000000 0.7704518
0.1064713 0.7457876 0.8095238
0.3404151 0.7328449 0.7660562
0.5343102 0.7260073 0.7404152
0.7233211 0.7260073 0.7250305
0.9526252 0.7472528 0.7343102
0.2515263 0.9431013 0.7543346
0.4339438 0.9357753 0.7252747
0.5811966 0.9296703 0.7076923
0.7355312 0.9230769 0.6998779
0.9411477 0.9316239 0.7211233
0.2813187 0.5770452 1.0000000
0.3382173 0.5509158 1.0000000
0.5684982 0.5416362 1.0000000
0.7772894 0.5328450 1.0000000
0.9809524 0.5333334 1.0000000
0.2249084 0.5604396 1.0000000
0.4166056 0.5633700 1.0000000
0.5960928 0.5660562 1.0000000
0.7738706 0.5763126 1.0000000
0.9728938 0.5926740 0.9985348
0.1199023 0.6796093 1.0000000
0.4356532 0.6693529 1.0000000
0.5980464 0.6647131 0.9992674
0.7699634 0.6744811 0.9953602
0.9619048 0.6769231 0.9936508
0.1516484 0.8073260 0.9997558
0.4747253 0.8009768 0.9958486
0.6185592 0.7982906 0.9924298
0.7743590 0.7997558 0.9877900
0.9538462 0.7934066 0.9841270
0.2676435 0.9672772 0.9931624
0.5221002 0.9589744 0.9841270
0.6385837 0.9526252 0.9753358
0.7748474 0.9479854 0.9614164
0.9560440 0.9521368 0.9555556
