Programming/LUT/Fuji_Classic Chrome.cube
TITLE "Classic Chrome"
LUT_3D_SIZE 17
0.0020010 0.0025013 0.0015008
0.0137569 0.0037519 0.0032516
0.0560280 0.0077539 0.0092546
0.1183092 0.0135068 0.0162581
0.1798399 0.0207604 0.0230115
0.2513757 0.0305153 0.0312656
0.3269134 0.0435218 0.0397699
0.4037018 0.0592796 0.0507754
0.4754877 0.0767884 0.0620310
0.5477739 0.0965483 0.0755378
0.6230615 0.1180590 0.0902952
0.6910955 0.1440720 0.1058029
0.7538769 0.1725863 0.1230615
0.8114057 0.2063532 0.1418209
0.8624312 0.2456228 0.1635818
0.9079540 0.2948974 0.1890945
0.9147074 0.3024012 0.1930965
0.0037519 0.0100050 0.0030015
0.0160080 0.0107554 0.0045023
0.0477739 0.0170085 0.0087544
0.1008004 0.0260130 0.0155078
0.1660830 0.0362681 0.0225113
0.2436218 0.0500250 0.0315158
0.3229114 0.0642821 0.0410205
0.4007004 0.0797899 0.0517759
0.4744872 0.0962982 0.0627814
0.5482742 0.1140570 0.0747874
0.6220610 0.1355678 0.0895448
0.6893446 0.1610805 0.1045523
0.7526263 0.1900951 0.1210605
0.8114057 0.2248624 0.1398199
0.8636819 0.2628814 0.1625813
0.9087043 0.3031516 0.1893447
0.9157078 0.3089044 0.1935968
0.0045023 0.0330165 0.0042521
0.0167584 0.0370185 0.0050025
0.0477739 0.0445223 0.0090045
0.0992996 0.0542771 0.0157579
0.1648324 0.0662831 0.0225113
0.2411206 0.0810405 0.0310155
0.3204102 0.0952976 0.0402701
0.3989495 0.1105553 0.0502751
0.4724863 0.1258129 0.0605303
0.5455227 0.1433217 0.0727864
0.6188094 0.1645823 0.0862931
0.6875938 0.1898449 0.1013006
0.7523762 0.2188594 0.1178089
0.8126563 0.2528764 0.1370685
0.8659329 0.2891446 0.1605803
0.9084542 0.3246623 0.1868434
0.9149575 0.3299150 0.1905953
0.0080040 0.0695348 0.0057529
0.0227614 0.0762881 0.0085043
0.0557779 0.0850425 0.0125063
0.1063031 0.0960480 0.0187594
0.1713357 0.1083042 0.0255128
0.2461231 0.1218109 0.0332666
0.3239120 0.1358179 0.0410205
0.4012006 0.1503252 0.0502751
0.4734868 0.1650825 0.0605303
0.5452726 0.1820910 0.0722861
0.6183091 0.2033517 0.0862931
0.6868434 0.2278639 0.1010505
0.7521260 0.2548774 0.1175588
0.8136568 0.2866433 0.1373187
0.8684342 0.3224112 0.1610805
0.9097049 0.3564282 0.1883442
0.9209605 0.3649325 0.1978489
0.0152576 0.1240620 0.0105053
0.0320160 0.1315658 0.0137569
0.0662831 0.1388194 0.0175088
0.1160580 0.1493247 0.0235118
0.1790895 0.1613307 0.0310155
0.2521261 0.1735868 0.0380190
0.3301651 0.1865933 0.0457729
0.4057029 0.2006003 0.0547774
0.4762381 0.2151076 0.0647824
0.5462731 0.2308654 0.0757879
0.6188094 0.2501251 0.0887944
0.6878439 0.2723862 0.1038019
0.7531266 0.2976488 0.1205603
0.8151576 0.3279140 0.1418209
0.8706853 0.3611806 0.1678339
0.9152076 0.3946973 0.2001000
0.9512256 0.4207104 0.2373687
0.0235118 0.1863432 0.0170085
0.0420210 0.1925963 0.0210105
0.0765383 0.1988494 0.0245123
0.1255628 0.2081041 0.0297649
0.1890945 0.2206103 0.0367684
0.2586293 0.2331166 0.0442721
0.3344172 0.2456228 0.0520260
0.4099550 0.2596298 0.0615308
0.4789895 0.2728865 0.0715358
0.5482742 0.2873937 0.0822911
0.6220610 0.3046523 0.0960480
0.6895948 0.3241621 0.1108054
0.7543772 0.3466733 0.1270635
0.8166583 0.3741871 0.1488244
0.8709354 0.4039520 0.1750875
0.9142071 0.4339670 0.2046023
0.9359680 0.4492246 0.2226113
0.0315158 0.2581291 0.0247624
0.0515258 0.2631316 0.0282641
0.0862931 0.2681341 0.0327664
0.1353177 0.2761381 0.0380190
0.1990996 0.2883942 0.0447724
0.2666333 0.2968985 0.0522761
0.3396698 0.3086543 0.0607804
0.4134567 0.3201601 0.0695348
0.4819910 0.3311656 0.0800400
0.5502751 0.3444222 0.0912956
0.6223112 0.3594297 0.1038019
0.6895948 0.3764382 0.1188094
0.7546273 0.3964482 0.1360680
0.8146573 0.4207104 0.1585793
0.8706853 0.4494748 0.1855928
0.9182091 0.4784892 0.2161081
0.9507254 0.4979990 0.2421211
0.0385193 0.3294147 0.0337669
0.0607804 0.3344172 0.0375188
0.0952976 0.3401701 0.0422711
0.1435718 0.3451726 0.0482741
0.2051025 0.3531766 0.0560280
0.2736368 0.3596798 0.0625313
0.3444222 0.3689345 0.0710355
0.4162081 0.3791896 0.0805403
0.4852426 0.3899450 0.0897949
0.5525262 0.4002001 0.1005503
0.6225613 0.4137068 0.1135568
0.6903452 0.4279640 0.1280640
0.7548774 0.4469735 0.1475738
0.8141571 0.4699850 0.1703352
0.8706853 0.4969985 0.1980990
0.9162081 0.5217609 0.2263632
0.9352176 0.5337669 0.2406203
0.0437719 0.3961981 0.0440220
0.0695348 0.3981991 0.0490245
0.1045523 0.4042021 0.0545273
0.1508254 0.4092046 0.0592796
0.2103552 0.4149575 0.0665333
0.2793897 0.4212106 0.0747874
0.3491746 0.4309655 0.0830415
0.4177088 0.4407203 0.0930465
0.4859930 0.4507254 0.1035518
0.5542771 0.4587294 0.1133067
0.6230615 0.4692346 0.1260630
0.6918459 0.4822411 0.1415708
0.7531266 0.4972486 0.1593297
0.8114057 0.5155078 0.1823412
0.8689345 0.5385193 0.2106053
0.9174587 0.5615308 0.2403702
0.9497249 0.5787894 0.2668834
0.0487744 0.4624812 0.0565283
0.0785393 0.4654827 0.0615308
0.1135568 0.4664832 0.0657829
0.1568284 0.4697349 0.0705353
0.2161081 0.4754877 0.0777889
0.2838919 0.4824913 0.0877939
0.3524262 0.4902451 0.0962982
0.4202101 0.4967484 0.1048024
0.4864933 0.5052526 0.1153077
0.5542771 0.5132566 0.1245623
0.6245623 0.5230115 0.1383192
0.6883442 0.5350175 0.1550775
0.7523762 0.5477739 0.1738369
0.8096548 0.5637819 0.1960980
0.8651826 0.5852926 0.2246123
0.9122061 0.6048024 0.2521261
0.9324662 0.6130565 0.2663832
0.0552776 0.5372686 0.0735368
0.0897949 0.5395198 0.0787894
0.1238119 0.5417709 0.0827914
0.1695848 0.5447724 0.0880440
0.2256128 0.5497749 0.0940470
0.2883942 0.5507754 0.1018009
0.3566783 0.5540270 0.1095548
0.4289645 0.5615308 0.1190595
0.4917459 0.5715358 0.1293147
0.5535268 0.5812907 0.1413207
0.6225613 0.5887944 0.1555778
0.6885943 0.5972986 0.1723362
0.7508754 0.6088044 0.1918459
0.8096548 0.6230615 0.2136068
0.8631816 0.6390696 0.2401201
0.9109555 0.6558279 0.2701351
0.9447224 0.6653327 0.2971486
0.0617809 0.6065533 0.0932966
0.1015508 0.6133066 0.0995498
0.1375688 0.6165583 0.1043022
0.1803402 0.6195598 0.1088044
0.2346173 0.6210606 0.1143072
0.2978989 0.6250625 0.1218109
0.3626813 0.6268134 0.1300650
0.4327164 0.6335668 0.1398199
0.4967484 0.6388194 0.1498249
0.5597799 0.6430715 0.1615808
0.6250625 0.6495748 0.1755878
0.6865933 0.6558279 0.1908454
0.7501251 0.6635818 0.2106053
0.8079039 0.6740870 0.2321161
0.8619310 0.6875938 0.2588795
0.9049525 0.6983492 0.2828915
0.9167084 0.7013507 0.2911456
0.0712856 0.6708354 0.1175588
0.1143072 0.6745873 0.1233117
0.1505753 0.6748374 0.1263131
0.1915958 0.6763382 0.1305653
0.2466233 0.6808404 0.1373187
0.3064032 0.6835918 0.1455728
0.3709355 0.6855928 0.1538269
0.4364682 0.6885943 0.1630815
0.4972486 0.6938469 0.1740870
0.5602801 0.6975988 0.1858429
0.6270635 0.7026013 0.2003502
0.6875938 0.7068534 0.2146073
0.7486243 0.7146073 0.2341171
0.8054027 0.7226113 0.2546273
0.8614307 0.7333667 0.2803902
0.9037018 0.7413707 0.3024012
0.9154577 0.7438719 0.3091546
0.0855428 0.7193597 0.1405703
0.1285643 0.7218609 0.1460730
0.1658329 0.7236118 0.1495748
0.2066033 0.7293647 0.1575788
0.2571286 0.7333667 0.1655828
0.3136568 0.7356178 0.1748374
0.3789395 0.7371185 0.1820910
0.4424712 0.7383692 0.1918459
0.5030015 0.7381191 0.1985993
0.5637819 0.7468734 0.2141071
0.6255628 0.7518759 0.2271136
0.6885943 0.7511256 0.2393697
0.7483742 0.7598799 0.2603802
0.8049024 0.7668834 0.2796398
0.8599300 0.7743872 0.3026513
0.9054527 0.7828915 0.3271636
0.9179590 0.7816408 0.3329165
0.0922961 0.7393697 0.1553277
0.1373187 0.7408704 0.1600800
0.1778389 0.7456228 0.1643322
0.2263632 0.7701350 0.1863432
0.2528764 0.7743872 0.1940970
0.3176588 0.7766383 0.2093547
0.3916959 0.7771386 0.2116058
0.4489745 0.7773887 0.2266133
0.5120060 0.7606303 0.2158579
0.5742871 0.7811406 0.2388694
0.6188094 0.7848924 0.2493747
0.6845923 0.7728865 0.2553777
0.7503752 0.7941471 0.2941471
0.8129064 0.8006503 0.3069035
0.8616809 0.8071536 0.3281641
0.9092046 0.8194097 0.3616808
0.9182091 0.8221611 0.3691846
0.1030515 0.7818909 0.2018509
0.1535768 0.7783892 0.2023512
0.2116058 0.7753877 0.1905953
0.2338669 0.7786393 0.1938469
0.2533767 0.7803902 0.1985993
0.3251626 0.7841421 0.2158579
0.3951976 0.7851426 0.2188594
0.4587294 0.7921461 0.2436218
0.5495248 0.7881441 0.2428714
0.5830415 0.7903952 0.2471236
0.6173087 0.7918959 0.2556278
0.6803402 0.7946473 0.2793897
0.7498749 0.8039020 0.3046523
0.8129064 0.8066533 0.3121561
0.8616809 0.8124062 0.3324162
0.9119560 0.8281641 0.3716858
0.9287143 0.8439220 0.3964482
0.1143072 0.8259130 0.2581291
0.1375688 0.8191596 0.2501251
0.2136068 0.7846423 0.2003502
0.2346173 0.7791396 0.1943472
0.2606303 0.7813907 0.1993497
0.3646823 0.7898949 0.2223612
0.4024512 0.7963982 0.2348674
0.4679840 0.8194097 0.2818910
0.5527764 0.8014007 0.2596298
0.5832916 0.7921461 0.2493747
0.6180590 0.7931466 0.2573787
0.6860930 0.8049024 0.2926463
0.7483742 0.8119060 0.3139070
0.8054027 0.8124062 0.3174087
0.8604302 0.8139070 0.3341671
0.9159580 0.8379189 0.3854427
0.9509755 0.8776888 0.4422211
0.0025013 0.0045023 0.0092546
0.0130065 0.0062531 0.0110055
0.0530265 0.0110055 0.0177589
0.1173087 0.0185093 0.0282641
0.1795898 0.0255128 0.0365183
0.2578789 0.0362681 0.0472736
0.3321661 0.0512756 0.0567784
0.4082041 0.0675338 0.0680340
0.4797399 0.0835418 0.0787894
0.5527764 0.1015508 0.0907954
0.6275638 0.1230615 0.1058029
0.6933467 0.1473237 0.1215608
0.7568784 0.1765883 0.1403202
0.8146573 0.2098549 0.1610805
0.8666834 0.2478739 0.1848424
0.9079540 0.2863932 0.2088544
0.9144572 0.2931466 0.2133567
0.0042521 0.0125063 0.0127564
0.0155078 0.0147574 0.0135068
0.0482741 0.0225113 0.0195098
0.1020510 0.0337669 0.0297649
0.1695848 0.0427714 0.0367684
0.2488744 0.0550275 0.0475238
0.3276638 0.0695348 0.0585293
0.4044522 0.0845423 0.0697849
0.4782391 0.0997999 0.0805403
0.5510255 0.1175588 0.0927964
0.6243122 0.1390695 0.1075538
0.6918459 0.1643322 0.1235618
0.7548774 0.1943472 0.1418209
0.8144072 0.2296148 0.1625813
0.8676838 0.2678840 0.1860930
0.9112056 0.3051526 0.2113557
0.9209605 0.3146573 0.2188594
0.0067534 0.0392696 0.0177589
0.0192596 0.0427714 0.0192596
0.0525263 0.0502751 0.0252626
0.1040520 0.0597799 0.0342671
0.1700850 0.0725363 0.0430215
0.2466233 0.0865433 0.0535268
0.3259130 0.1010505 0.0642821
0.4039520 0.1160580 0.0750375
0.4779890 0.1313157 0.0857929
0.5495248 0.1485743 0.0977989
0.6223112 0.1695848 0.1113057
0.6905953 0.1940970 0.1270635
0.7546273 0.2231116 0.1443222
0.8149074 0.2566283 0.1645823
0.8696848 0.2943972 0.1880940
0.9119560 0.3289145 0.2128564
0.9214607 0.3379190 0.2206103
0.0110055 0.0800400 0.0235118
0.0267634 0.0857929 0.0272636
0.0620310 0.0930465 0.0332666
0.1113057 0.1035518 0.0412706
0.1763382 0.1158079 0.0502751
0.2506253 0.1285643 0.0600300
0.3289145 0.1425713 0.0700350
0.4062031 0.1573287 0.0802901
0.4782391 0.1720860 0.0907954
0.5492746 0.1888444 0.1025513
0.6218109 0.2098549 0.1160580
0.6898449 0.2333667 0.1310655
0.7543772 0.2606303 0.1480740
0.8154077 0.2923962 0.1680840
0.8714357 0.3284142 0.1923462
0.9137068 0.3614307 0.2178589
0.9274637 0.3729365 0.2281141
0.0190095 0.1350675 0.0322661
0.0365183 0.1410705 0.0367684
0.0717859 0.1478239 0.0422711
0.1213107 0.1573287 0.0497749
0.1838419 0.1698349 0.0582791
0.2568784 0.1820910 0.0672836
0.3344172 0.1948474 0.0765383
0.4097049 0.2086043 0.0860430
0.4804902 0.2231116 0.0965483
0.5497749 0.2388694 0.1078039
0.6220610 0.2573787 0.1210605
0.6900951 0.2788894 0.1355678
0.7546273 0.3036518 0.1523262
0.8154077 0.3329165 0.1725863
0.8719360 0.3659330 0.1980990
0.9192096 0.3999500 0.2278639
0.9574788 0.4274637 0.2561281
0.0282641 0.1995998 0.0417709
0.0455228 0.2028514 0.0462731
0.0802901 0.2093547 0.0510255
0.1305653 0.2183592 0.0577789
0.1933467 0.2288644 0.0652826
0.2631316 0.2408704 0.0735368
0.3381691 0.2536268 0.0825413
0.4127063 0.2661331 0.0922961
0.4817409 0.2788894 0.1023012
0.5505252 0.2928964 0.1133067
0.6225613 0.3094047 0.1263131
0.6905953 0.3291646 0.1408204
0.7551275 0.3516758 0.1575788
0.8161581 0.3784392 0.1785893
0.8719360 0.4089545 0.2051025
0.9209605 0.4419710 0.2361181
0.9612306 0.4729865 0.2676338
0.0370185 0.2683842 0.0517759
0.0542771 0.2701351 0.0557779
0.0892946 0.2766383 0.0602801
0.1388194 0.2843922 0.0660330
0.2006003 0.2933967 0.0727864
0.2706353 0.3029014 0.0810405
0.3424212 0.3151576 0.0902952
0.4139570 0.3264132 0.0995498
0.4842421 0.3366683 0.1093047
0.5522761 0.3491746 0.1200600
0.6225613 0.3636819 0.1325663
0.6908454 0.3809405 0.1473237
0.7548774 0.4012006 0.1645823
0.8149074 0.4252126 0.1863432
0.8714357 0.4534767 0.2136068
0.9202101 0.4834917 0.2436218
0.9577289 0.5095047 0.2721361
0.0450225 0.3361681 0.0615308
0.0632816 0.3379190 0.0650325
0.0977989 0.3436718 0.0695348
0.1460730 0.3499250 0.0752876
0.2071036 0.3569285 0.0822911
0.2761381 0.3654327 0.0897949
0.3466733 0.3749375 0.0987994
0.4172086 0.3849425 0.1080540
0.4859930 0.3941971 0.1175588
0.5537769 0.4049525 0.1278139
0.6230615 0.4182091 0.1405703
0.6920961 0.4337169 0.1555778
0.7556278 0.4519760 0.1740870
0.8141571 0.4734868 0.1960980
0.8706853 0.4992496 0.2231116
0.9194597 0.5260130 0.2513757
0.9532266 0.5497749 0.2741371
0.0510255 0.4002001 0.0715358
0.0715358 0.4012006 0.0750375
0.1055528 0.4054527 0.0792896
0.1530765 0.4109555 0.0847924
0.2128564 0.4179590 0.0917959
0.2803902 0.4252126 0.0995498
0.3504252 0.4334667 0.1078039
0.4202101 0.4424712 0.1173087
0.4859930 0.4514757 0.1268134
0.5542771 0.4607304 0.1370685
0.6245623 0.4722361 0.1495748
0.6920961 0.4852426 0.1650825
0.7543772 0.5005003 0.1830916
0.8126563 0.5197599 0.2056028
0.8691846 0.5420210 0.2328664
0.9189595 0.5667834 0.2616308
0.9554777 0.5887944 0.2871436
0.0565283 0.4667334 0.0827914
0.0807904 0.4674837 0.0867934
0.1150575 0.4707354 0.0905453
0.1613307 0.4759880 0.0962982
0.2191096 0.4819910 0.1033017
0.2848924 0.4879940 0.1110555
0.3549275 0.4944972 0.1190595
0.4242121 0.5007504 0.1275638
0.4884942 0.5087544 0.1370685
0.5542771 0.5180090 0.1473237
0.6250625 0.5280140 0.1610805
0.6918459 0.5385193 0.1773387
0.7533767 0.5512756 0.1955978
0.8114057 0.5682842 0.2181091
0.8669335 0.5890445 0.2453727
0.9172086 0.6093047 0.2733867
0.9524763 0.6243122 0.2953977
0.0625313 0.5382692 0.0975488
0.0917959 0.5395198 0.1018009
0.1260630 0.5422711 0.1058029
0.1718359 0.5472736 0.1115558
0.2278639 0.5520260 0.1180590
0.2906453 0.5565283 0.1253127
0.3579290 0.5607804 0.1325663
0.4277139 0.5662832 0.1413207
0.4912456 0.5725363 0.1508254
0.5557779 0.5812907 0.1628314
0.6238119 0.5907954 0.1773387
0.6910955 0.5990495 0.1940970
0.7531266 0.6100550 0.2126063
0.8109055 0.6238119 0.2343672
0.8651826 0.6395698 0.2598799
0.9152076 0.6570786 0.2881441
0.9502251 0.6678339 0.3096548
0.0667834 0.6085543 0.1150575
0.1035518 0.6120560 0.1205603
0.1385693 0.6150575 0.1250625
0.1820910 0.6188094 0.1298149
0.2361181 0.6218109 0.1358179
0.2986493 0.6258129 0.1435718
0.3644322 0.6290646 0.1513257
0.4329665 0.6343172 0.1605803
0.4964983 0.6383191 0.1705853
0.5602801 0.6428214 0.1818409
0.6250625 0.6493247 0.1958479
0.6883442 0.6568284 0.2123562
0.7511256 0.6648324 0.2306153
0.8086543 0.6755878 0.2513757
0.8634317 0.6880940 0.2766383
0.9079540 0.6998499 0.3004002
0.9244623 0.7048524 0.3106553
0.0737869 0.6738369 0.1380690
0.1168084 0.6763382 0.1435718
0.1523262 0.6783392 0.1475738
0.1945973 0.6805903 0.1520760
0.2481241 0.6830915 0.1585793
0.3084042 0.6860930 0.1665833
0.3724362 0.6885943 0.1753377
0.4374687 0.6920961 0.1845923
0.5000000 0.6953477 0.1948474
0.5627814 0.6990995 0.2056028
0.6270635 0.7031016 0.2191096
0.6890945 0.7091045 0.2343672
0.7488744 0.7163582 0.2521261
0.8066533 0.7241120 0.2723862
0.8621811 0.7338669 0.2966483
0.9097049 0.7438719 0.3214107
0.9402201 0.7511256 0.3399200
0.0857929 0.7301151 0.1648324
0.1325663 0.7316158 0.1700850
0.1668334 0.7328664 0.1735868
0.2096048 0.7361181 0.1798399
0.2596298 0.7381191 0.1865933
0.3171586 0.7401201 0.1943472
0.3799400 0.7423712 0.2028514
0.4432216 0.7436218 0.2118559
0.5032516 0.7451226 0.2208604
0.5640320 0.7508754 0.2333667
0.6275638 0.7543772 0.2461231
0.6895948 0.7568784 0.2598799
0.7496248 0.7633817 0.2778890
0.8051526 0.7703852 0.2971486
0.8604302 0.7771386 0.3186593
0.9102051 0.7841421 0.3429215
0.9414707 0.7788894 0.3556778
0.0997999 0.7708855 0.1928464
0.1488244 0.7688844 0.1960980
0.1783392 0.7696348 0.1945973
0.2233617 0.7756378 0.2048524
0.2628814 0.7781391 0.2108554
0.3211606 0.7796398 0.2206103
0.3914457 0.7818909 0.2293647
0.4484742 0.7833917 0.2391196
0.5050025 0.7806403 0.2431216
0.5655327 0.7863932 0.2558779
0.6225613 0.7883942 0.2658829
0.6828414 0.7901451 0.2806403
0.7488744 0.7993997 0.3046523
0.8059030 0.8059030 0.3226613
0.8576788 0.8104052 0.3404202
0.9104552 0.8216608 0.3694347
0.9279640 0.8274137 0.3834417
0.1060530 0.7926463 0.2148574
0.1483242 0.7883942 0.2151076
0.1843422 0.7808905 0.2036018
0.2266133 0.7826413 0.2111056
0.2666333 0.7886443 0.2213607
0.3324162 0.7941471 0.2356178
0.3954477 0.7968984 0.2441221
0.4522261 0.7981490 0.2543772
0.5082541 0.7941471 0.2561281
0.5665333 0.7933967 0.2618809
0.6223112 0.7946473 0.2708854
0.6853427 0.8031515 0.2936468
0.7463732 0.8134067 0.3171586
0.7963982 0.8179089 0.3311656
0.8564282 0.8176588 0.3459229
0.9157078 0.8391696 0.3881941
0.9497249 0.8751876 0.4399700
0.1145573 0.8276638 0.2603802
0.1318159 0.8214107 0.2541271
0.1843422 0.7896448 0.2146073
0.2286143 0.7863932 0.2166083
0.2733867 0.7936468 0.2286143
0.3659330 0.8201601 0.2726363
0.4002001 0.8249124 0.2826413
0.4567284 0.8276638 0.2943972
0.4927464 0.8209105 0.2891446
0.5637819 0.8009005 0.2716358
0.6260630 0.8016508 0.2803902
0.7096048 0.8306653 0.3309155
0.7423712 0.8394197 0.3469235
0.7706353 0.8379189 0.3499250
0.8566784 0.8259130 0.3559280
0.9204602 0.8579290 0.4142071
0.9577289 0.8916959 0.4619810
0.0042521 0.0107554 0.0400200
0.0187594 0.0147574 0.0420210
0.0547774 0.0220110 0.0442721
0.1218109 0.0297649 0.0620310
0.1683342 0.0315158 0.0725363
0.2671336 0.0445223 0.0872936
0.3341671 0.0595298 0.0992996
0.4104552 0.0760380 0.1100550
0.4822411 0.0920460 0.1183092
0.5567784 0.1123062 0.1275638
0.6313156 0.1343172 0.1405703
0.6973487 0.1578289 0.1555778
0.7601300 0.1865933 0.1730865
0.8184092 0.2201101 0.1938469
0.8729365 0.2603802 0.2188594
0.9134567 0.2953977 0.2451226
0.9257129 0.3081541 0.2556278
0.0062531 0.0222611 0.0380190
0.0202601 0.0260130 0.0402701
0.0550275 0.0347674 0.0460230
0.1110555 0.0445223 0.0590295
0.1753377 0.0542771 0.0710355
0.2578789 0.0677839 0.0847924
0.3331666 0.0817909 0.0987994
0.4084542 0.0967984 0.1083042
0.4814907 0.1113057 0.1175588
0.5545273 0.1293147 0.1285643
0.6273137 0.1505753 0.1420710
0.6940970 0.1745873 0.1575788
0.7573787 0.2038519 0.1758379
0.8169085 0.2386193 0.1963482
0.8739370 0.2783892 0.2208604
0.9202101 0.3184092 0.2508754
0.9522261 0.3531766 0.2811406
0.0107554 0.0505253 0.0477739
0.0255128 0.0545273 0.0505253
0.0605303 0.0615308 0.0572786
0.1105553 0.0717859 0.0660330
0.1785893 0.0855428 0.0780390
0.2543772 0.0990495 0.0900450
0.3319159 0.1128064 0.1015508
0.4089545 0.1275638 0.1113057
0.4822411 0.1423212 0.1218109
0.5535268 0.1593297 0.1338169
0.6253127 0.1798399 0.1468234
0.6923462 0.2033517 0.1613307
0.7558779 0.2313657 0.1785893
0.8166583 0.2643822 0.1980990
0.8741871 0.3026513 0.2226113
0.9232116 0.3434217 0.2526263
0.9564782 0.3766883 0.2826413
0.0160080 0.0917959 0.0582791
0.0325163 0.0960480 0.0612806
0.0692846 0.1030515 0.0677839
0.1178089 0.1138069 0.0752876
0.1830916 0.1260630 0.0845423
0.2576288 0.1388194 0.0950475
0.3341671 0.1523262 0.1050525
0.4109555 0.1663332 0.1155578
0.4819910 0.1810905 0.1255628
0.5520260 0.1978489 0.1370685
0.6235618 0.2181091 0.1500750
0.6915958 0.2413707 0.1645823
0.7556278 0.2678840 0.1813407
0.8166583 0.2993997 0.2008504
0.8746873 0.3359179 0.2258629
0.9247124 0.3754377 0.2561281
0.9572286 0.4062031 0.2821411
0.0225113 0.1465733 0.0667834
0.0407704 0.1513257 0.0690345
0.0772886 0.1583292 0.0752876
0.1270635 0.1675838 0.0827914
0.1895948 0.1800900 0.0912956
0.2621311 0.1918459 0.1005503
0.3384192 0.2041021 0.1098049
0.4132066 0.2171085 0.1200600
0.4824913 0.2313657 0.1300650
0.5515258 0.2466233 0.1410705
0.6230615 0.2648824 0.1540770
0.6908454 0.2858929 0.1685843
0.7553777 0.3099050 0.1845923
0.8166583 0.3384192 0.2046023
0.8739370 0.3726864 0.2306153
0.9262131 0.4112056 0.2623812
0.9612306 0.4409705 0.2901451
0.0307654 0.2096048 0.0765383
0.0492746 0.2126063 0.0777889
0.0845423 0.2188594 0.0827914
0.1348174 0.2273637 0.0895448
0.1973487 0.2378689 0.0970485
0.2676338 0.2493747 0.1053027
0.3411706 0.2613807 0.1150575
0.4152076 0.2733867 0.1250625
0.4847424 0.2856428 0.1348174
0.5535268 0.2993997 0.1453227
0.6230615 0.3156578 0.1578289
0.6913457 0.3346673 0.1723362
0.7556278 0.3571786 0.1888444
0.8164082 0.3834417 0.2093547
0.8734367 0.4152076 0.2363682
0.9267133 0.4517259 0.2691346
0.9624813 0.4802401 0.2981491
0.0390195 0.2766383 0.0850425
0.0572786 0.2788894 0.0860430
0.0927964 0.2853927 0.0907954
0.1420710 0.2926463 0.0967984
0.2038519 0.3011506 0.1043022
0.2738869 0.3106553 0.1125563
0.3451726 0.3221611 0.1220610
0.4174587 0.3331666 0.1315658
0.4859930 0.3431716 0.1410705
0.5542771 0.3546773 0.1510755
0.6243122 0.3689345 0.1633317
0.6915958 0.3856928 0.1778389
0.7558779 0.4059530 0.1950976
0.8156579 0.4302151 0.2168584
0.8726863 0.4592296 0.2438719
0.9252126 0.4914958 0.2758879
0.9602301 0.5162581 0.3034017
0.0475238 0.3441721 0.0935468
0.0660330 0.3454227 0.0952976
0.1013006 0.3509255 0.0995498
0.1500750 0.3574287 0.1055528
0.2106053 0.3644322 0.1128064
0.2788894 0.3731866 0.1210605
0.3496749 0.3819410 0.1295648
0.4197099 0.3914457 0.1385693
0.4862431 0.4009505 0.1475738
0.5542771 0.4117059 0.1580790
0.6253127 0.4244622 0.1708354
0.6920961 0.4397199 0.1855928
0.7551275 0.4577289 0.2033517
0.8139070 0.4794897 0.2251126
0.8711856 0.5047524 0.2518759
0.9239620 0.5332666 0.2836418
0.9592296 0.5560280 0.3106553
0.0555278 0.4077038 0.1033017
0.0750375 0.4084542 0.1058029
0.1095548 0.4132066 0.1098049
0.1570785 0.4189595 0.1153077
0.2163582 0.4254627 0.1225613
0.2833917 0.4329665 0.1303152
0.3529265 0.4397199 0.1388194
0.4237119 0.4477239 0.1473237
0.4884942 0.4569785 0.1568284
0.5545273 0.4662331 0.1670835
0.6255628 0.4774888 0.1800900
0.6920961 0.4904952 0.1953477
0.7546273 0.5070035 0.2133567
0.8131566 0.5262631 0.2351176
0.8694347 0.5485243 0.2613807
0.9222111 0.5740370 0.2926463
0.9577289 0.5942972 0.3191596
0.0627814 0.4722361 0.1153077
0.0845423 0.4732366 0.1180590
0.1185593 0.4772386 0.1220610
0.1653327 0.4827414 0.1275638
0.2226113 0.4884942 0.1345673
0.2878940 0.4949975 0.1420710
0.3564282 0.5012506 0.1503252
0.4259630 0.5077538 0.1590795
0.4917459 0.5145072 0.1683342
0.5560280 0.5235118 0.1795898
0.6250625 0.5332666 0.1930965
0.6918459 0.5442721 0.2088544
0.7538769 0.5572786 0.2266133
0.8116558 0.5740370 0.2476238
0.8674337 0.5930465 0.2731366
0.9202101 0.6148074 0.3034017
0.9559780 0.6308154 0.3271636
0.0710355 0.5422711 0.1315658
0.0955478 0.5437719 0.1350675
0.1293147 0.5467734 0.1390695
0.1750875 0.5512756 0.1443222
0.2306153 0.5562781 0.1510755
0.2938969 0.5615308 0.1583292
0.3604302 0.5662832 0.1663332
0.4292146 0.5717859 0.1753377
0.4942471 0.5770385 0.1850926
0.5592796 0.5835418 0.1963482
0.6255628 0.5925463 0.2103552
0.6908454 0.6018009 0.2258629
0.7531266 0.6120560 0.2431216
0.8109055 0.6253127 0.2633817
0.8664332 0.6410705 0.2878940
0.9179590 0.6588294 0.3166583
0.9539770 0.6730865 0.3394197
0.0777889 0.6120560 0.1510755
0.1068034 0.6135568 0.1548274
0.1408204 0.6153076 0.1585793
0.1848424 0.6183091 0.1633317
0.2391196 0.6223112 0.1698349
0.3006503 0.6265633 0.1773387
0.3664332 0.6303152 0.1855928
0.4337169 0.6345673 0.1950976
0.4977489 0.6385693 0.2051025
0.5612807 0.6430715 0.2161081
0.6270635 0.6493247 0.2293647
0.6898449 0.6573287 0.2446223
0.7511256 0.6658329 0.2618809
0.8096548 0.6755878 0.2813907
0.8646823 0.6878439 0.3049025
0.9152076 0.7021011 0.3316658
0.9492246 0.7131066 0.3526763
0.0842921 0.6770886 0.1735868
0.1205603 0.6783392 0.1785893
0.1550775 0.6803402 0.1825913
0.1980990 0.6825913 0.1870935
0.2511256 0.6853427 0.1938469
0.3101551 0.6883442 0.2013507
0.3741871 0.6908454 0.2103552
0.4392196 0.6938469 0.2198599
0.5010005 0.6970986 0.2291146
0.5635318 0.7003502 0.2393697
0.6280640 0.7043522 0.2518759
0.6903452 0.7098549 0.2661331
0.7493747 0.7173587 0.2828915
0.8074037 0.7251126 0.3016508
0.8631816 0.7346173 0.3241621
0.9142071 0.7471235 0.3504252
