Programming/LUT/Fuji_Pro Neg Std.cube
TITLE "Pro Neg Std"
LUT_3D_SIZE 9
0.0105006 0.0105006 0.0102564
0.0976801 0.0202686 0.0317460
0.2207570 0.0305250 0.0505495
0.3387057 0.0544567 0.0688645
0.4595849 0.0854701 0.0910867
0.5887668 0.1196581 0.1186813
0.7150183 0.1653236 0.1557998
0.8285714 0.2246642 0.2012210
0.8822955 0.2735043 0.2288156
0.0144078 0.0786325 0.0087912
0.0854701 0.0910867 0.0180708
0.2026862 0.1069597 0.0349206
0.3316239 0.1269841 0.0542125
0.4566545 0.1482296 0.0754579
0.5821734 0.1763126 0.1032967
0.7094017 0.2173382 0.1411477
0.8273504 0.2713065 0.1912088
0.8793651 0.3025641 0.2217338
0.0229548 0.1894994 0.0107448
0.0962149 0.2004884 0.0151404
0.2070818 0.2144078 0.0266178
0.3347985 0.2271062 0.0410256
0.4549451 0.2434676 0.0630037
0.5770452 0.2652015 0.0923077
0.7054945 0.2974359 0.1328449
0.8290598 0.3435898 0.1860806
0.9235653 0.3855922 0.2517705
0.0332112 0.3206349 0.0122100
0.1059829 0.3255189 0.0175824
0.2163614 0.3360195 0.0266178
0.3365079 0.3443224 0.0437118
0.4551893 0.3550672 0.0666667
0.5755800 0.3709402 0.0962149
0.7020757 0.3946276 0.1355311
0.8278388 0.4302808 0.1868132
0.9216117 0.4637363 0.2398046
0.0451770 0.4488401 0.0173382
0.1199023 0.4507937 0.0273504
0.2229548 0.4527473 0.0395604
0.3416362 0.4588523 0.0583639
0.4549451 0.4683761 0.0832723
0.5731380 0.4759463 0.1098901
0.6984127 0.4908425 0.1455434
0.8246642 0.5162393 0.1953602
0.9189255 0.5438340 0.2478632
0.0615385 0.5760684 0.0368742
0.1396825 0.5763126 0.0488400
0.2356532 0.5763126 0.0622711
0.3470086 0.5721612 0.0803419
0.4588523 0.5804640 0.1010989
0.5716728 0.5885226 0.1262515
0.6952381 0.5975580 0.1611722
0.8185592 0.6163614 0.2061050
0.9123321 0.6332113 0.2608059
0.0857143 0.7015873 0.0783883
0.1689866 0.7001221 0.0888889
0.2556777 0.7001221 0.1001221
0.3601954 0.6986569 0.1152625
0.4639805 0.7010989 0.1326007
0.5755800 0.7025641 0.1555556
0.6932845 0.7067155 0.1853480
0.8148962 0.7164835 0.2283272
0.8761905 0.7223443 0.2573871
0.1115995 0.7704518 0.1140415
0.1960928 0.7719170 0.1225885
0.2642247 0.7995116 0.1482296
0.3804640 0.7953602 0.1614164
0.4783883 0.7719170 0.1650794
0.5704518 0.7921856 0.1926740
0.6954823 0.7936508 0.2332112
0.8141636 0.7978022 0.2661783
0.8783883 0.8083028 0.3076923
0.1416361 0.8634921 0.2078144
0.2305250 0.8136752 0.1540904
0.2710623 0.8080586 0.1526252
0.3904762 0.8175824 0.1821734
0.5152625 0.8144078 0.2019536
0.5699634 0.8014652 0.1995116
0.6935287 0.8134310 0.2507937
0.8131868 0.8053724 0.2715507
0.9113553 0.8705739 0.3743590
0.0180708 0.0244200 0.0822955
0.0932845 0.0405372 0.0884005
0.2068376 0.0410256 0.1235653
0.3438340 0.0669109 0.1462760
0.4666667 0.0952381 0.1616606
0.5968254 0.1316239 0.1802198
0.7218559 0.1738706 0.2139194
0.8410257 0.2327228 0.2590965
0.8986569 0.2708181 0.2925519
0.0275946 0.0910867 0.0825397
0.0979243 0.1001221 0.0935287
0.2144078 0.1184371 0.1142857
0.3416362 0.1372405 0.1355311
0.4661783 0.1570208 0.1536020
0.5882784 0.1846154 0.1780220
0.7140415 0.2229548 0.2112332
0.8388278 0.2776557 0.2544567
0.9330891 0.3352869 0.3064713
0.0329670 0.2031746 0.0852259
0.1076923 0.2117216 0.0940171
0.2178266 0.2244200 0.1089133
0.3428572 0.2366300 0.1260073
0.4617827 0.2522589 0.1460318
0.5821734 0.2730159 0.1719170
0.7086691 0.3035409 0.2046398
0.8356532 0.3489622 0.2490842
0.9369963 0.4004884 0.3010989
0.0463980 0.3308913 0.0837607
0.1145299 0.3355311 0.0898657
0.2229548 0.3418804 0.1040293
0.3428572 0.3511600 0.1225885
0.4603175 0.3609280 0.1431013
0.5792430 0.3755800 0.1672772
0.7047619 0.3987790 0.2002442
0.8317460 0.4349206 0.2446886
0.9338217 0.4761905 0.2986569
0.0647131 0.4542125 0.0876679
0.1282051 0.4547009 0.0957265
0.2305250 0.4583639 0.1098901
0.3467644 0.4627595 0.1269841
0.4593407 0.4700855 0.1460318
0.5770452 0.4798535 0.1699634
0.7015873 0.4957265 0.2014652
0.8268620 0.5223444 0.2449328
0.9286935 0.5550672 0.2979243
0.0840049 0.5770452 0.1062271
0.1479854 0.5765568 0.1150183
0.2427350 0.5782662 0.1277167
0.3526252 0.5797314 0.1428571
0.4627595 0.5819292 0.1606838
0.5755800 0.5885226 0.1831502
0.6981685 0.5978022 0.2124542
0.8214896 0.6151404 0.2537241
0.9235653 0.6376069 0.3025641
0.1025641 0.7045177 0.1374847
0.1753358 0.7025641 0.1472528
0.2620269 0.7018315 0.1575092
0.3648352 0.7013431 0.1714286
0.4688645 0.7015873 0.1870574
0.5775336 0.7025641 0.2063492
0.6942613 0.7072039 0.2334554
0.8161172 0.7157509 0.2722833
0.9155067 0.7328449 0.3218559
0.1301587 0.8212454 0.1855922
0.2092796 0.8136752 0.1916972
0.2881563 0.8173382 0.2053724
0.3824176 0.8131868 0.2141636
0.4781441 0.8065934 0.2244200
0.5831502 0.8061050 0.2434676
0.6935287 0.8090354 0.2710623
0.8097680 0.8107448 0.3076923
0.9098901 0.8275946 0.3589744
0.1472528 0.8769231 0.2253968
0.2256410 0.8590965 0.2344322
0.3091575 0.8664225 0.2532357
0.3946276 0.8661783 0.2490842
0.4644689 0.8532357 0.2529915
0.5912088 0.8488401 0.2822955
0.6864469 0.8595849 0.2991453
0.8356532 0.8525031 0.3423688
0.9191697 0.8884005 0.3985348
0.0380952 0.0466422 0.2017094
0.1032967 0.0678877 0.2341880
0.2122100 0.0969475 0.2415140
0.3628816 0.0888889 0.2659341
0.4781441 0.1333333 0.2835165
0.6034188 0.1440782 0.2974359
0.7238095 0.1919414 0.3252747
0.8481075 0.2505495 0.3648352
0.9416361 0.3096459 0.3912088
0.0395604 0.1179487 0.2046398
0.1225885 0.1318681 0.2205128
0.2283272 0.1450550 0.2358974
0.3572650 0.1587302 0.2573871
0.4764347 0.1760684 0.2759463
0.5941392 0.2012210 0.2969475
0.7181929 0.2363858 0.3250305
0.8439561 0.2903541 0.3582418
0.9460317 0.3496948 0.3960928
0.0495727 0.2205128 0.2051282
0.1274725 0.2271062 0.2170940
0.2344322 0.2371184 0.2344322
0.3557998 0.2478632 0.2520147
0.4713065 0.2622711 0.2703297
0.5887668 0.2827839 0.2898657
0.7133089 0.3135531 0.3137973
0.8400488 0.3589744 0.3487180
0.9467643 0.4131868 0.3877900
0.0615385 0.3418804 0.2063492
0.1355311 0.3467644 0.2141636
0.2393162 0.3518926 0.2285714
0.3553114 0.3594628 0.2439560
0.4693529 0.3702076 0.2617827
0.5858364 0.3851038 0.2808303
0.7086691 0.4070818 0.3059829
0.8354090 0.4417582 0.3411478
0.9435897 0.4849817 0.3836386
0.0722833 0.4610501 0.2056166
0.1470086 0.4620269 0.2131868
0.2454212 0.4649573 0.2261294
0.3587302 0.4688645 0.2405372
0.4678877 0.4757021 0.2566545
0.5831502 0.4840049 0.2764347
0.7052503 0.5003663 0.3003663
0.8300366 0.5269842 0.3365079
0.9374847 0.5609280 0.3794872
0.0937729 0.5819292 0.2112332
0.1643468 0.5831502 0.2188034
0.2566545 0.5824176 0.2297924
0.3643468 0.5841270 0.2439560
0.4703297 0.5858364 0.2583639
0.5819292 0.5934066 0.2769231
0.7015873 0.6024420 0.3008547
0.8246642 0.6190476 0.3357753
0.9321123 0.6449329 0.3792430
0.1191697 0.7091575 0.2295482
0.1882784 0.7079365 0.2356532
0.2732601 0.7062271 0.2449328
0.3738706 0.7059829 0.2568987
0.4754579 0.7054945 0.2703297
0.5826618 0.7072039 0.2876679
0.6976801 0.7113553 0.3106227
0.8183150 0.7201465 0.3440782
0.9250305 0.7362638 0.3897436
0.1601954 0.8315018 0.2664225
0.2244200 0.8285714 0.2725275
0.3006105 0.8266178 0.2803419
0.3924298 0.8244200 0.2903541
0.4874237 0.8224664 0.3025641
0.5880342 0.8205128 0.3179487
0.6974359 0.8192918 0.3394383
0.8134310 0.8227106 0.3726496
0.9201465 0.8346764 0.4195360
0.2007326 0.9150183 0.3267399
0.2647131 0.9155067 0.3369963
0.3321123 0.9159951 0.3506716
0.4085470 0.8844933 0.3218559
0.4971917 0.8791209 0.3291819
0.5929182 0.8786325 0.3445666
0.6981685 0.8735043 0.3665446
0.8153846 0.8732601 0.3975580
0.9199023 0.8803419 0.4412698
0.0603175 0.0857143 0.3269841
0.1379731 0.1196581 0.3557998
0.2459096 0.1291819 0.4036630
0.3609280 0.1482296 0.4361416
0.5008547 0.1614164 0.4141636
0.6048840 0.1924298 0.4354090
0.7311355 0.2192918 0.4622711
0.8576313 0.2720391 0.4793651
0.9533578 0.3316239 0.5125763
0.0559219 0.1462760 0.3389499
0.1496948 0.1597070 0.3545788
0.2547009 0.1719170 0.3809524
0.3736264 0.1853480 0.4007326
0.4896215 0.1997558 0.4080586
0.6014652 0.2229548 0.4268620
0.7240537 0.2566545 0.4463980
0.8478633 0.3062271 0.4708181
0.9543346 0.3655678 0.5032967
0.0637363 0.2422466 0.3418804
0.1543346 0.2483516 0.3550672
0.2564103 0.2568987 0.3689866
0.3714286 0.2678877 0.3829060
0.4830281 0.2822955 0.3975580
0.5975580 0.3006105 0.4131868
0.7181929 0.3279609 0.4336996
0.8420025 0.3709402 0.4617827
0.9557998 0.4263736 0.4925519
0.0708181 0.3587302 0.3357753
0.1606838 0.3619048 0.3467644
0.2600733 0.3653236 0.3567766
0.3716728 0.3731380 0.3721612
0.4818071 0.3821734 0.3855922
0.5948718 0.3956044 0.4029304
0.7140415 0.4173382 0.4222222
0.8378510 0.4522589 0.4500611
0.9509158 0.4967033 0.4830281
0.0854701 0.4695971 0.3316239
0.1728938 0.4730159 0.3404151
0.2661783 0.4739927 0.3514042
0.3738706 0.4764347 0.3636142
0.4803419 0.4842491 0.3772894
0.5921856 0.4932845 0.3938950
0.7096459 0.5079365 0.4131868
0.8329670 0.5323566 0.4415140
0.9452991 0.5682540 0.4776557
0.1079365 0.5887668 0.3308913
0.1882784 0.5892552 0.3384615
0.2764347 0.5885226 0.3482296
0.3787546 0.5887668 0.3604396
0.4830281 0.5909646 0.3736264
0.5904762 0.5973138 0.3880342
0.7057387 0.6063492 0.4087912
0.8275946 0.6231990 0.4363858
0.9391941 0.6505495 0.4735043
0.1323565 0.7118437 0.3396825
0.2109890 0.7101343 0.3465202
0.2920635 0.7086691 0.3550672
0.3887668 0.7067155 0.3655678
0.4876679 0.7062271 0.3772894
0.5909646 0.7074481 0.3921856
0.7025641 0.7123321 0.4114774
0.8217338 0.7213675 0.4388278
0.9326007 0.7399268 0.4786325
0.1726496 0.8358974 0.3633700
0.2463980 0.8332112 0.3697192
0.3189255 0.8312576 0.3763126
0.4068376 0.8275946 0.3858364
0.4989011 0.8249084 0.3963370
0.5958486 0.8227106 0.4092796
0.7025641 0.8212454 0.4280830
0.8161172 0.8256410 0.4568987
0.9274725 0.8393162 0.4996337
0.2190476 0.9333333 0.3958486
0.2825397 0.9308913 0.4019536
0.3470086 0.9306471 0.4095238
0.4317460 0.9245421 0.4190476
0.5135531 0.9186813 0.4258852
0.6063492 0.9169719 0.4388278
0.7030525 0.9081807 0.4503053
0.8131868 0.9098901 0.4844933
0.9157509 0.9150183 0.5174603
0.1025641 0.1409035 0.4708181
0.1831502 0.1606838 0.4976801
0.2832723 0.1650794 0.5406594
0.3748474 0.1645910 0.5262516
0.4617827 0.1721612 0.5316240
0.6185592 0.2219780 0.5543346
0.7538462 0.2537241 0.6117216
0.8598291 0.2920635 0.5919414
0.9616606 0.3533578 0.6141636
0.0825397 0.1780220 0.4737485
0.1868132 0.1926740 0.4915751
0.2793651 0.2039072 0.5123321
0.3926740 0.2122100 0.5247864
0.4940171 0.2251526 0.5304030
0.6105006 0.2485958 0.5472528
0.7291819 0.2786325 0.5636142
0.8510379 0.3255189 0.5829060
0.9621490 0.3877900 0.6051282
0.0796093 0.2686203 0.4727717
0.1853480 0.2744811 0.4869353
0.2825397 0.2813187 0.4986569
0.3892552 0.2905983 0.5096459
0.4969475 0.3035409 0.5203907
0.6061050 0.3208791 0.5340660
0.7245421 0.3470086 0.5514042
0.8459097 0.3873016 0.5704518
0.9609280 0.4427350 0.5963370
0.0869353 0.3763126 0.4647131
0.1914530 0.3787546 0.4749695
0.2859585 0.3833944 0.4840049
0.3902320 0.3897436 0.4954823
0.4954823 0.3990232 0.5076923
0.6043956 0.4109890 0.5196581
0.7208791 0.4322344 0.5350428
0.8412699 0.4642247 0.5557998
0.9550672 0.5089133 0.5841270
0.0945055 0.4835165 0.4529915
0.2012210 0.4849817 0.4630037
0.2905983 0.4879121 0.4722833
0.3929182 0.4901099 0.4837607
0.4949939 0.4967033 0.4954823
0.6014652 0.5040293 0.5074481
0.7169719 0.5181929 0.5221002
0.8366300 0.5431014 0.5440782
0.9504274 0.5802198 0.5736264
0.1186813 0.5958486 0.4478633
0.2161172 0.5943834 0.4576313
0.2989011 0.5953602 0.4647131
0.3975580 0.5973138 0.4759463
0.4964591 0.5982906 0.4871795
0.6000000 0.6034188 0.4989011
0.7120879 0.6114774 0.5133089
0.8315018 0.6293041 0.5362638
0.9433455 0.6586081 0.5682540
0.1470086 0.7157509 0.4483517
0.2363858 0.7137973 0.4566545
0.3137973 0.7130647 0.4642247
0.4056166 0.7115995 0.4727717
0.5006105 0.7106227 0.4827839
0.6007326 0.7113553 0.4937729
0.7084249 0.7157509 0.5091575
0.8249084 0.7247863 0.5323566
0.9362637 0.7452992 0.5682540
0.1821734 0.8383394 0.4617827
0.2683761 0.8344322 0.4691087
0.3389499 0.8327228 0.4754579
0.4234432 0.8295482 0.4820513
0.5120879 0.8273504 0.4915751
0.6051282 0.8249084 0.5025641
0.7091575 0.8239316 0.5181929
0.8202686 0.8280830 0.5418804
0.9311355 0.8427351 0.5807082
0.2317460 0.9401709 0.4864469
0.3064713 0.9369963 0.4918193
0.3699634 0.9335775 0.4996337
0.4493285 0.9301587 0.5050061
0.5306472 0.9242979 0.5137973
0.6180708 0.9194139 0.5247864
0.7152625 0.9167277 0.5406594
0.8212454 0.9150183 0.5621490
0.9245421 0.9252747 0.6014652
0.1829060 0.2180708 0.6481075
0.1809524 0.1943834 0.5760684
0.2993895 0.2014652 0.6312577
0.4122100 0.2163614 0.6600733
0.5130647 0.2258852 0.6590965
0.6283273 0.2549451 0.6835165
0.7557998 0.2776557 0.7028083
0.8649573 0.3203907 0.7047619
0.9697192 0.3809524 0.7230769
0.1338217 0.2258852 0.6197802
0.2263736 0.2363858 0.6329671
0.3115995 0.2378510 0.6373627
0.4185592 0.2495726 0.6493285
0.5172161 0.2620269 0.6603175
0.6234432 0.2813187 0.6708181
0.7367522 0.3084249 0.6830281
0.8549451 0.3521368 0.6942613
0.9682540 0.4148962 0.7159951
0.1018315 0.3040293 0.6041514
0.2263736 0.3094017 0.6168498
0.3162393 0.3145299 0.6266178
0.4146520 0.3235653 0.6361417
0.5157509 0.3335775 0.6468865
0.6202686 0.3494506 0.6568987
0.7328449 0.3728938 0.6683761
0.8500611 0.4092796 0.6818071
0.9667888 0.4661783 0.7037851
0.1098901 0.4019536 0.5936508
0.2310134 0.4041514 0.6053724
0.3172161 0.4087912 0.6122100
0.4156288 0.4144078 0.6231990
0.5133089 0.4234432 0.6332113
0.6170940 0.4349206 0.6420025
0.7289377 0.4527473 0.6532357
0.8463981 0.4805861 0.6686203
0.9621490 0.5284494 0.6913309
0.1135531 0.5008547 0.5794872
0.2383394 0.5023199 0.5899878
0.3206349 0.5042735 0.5973138
0.4170940 0.5076923 0.6063492
0.5133089 0.5123321 0.6168498
0.6139194 0.5206349 0.6271062
0.7252747 0.5333334 0.6383395
0.8422467 0.5555556 0.6529915
0.9550672 0.5936508 0.6776557
0.1308913 0.6090354 0.5682540
0.2495726 0.6080586 0.5787546
0.3279609 0.6070818 0.5846154
0.4202686 0.6080586 0.5929182
0.5142857 0.6107448 0.6039072
0.6126984 0.6151404 0.6136752
0.7206349 0.6227106 0.6251526
0.8366300 0.6383395 0.6407815
0.9477412 0.6686203 0.6671551
0.1614164 0.7223443 0.5626374
0.2683761 0.7196581 0.5716728
0.3413920 0.7186813 0.5785104
0.4280830 0.7172161 0.5855922
0.5177045 0.7159951 0.5946276
0.6131868 0.7169719 0.6034188
0.7167277 0.7211233 0.6146520
0.8293040 0.7296703 0.6315019
0.9416361 0.7526252 0.6612943
0.1965812 0.8415141 0.5660562
0.2984127 0.8373626 0.5733822
0.3648352 0.8344322 0.5794872
0.4454212 0.8317460 0.5858364
0.5289378 0.8297924 0.5926740
0.6180708 0.8275946 0.6014652
0.7179487 0.8273504 0.6146520
0.8256410 0.8307692 0.6319903
0.9367521 0.8485959 0.6656899
0.2466422 0.9452991 0.5819292
0.3365079 0.9421245 0.5885226
0.3968254 0.9389499 0.5936508
0.4717949 0.9345543 0.5982906
0.5492064 0.9296703 0.6061050
0.6322345 0.9252747 0.6141636
0.7245421 0.9218559 0.6278389
0.8285714 0.9191697 0.6461539
0.9321123 0.9311355 0.6815629
0.2603175 0.2981685 0.7611722
0.3111111 0.3316239 0.7985348
0.3492064 0.2725275 0.7702076
0.4510379 0.2676435 0.7714286
0.5492064 0.2783883 0.7960928
0.6525031 0.2930403 0.8190476
0.7528694 0.3189255 0.8207570
0.8669109 0.3589744 0.8266178
0.9758242 0.4170940 0.8368742
0.2070818 0.2810745 0.7626374
0.2796093 0.2871795 0.7638584
0.3609280 0.2925519 0.7758242
0.4534799 0.3023199 0.7853480
0.5443224 0.3115995 0.7934066
0.6427351 0.3269841 0.7990232
0.7484738 0.3511600 0.8068376
0.8615385 0.3897436 0.8153846
0.9736264 0.4512821 0.8273504
0.1504274 0.3484738 0.7445666
0.2805861 0.3545788 0.7555556
0.3599512 0.3587302 0.7631258
0.4495727 0.3665446 0.7716728
0.5423688 0.3753358 0.7787546
0.6395605 0.3887668 0.7865690
0.7452992 0.4100122 0.7943834
0.8571429 0.4437118 0.8019536
0.9706960 0.4993895 0.8180708
0.1360195 0.4371184 0.7264957
0.2832723 0.4402930 0.7396826
0.3601954 0.4427350 0.7472528
0.4503053 0.4476191 0.7543346
0.5399268 0.4549451 0.7614164
0.6358975 0.4649573 0.7692308
0.7406594 0.4810745 0.7775336
0.8525031 0.5086691 0.7877900
0.9660562 0.5555556 0.8036630
0.1416361 0.5284494 0.7128205
0.2891331 0.5286936 0.7255189
0.3633700 0.5311356 0.7311355
0.4517705 0.5330892 0.7382174
0.5394384 0.5362638 0.7443224
0.6327229 0.5452992 0.7526252
0.7365080 0.5567766 0.7614164
0.8478633 0.5770452 0.7714286
0.9597070 0.6168498 0.7899878
0.1533578 0.6288157 0.6991453
0.2989011 0.6268620 0.7098901
0.3699634 0.6263736 0.7157509
0.4551893 0.6261294 0.7225885
0.5406594 0.6285715 0.7289377
0.6312577 0.6317461 0.7357754
0.7321123 0.6390721 0.7448108
0.8432235 0.6525031 0.7565324
0.9548230 0.6857143 0.7775336
0.1804640 0.7347986 0.6862027
0.3130647 0.7306471 0.6959707
0.3802198 0.7296703 0.7010989
0.4608059 0.7284493 0.7074481
0.5426130 0.7272283 0.7133089
0.6317461 0.7274725 0.7208791
0.7291819 0.7316239 0.7296703
0.8373626 0.7399268 0.7438340
0.9496948 0.7653236 0.7677656
0.2163614 0.8459097 0.6813187
0.3399267 0.8410257 0.6898657
0.4012210 0.8383394 0.6937729
0.4766789 0.8363858 0.6993895
0.5536020 0.8339438 0.7054945
0.6371185 0.8319902 0.7128205
0.7304029 0.8315018 0.7213675
0.8341880 0.8363858 0.7352870
0.9426129 0.8568987 0.7638584
0.2715507 0.9533578 0.6879121
0.3775336 0.9467643 0.6949939
0.4344322 0.9445665 0.6993895
0.5047619 0.9421245 0.7032967
0.5758242 0.9372405 0.7094017
0.6529915 0.9333333 0.7159951
0.7401710 0.9294261 0.7264957
0.8385836 0.9264957 0.7406594
0.9389499 0.9372405 0.7741148
0.3592186 0.4105006 0.9069597
0.3658120 0.4021978 0.9108669
0.4048840 0.3934066 0.9130647
0.4935287 0.3968254 0.9372405
0.5782662 0.3645910 0.9311355
0.6735043 0.3704518 0.9418803
0.7699634 0.3829060 0.9396825
0.8764347 0.4166056 0.9452991
0.9799756 0.4691087 0.9543346
0.3018315 0.3650794 0.9008547
0.3550672 0.3667888 0.9042735
0.4239316 0.3699634 0.9113553
0.5008547 0.3753358 0.9184371
0.5831502 0.3824176 0.9250305
0.6705739 0.3938950 0.9291819
0.7670330 0.4131868 0.9333333
0.8720391 0.4451770 0.9360195
0.9770452 0.4998779 0.9450549
0.2454212 0.4119658 0.8847375
0.3533578 0.4180708 0.8918193
0.4205128 0.4214896 0.8974359
0.4993895 0.4263736 0.9030525
0.5794872 0.4344322 0.9086691
0.6666667 0.4451770 0.9137973
0.7633700 0.4622711 0.9203907
0.8681319 0.4898657 0.9245421
0.9741148 0.5404152 0.9330891
0.1894994 0.4891331 0.8642247
0.3555556 0.4913309 0.8771673
0.4210012 0.4940171 0.8825397
0.4993895 0.4964591 0.8881563
0.5780220 0.5028083 0.8942613
0.6639805 0.5103785 0.8991453
0.7592186 0.5242980 0.9045177
0.8639805 0.5477412 0.9094017
0.9687424 0.5912088 0.9201465
0.1807082 0.5694750 0.8481075
0.3604396 0.5697192 0.8630037
0.4239316 0.5704518 0.8673993
0.5001221 0.5719170 0.8717949
0.5782662 0.5746032 0.8774115
0.6612943 0.5807082 0.8827839
0.7557998 0.5907204 0.8881563
0.8595849 0.6080586 0.8940171
0.9614164 0.6456655 0.9067155
0.1929182 0.6561661 0.8329670
0.3653236 0.6529915 0.8451771
0.4271062 0.6532357 0.8500611
0.5013431 0.6529915 0.8542125
0.5777778 0.6547009 0.8593407
0.6600733 0.6576313 0.8649573
0.7514042 0.6644689 0.8710623
0.8542125 0.6771673 0.8774115
0.9579976 0.7091575 0.8932845
0.2139194 0.7548230 0.8178266
0.3775336 0.7492064 0.8280830
0.4363858 0.7482296 0.8332112
0.5074481 0.7462760 0.8373626
0.5802198 0.7457876 0.8429793
0.6603175 0.7470086 0.8476191
0.7492064 0.7499390 0.8520147
0.8490843 0.7579976 0.8593407
0.9523810 0.7836386 0.8793651
0.2473748 0.8593407 0.8051282
0.4000000 0.8525031 0.8144078
0.4551893 0.8505495 0.8180708
0.5213675 0.8478633 0.8217338
0.5899878 0.8451771 0.8261294
0.6649573 0.8437119 0.8312576
0.7504274 0.8434677 0.8376068
0.8471307 0.8468865 0.8478633
0.9474970 0.8691087 0.8713065
0.3072039 0.9614164 0.8046398
0.4366300 0.9543346 0.8126984
0.4874237 0.9516484 0.8161172
0.5492064 0.9482296 0.8202686
0.6131868 0.9450549 0.8244200
0.6830281 0.9411477 0.8310134
0.7633700 0.9387057 0.8388278
0.8564103 0.9365079 0.8495727
0.9487180 0.9474970 0.8764347
0.4808303 0.5536020 0.9980464
0.4608059 0.5264958 0.9982906
0.5018315 0.5284494 0.9978022
0.5663004 0.5159951 0.9978022
0.6500611 0.5294262 0.9982906
0.7318681 0.5289378 0.9982906
0.8197802 0.5316240 0.9995116
0.9128205 0.5462760 1.0000000
0.9860806 0.5528694 1.0000000
0.4473749 0.5196581 0.9946276
0.4735043 0.5221002 0.9951160
0.5286936 0.5218560 0.9953602
0.5926740 0.5159951 0.9963370
0.6686203 0.5308914 0.9970696
0.7379732 0.5277168 0.9975580
0.8202686 0.5416362 0.9980464
0.9089133 0.5645910 0.9987790
0.9833944 0.5789988 0.9995116
0.4268620 0.5352870 0.9919414
0.4913309 0.5435898 0.9921856
0.5423688 0.5462760 0.9931624
0.6009768 0.5465202 0.9941392
0.6664225 0.5557998 0.9951160
0.7360196 0.5636142 0.9956044
0.8156288 0.5755800 0.9963370
0.9045177 0.5968254 0.9968254
0.9794872 0.6105006 0.9975580
0.3601954 0.5938950 0.9858364
0.4918193 0.5978022 0.9887668
0.5423688 0.6004884 0.9902320
0.6007326 0.6012210 0.9914530
0.6608059 0.6024420 0.9919414
0.7340659 0.6153846 0.9926740
0.8129426 0.6246642 0.9936508
0.9013431 0.6415141 0.9943834
0.9738706 0.6507937 0.9953602
0.2947497 0.6605617 0.9794872
0.4962149 0.6593407 0.9853480
0.5467644 0.6620269 0.9865690
0.6041514 0.6625153 0.9873016
0.6625153 0.6622711 0.9885226
0.7326007 0.6688645 0.9894994
0.8122100 0.6803419 0.9907204
0.8991453 0.6925519 0.9919414
0.9702076 0.6964591 0.9929182
0.2830281 0.7352870 0.9738706
0.5050061 0.7306471 0.9799756
0.5521368 0.7306471 0.9809524
0.6102564 0.7328449 0.9826618
0.6681319 0.7326007 0.9841270
0.7340659 0.7335775 0.9848596
0.8134310 0.7438340 0.9863248
0.8971917 0.7509158 0.9875458
0.9667888 0.7516484 0.9897436
0.3030525 0.8188034 0.9670330
0.5169719 0.8107448 0.9736264
0.5614164 0.8097680 0.9743590
0.6166056 0.8100122 0.9760684
0.6742369 0.8095238 0.9775336
0.7382174 0.8105006 0.9787546
0.8139194 0.8134310 0.9797314
0.8949939 0.8197802 0.9819292
0.9604396 0.8158730 0.9821734
0.3374847 0.9096459 0.9543346
0.5350428 0.8993895 0.9606838
0.5777778 0.8974359 0.9621490
0.6293041 0.8959707 0.9636142
0.6830281 0.8940171 0.9645910
0.7443224 0.8932845 0.9663004
0.8163614 0.8935287 0.9682540
0.8964591 0.8954823 0.9702076
0.9570208 0.8971917 0.9677656
0.3628816 0.9794872 0.9245421
0.5235654 0.9699634 0.9304029
0.5670330 0.9687424 0.9333333
0.6180708 0.9653236 0.9345543
0.6720391 0.9614164 0.9367521
0.7330891 0.9579976 0.9396825
0.8046398 0.9543346 0.9433455
0.8879121 0.9518926 0.9494506
0.9616606 0.9587302 0.9594628
