Programming/LUT/Fuji_Pro Neg Std.cube
TITLE "Pro Neg Std"
LUT_3D_SIZE 17
0.0105006 0.0105006 0.0102564
0.0363858 0.0166056 0.0188034
0.0976801 0.0202686 0.0317460
0.1653236 0.0234432 0.0429792
0.2207570 0.0305250 0.0505495
0.2791209 0.0410256 0.0595849
0.3387057 0.0544567 0.0688645
0.4004884 0.0693529 0.0803419
0.4595849 0.0854701 0.0910867
0.5213675 0.1023199 0.1035409
0.5887668 0.1196581 0.1186813
0.6529915 0.1416361 0.1357753
0.7150183 0.1653236 0.1557998
0.7743590 0.1929182 0.1775336
0.8285714 0.2246642 0.2012210
0.8752137 0.2671551 0.2253968
0.8822955 0.2735043 0.2288156
0.0146520 0.0305250 0.0126984
0.0424908 0.0324786 0.0197802
0.0876679 0.0420024 0.0271062
0.1462760 0.0522589 0.0368742
0.2070818 0.0627595 0.0437118
0.2710623 0.0747253 0.0537241
0.3347985 0.0859585 0.0642247
0.3980464 0.0981685 0.0754579
0.4588523 0.1111111 0.0864469
0.5216118 0.1245421 0.0981685
0.5865690 0.1416361 0.1135531
0.6498169 0.1626374 0.1306471
0.7120879 0.1858364 0.1496948
0.7726496 0.2134310 0.1719170
0.8278388 0.2434676 0.1973138
0.8749695 0.2759463 0.2241758
0.8818071 0.2808303 0.2280830
0.0144078 0.0786325 0.0087912
0.0410256 0.0830281 0.0124542
0.0854701 0.0910867 0.0180708
0.1416361 0.0989011 0.0271062
0.2026862 0.1069597 0.0349206
0.2669109 0.1174603 0.0442002
0.3316239 0.1269841 0.0542125
0.3960928 0.1374847 0.0649573
0.4566545 0.1482296 0.0754579
0.5179487 0.1604396 0.0879121
0.5821734 0.1763126 0.1032967
0.6456655 0.1953602 0.1211233
0.7094017 0.2173382 0.1411477
0.7711844 0.2432234 0.1645910
0.8273504 0.2713065 0.1912088
0.8730159 0.2984127 0.2178266
0.8793651 0.3025641 0.2217338
0.0175824 0.1291819 0.0085470
0.0459096 0.1347985 0.0119658
0.0908425 0.1416361 0.0153846
0.1443224 0.1494506 0.0224664
0.2046398 0.1575092 0.0295482
0.2683761 0.1655678 0.0371184
0.3323565 0.1741148 0.0451770
0.3960928 0.1829060 0.0549451
0.4556777 0.1924298 0.0661783
0.5152625 0.2036630 0.0796093
0.5792430 0.2178266 0.0962149
0.6429793 0.2351648 0.1147741
0.7069597 0.2544567 0.1355311
0.7694750 0.2781441 0.1594628
0.8278388 0.3050061 0.1865690
0.8737485 0.3304029 0.2134310
0.8866911 0.3362637 0.2224664
0.0229548 0.1894994 0.0107448
0.0525031 0.1953602 0.0126984
0.0962149 0.2004884 0.0151404
0.1482296 0.2078144 0.0200244
0.2070818 0.2144078 0.0266178
0.2700855 0.2210012 0.0332112
0.3347985 0.2271062 0.0410256
0.3968254 0.2349206 0.0510379
0.4549451 0.2434676 0.0630037
0.5135531 0.2529915 0.0759463
0.5770452 0.2652015 0.0923077
0.6410257 0.2798535 0.1113553
0.7054945 0.2974359 0.1328449
0.7694750 0.3194139 0.1582418
0.8290598 0.3435898 0.1860806
0.8805861 0.3680098 0.2170940
0.9235653 0.3855922 0.2517705
0.0283272 0.2527473 0.0117216
0.0581197 0.2568987 0.0144078
0.1010989 0.2608059 0.0168498
0.1523810 0.2659341 0.0197802
0.2117216 0.2725275 0.0249084
0.2715507 0.2791209 0.0319902
0.3350427 0.2849817 0.0400488
0.3975580 0.2923077 0.0510379
0.4547009 0.2996337 0.0630037
0.5125763 0.3079365 0.0764347
0.5765568 0.3181929 0.0940171
0.6402931 0.3306471 0.1125763
0.7037851 0.3457876 0.1326007
0.7682540 0.3653236 0.1579976
0.8285714 0.3860806 0.1848596
0.8791209 0.4073260 0.2131868
0.9050061 0.4180708 0.2300366
0.0332112 0.3206349 0.0122100
0.0637363 0.3235653 0.0148962
0.1059829 0.3255189 0.0175824
0.1572650 0.3294261 0.0212454
0.2163614 0.3360195 0.0266178
0.2749695 0.3389499 0.0341880
0.3365079 0.3443224 0.0437118
0.3980464 0.3496948 0.0539683
0.4551893 0.3550672 0.0666667
0.5128205 0.3623932 0.0805861
0.5755800 0.3709402 0.0962149
0.6383395 0.3816850 0.1147741
0.7020757 0.3946276 0.1355311
0.7653236 0.4107448 0.1594628
0.8278388 0.4302808 0.1868132
0.8825397 0.4503053 0.2158730
0.9216117 0.4637363 0.2398046
0.0395604 0.3868132 0.0139194
0.0705739 0.3897436 0.0168498
0.1115995 0.3921856 0.0205128
0.1619048 0.3931624 0.0256410
0.2195360 0.3958486 0.0332112
0.2791209 0.3968254 0.0402930
0.3387057 0.4007326 0.0500611
0.3985348 0.4053724 0.0615385
0.4551893 0.4109890 0.0727717
0.5128205 0.4158730 0.0854701
0.5748474 0.4234432 0.1013431
0.6373627 0.4312576 0.1186813
0.7008547 0.4429792 0.1404151
0.7636142 0.4578755 0.1636142
0.8271062 0.4761905 0.1904762
0.8796093 0.4930403 0.2170940
0.9020757 0.5018315 0.2300366
0.0451770 0.4488401 0.0173382
0.0796093 0.4485959 0.0222222
0.1199023 0.4507937 0.0273504
0.1672772 0.4517705 0.0322344
0.2229548 0.4527473 0.0395604
0.2830281 0.4539683 0.0490842
0.3416362 0.4588523 0.0583639
0.3982906 0.4632479 0.0708181
0.4549451 0.4683761 0.0832723
0.5135531 0.4713065 0.0949939
0.5731380 0.4759463 0.1098901
0.6368743 0.4825397 0.1269841
0.6984127 0.4908425 0.1455434
0.7601954 0.5015873 0.1680098
0.8246642 0.5162393 0.1953602
0.8808303 0.5318682 0.2234432
0.9189255 0.5438340 0.2478632
0.0520147 0.5091575 0.0246642
0.0898657 0.5086691 0.0297924
0.1294261 0.5074481 0.0344322
0.1726496 0.5074481 0.0398046
0.2275946 0.5084249 0.0478632
0.2862027 0.5103785 0.0598291
0.3438340 0.5133089 0.0695971
0.4002442 0.5152625 0.0800977
0.4554335 0.5189255 0.0923077
0.5125763 0.5221002 0.1028083
0.5731380 0.5262516 0.1169719
0.6329671 0.5323566 0.1340659
0.6967033 0.5384616 0.1526252
0.7579976 0.5477412 0.1741148
0.8205128 0.5619048 0.2009768
0.8744811 0.5755800 0.2266178
0.8979243 0.5811966 0.2400488
0.0615385 0.5760684 0.0368742
0.1028083 0.5763126 0.0434676
0.1396825 0.5763126 0.0488400
0.1846154 0.5763126 0.0554335
0.2356532 0.5763126 0.0622711
0.2898657 0.5731380 0.0715507
0.3470086 0.5721612 0.0803419
0.4068376 0.5748474 0.0908425
0.4588523 0.5804640 0.1010989
0.5108669 0.5858364 0.1128205
0.5716728 0.5885226 0.1262515
0.6329671 0.5916972 0.1428571
0.6952381 0.5975580 0.1611722
0.7577534 0.6058608 0.1814408
0.8185592 0.6163614 0.2061050
0.8735043 0.6273504 0.2341880
0.9123321 0.6332113 0.2608059
0.0708181 0.6407815 0.0551893
0.1169719 0.6442003 0.0630037
0.1543346 0.6446887 0.0686203
0.1953602 0.6444445 0.0739927
0.2439560 0.6424909 0.0800977
0.2981685 0.6420025 0.0879121
0.3521368 0.6410257 0.0967033
0.4097680 0.6434677 0.1054945
0.4627595 0.6451771 0.1150183
0.5159951 0.6456655 0.1257631
0.5733822 0.6481075 0.1384615
0.6310135 0.6498169 0.1526252
0.6945055 0.6527473 0.1709402
0.7557998 0.6583639 0.1907204
0.8163614 0.6671551 0.2153846
0.8654457 0.6735043 0.2383394
0.8793651 0.6757021 0.2463980
0.0857143 0.7015873 0.0783883
0.1323565 0.7023199 0.0852259
0.1689866 0.7001221 0.0888889
0.2070818 0.6991453 0.0935287
0.2556777 0.7001221 0.1001221
0.3067155 0.6998779 0.1079365
0.3601954 0.6986569 0.1152625
0.4139194 0.6984127 0.1233211
0.4639805 0.7010989 0.1326007
0.5172161 0.7015873 0.1431013
0.5755800 0.7025641 0.1555556
0.6324787 0.7032967 0.1682540
0.6932845 0.7067155 0.1853480
0.7531136 0.7101343 0.2043956
0.8148962 0.7164835 0.2283272
0.8630037 0.7208791 0.2503053
0.8761905 0.7223443 0.2573871
0.1032967 0.7496948 0.1006105
0.1484738 0.7494506 0.1067155
0.1841270 0.7492064 0.1103785
0.2219780 0.7531136 0.1172161
0.2661783 0.7545788 0.1240537
0.3137973 0.7543346 0.1321123
0.3682540 0.7528694 0.1374847
0.4200244 0.7511600 0.1457876
0.4700855 0.7479854 0.1511600
0.5213675 0.7543346 0.1641026
0.5755800 0.7557998 0.1753358
0.6339439 0.7509158 0.1858364
0.6932845 0.7555556 0.2043956
0.7526252 0.7584860 0.2222222
0.8129426 0.7616606 0.2446886
0.8639805 0.7660562 0.2698413
0.8781441 0.7631258 0.2761905
0.1115995 0.7704518 0.1140415
0.1579976 0.7682540 0.1191697
0.1960928 0.7719170 0.1225885
0.2407814 0.7960928 0.1418803
0.2642247 0.7995116 0.1482296
0.3189255 0.7975580 0.1614164
0.3804640 0.7953602 0.1614164
0.4268620 0.7924298 0.1748474
0.4783883 0.7719170 0.1650794
0.5313798 0.7904762 0.1836386
0.5704518 0.7921856 0.1926740
0.6310135 0.7746032 0.1990232
0.6954823 0.7936508 0.2332112
0.7611722 0.7956044 0.2446886
0.8141636 0.7978022 0.2661783
0.8681319 0.8061050 0.3006105
0.8783883 0.8083028 0.3076923
0.1264957 0.8148962 0.1562882
0.1758242 0.8083028 0.1572650
0.2280830 0.8026862 0.1455434
0.2481074 0.8068376 0.1482296
0.2649573 0.8068376 0.1521368
0.3257631 0.8048840 0.1667888
0.3838828 0.8041514 0.1677656
0.4358974 0.8083028 0.1892552
0.5115995 0.7992674 0.1873016
0.5391942 0.7997558 0.1904762
0.5692308 0.7997558 0.1978022
0.6271062 0.7987790 0.2200244
0.6942613 0.8041514 0.2424908
0.7611722 0.8024420 0.2490842
0.8144078 0.8034188 0.2698413
0.8705739 0.8158730 0.3096459
0.8888889 0.8329670 0.3326007
0.1416361 0.8634921 0.2078144
0.1636142 0.8551893 0.2002442
0.2305250 0.8136752 0.1540904
0.2488400 0.8078144 0.1484738
0.2710623 0.8080586 0.1526252
0.3587302 0.8122100 0.1711844
0.3904762 0.8175824 0.1821734
0.4466422 0.8390720 0.2241758
0.5152625 0.8144078 0.2019536
0.5396826 0.8019536 0.1924298
0.5699634 0.8014652 0.1995116
0.6327229 0.8100122 0.2319902
0.6935287 0.8134310 0.2507937
0.7533578 0.8095238 0.2537241
0.8131868 0.8053724 0.2715507
0.8744811 0.8273504 0.3221001
0.9113553 0.8705739 0.3743590
0.0139194 0.0156288 0.0317460
0.0356532 0.0202686 0.0361416
0.0927961 0.0251526 0.0490842
0.1628816 0.0300366 0.0639805
0.2192918 0.0363858 0.0727717
0.2832723 0.0468864 0.0832723
0.3426130 0.0632479 0.0908425
0.4046398 0.0776557 0.1015873
0.4637363 0.0913309 0.1118437
0.5260074 0.1059829 0.1230769
0.5929182 0.1230769 0.1382173
0.6551893 0.1431013 0.1555556
0.7184371 0.1670330 0.1765568
0.7787546 0.1938950 0.1995116
0.8341880 0.2241758 0.2239316
0.8778999 0.2559219 0.2468864
0.8849817 0.2615385 0.2512821
0.0178266 0.0336996 0.0368742
0.0412698 0.0380952 0.0383394
0.0869353 0.0493285 0.0471306
0.1460318 0.0612943 0.0610501
0.2097680 0.0683761 0.0669109
0.2752137 0.0778999 0.0774115
0.3387057 0.0891331 0.0881563
0.4014652 0.1008547 0.0993895
0.4625153 0.1125763 0.1098901
0.5245422 0.1257631 0.1213675
0.5892552 0.1428571 0.1367521
0.6522589 0.1633700 0.1543346
0.7150183 0.1873016 0.1748474
0.7765568 0.2151404 0.1973138
0.8332112 0.2454212 0.2217338
0.8800977 0.2749695 0.2461538
0.8910867 0.2827839 0.2527473
0.0207570 0.0820513 0.0366300
0.0451770 0.0854701 0.0395604
0.0898657 0.0927961 0.0481074
0.1455434 0.0996337 0.0598291
0.2073260 0.1091575 0.0681319
0.2715507 0.1191697 0.0776557
0.3365079 0.1294261 0.0879121
0.4004884 0.1396825 0.0981685
0.4617827 0.1501832 0.1086691
0.5223444 0.1623932 0.1206349
0.5855922 0.1777778 0.1355311
0.6493285 0.1963370 0.1531136
0.7123321 0.2180708 0.1728938
0.7748474 0.2439560 0.1946276
0.8334554 0.2730159 0.2192918
0.8791209 0.2996337 0.2429792
0.8903541 0.3069597 0.2498168
0.0227106 0.1357753 0.0371184
0.0507937 0.1404151 0.0424908
0.0959707 0.1452992 0.0498169
0.1484738 0.1528694 0.0586081
0.2092796 0.1609280 0.0673993
0.2727717 0.1684982 0.0764347
0.3372405 0.1770452 0.0854701
0.4007326 0.1860806 0.0952381
0.4600733 0.1956044 0.1062271
0.5194139 0.2065934 0.1191697
0.5824176 0.2207570 0.1343101
0.6461539 0.2373626 0.1514042
0.7098901 0.2568987 0.1706960
0.7728938 0.2803419 0.1929182
0.8332112 0.3074481 0.2178266
0.8805861 0.3323565 0.2415140
0.8967033 0.3406594 0.2503053
0.0280830 0.1968254 0.0395604
0.0568987 0.2017094 0.0446886
0.1010989 0.2061050 0.0510379
0.1536020 0.2117216 0.0583639
0.2119658 0.2192918 0.0659341
0.2744811 0.2253968 0.0742369
0.3387057 0.2317460 0.0832723
0.4007326 0.2393162 0.0932845
0.4590965 0.2476190 0.1050061
0.5172161 0.2571429 0.1177045
0.5799756 0.2688645 0.1328449
0.6442003 0.2830281 0.1499390
0.7076923 0.3001221 0.1689866
0.7709402 0.3208791 0.1912088
0.8319902 0.3452992 0.2166056
0.8864469 0.3704518 0.2437118
0.9313797 0.3902320 0.2693529
0.0356532 0.2620269 0.0407814
0.0625153 0.2637363 0.0461538
0.1052503 0.2673993 0.0512821
0.1577534 0.2720391 0.0571429
0.2161172 0.2774115 0.0639805
0.2761905 0.2832723 0.0720391
0.3387057 0.2893773 0.0818071
0.4002442 0.2954823 0.0925519
0.4578755 0.3020757 0.1040293
0.5159951 0.3101343 0.1169719
0.5782662 0.3201465 0.1318681
0.6420025 0.3328449 0.1487180
0.7054945 0.3479854 0.1677656
0.7689866 0.3667888 0.1899878
0.8305250 0.3880342 0.2153846
0.8874237 0.4119658 0.2437118
0.9355311 0.4349206 0.2715507
0.0427350 0.3267399 0.0424908
0.0678877 0.3272283 0.0473748
0.1098901 0.3306471 0.0515263
0.1611722 0.3345543 0.0571429
0.2188034 0.3382173 0.0642247
0.2791209 0.3416362 0.0730159
0.3396825 0.3474970 0.0835165
0.3997558 0.3528694 0.0937729
0.4576313 0.3577534 0.1050061
0.5152625 0.3643468 0.1174603
0.5770452 0.3728938 0.1321123
0.6402931 0.3838828 0.1487180
0.7032967 0.3968254 0.1677656
0.7665446 0.4126984 0.1897436
0.8290598 0.4317460 0.2148962
0.8857143 0.4529915 0.2424908
0.9301587 0.4720391 0.2683761
0.0505495 0.3904762 0.0446886
0.0752137 0.3904762 0.0493285
0.1155067 0.3931624 0.0542125
0.1655678 0.3953602 0.0605617
0.2224664 0.3973138 0.0681319
0.2820513 0.4002442 0.0764347
0.3416362 0.4041514 0.0866911
0.4002442 0.4087912 0.0971917
0.4568987 0.4126984 0.1081807
0.5142857 0.4180708 0.1196581
0.5760684 0.4258852 0.1343101
0.6390721 0.4349206 0.1509158
0.7025641 0.4456654 0.1697192
0.7648352 0.4593407 0.1909646
0.8278388 0.4761905 0.2158730
0.8840049 0.4949939 0.2415140
0.9238095 0.5133089 0.2615385
0.0571429 0.4500611 0.0490842
0.0837607 0.4490843 0.0539683
0.1225885 0.4500611 0.0593407
0.1709402 0.4517705 0.0656899
0.2261294 0.4539683 0.0732601
0.2847375 0.4561661 0.0818071
0.3435898 0.4590965 0.0910867
0.4019536 0.4630037 0.1018315
0.4561661 0.4671551 0.1125763
0.5137973 0.4713065 0.1240537
0.5753358 0.4769231 0.1374847
0.6378511 0.4837607 0.1531136
0.7006105 0.4918193 0.1711844
0.7623932 0.5035409 0.1921856
0.8256410 0.5179487 0.2175824
0.8830281 0.5355312 0.2437118
0.9252747 0.5523810 0.2666667
0.0637363 0.5106227 0.0564103
0.0937729 0.5094017 0.0615385
0.1316239 0.5096459 0.0661783
0.1780220 0.5111111 0.0727717
0.2310134 0.5128205 0.0803419
0.2881563 0.5137973 0.0888889
0.3467644 0.5155067 0.0976801
0.4043956 0.5169719 0.1076923
0.4576313 0.5206349 0.1179487
0.5130647 0.5250306 0.1286935
0.5746032 0.5294262 0.1421245
0.6368743 0.5340660 0.1579976
0.6984127 0.5401710 0.1750916
0.7604396 0.5504274 0.1960928
0.8229548 0.5641026 0.2210012
0.8805861 0.5785104 0.2468864
0.9216117 0.5890110 0.2673993
0.0717949 0.5758242 0.0669109
0.1062271 0.5746032 0.0727717
0.1431013 0.5741148 0.0776557
0.1877900 0.5760684 0.0840049
0.2385836 0.5768010 0.0910867
0.2927961 0.5770452 0.0989011
0.3489622 0.5770452 0.1067155
0.4065934 0.5780220 0.1159951
0.4590965 0.5802198 0.1250305
0.5135531 0.5843712 0.1362637
0.5733822 0.5890110 0.1496948
0.6356533 0.5921856 0.1653236
0.6976801 0.5975580 0.1821734
0.7592186 0.6053724 0.2021978
0.8202686 0.6153846 0.2258852
0.8781441 0.6273504 0.2522589
0.9186813 0.6349207 0.2730159
0.0781441 0.6412699 0.0810745
0.1199023 0.6415141 0.0879121
0.1565324 0.6417583 0.0930403
0.1980464 0.6420025 0.0981685
0.2463980 0.6415141 0.1042735
0.2998779 0.6415141 0.1120879
0.3543346 0.6410257 0.1196581
0.4107448 0.6427351 0.1279609
0.4632479 0.6434677 0.1369963
0.5172161 0.6442003 0.1472528
0.5736264 0.6466423 0.1592186
0.6329671 0.6500611 0.1738706
0.6954823 0.6532357 0.1907204
0.7562882 0.6588523 0.2100122
0.8175824 0.6666667 0.2332112
0.8688645 0.6742369 0.2559219
0.8879121 0.6774115 0.2659341
0.0893773 0.7035409 0.1003663
0.1357753 0.7028083 0.1069597
0.1714286 0.7023199 0.1115995
0.2107448 0.7018315 0.1162393
0.2578755 0.7015873 0.1221001
0.3089133 0.7013431 0.1294261
0.3619048 0.7006105 0.1367521
0.4153846 0.7010989 0.1448108
0.4669109 0.7015873 0.1533578
0.5196581 0.7020757 0.1626374
0.5760684 0.7030525 0.1743590
0.6336997 0.7047619 0.1877900
0.6935287 0.7074481 0.2036630
0.7543346 0.7108669 0.2222222
0.8156288 0.7162393 0.2451770
0.8695971 0.7221001 0.2695971
0.9040293 0.7262515 0.2888889
0.1052503 0.7601954 0.1242979
0.1538462 0.7587302 0.1299145
0.1870574 0.7579976 0.1330891
0.2258852 0.7589744 0.1389499
0.2693529 0.7587302 0.1443224
0.3177045 0.7577534 0.1506716
0.3694750 0.7575092 0.1575092
0.4212454 0.7560440 0.1648352
0.4708181 0.7545788 0.1721612
0.5218560 0.7575092 0.1824176
0.5775336 0.7577534 0.1934066
0.6349207 0.7565324 0.2053724
0.6945055 0.7587302 0.2217338
0.7528694 0.7616606 0.2398046
0.8131868 0.7638584 0.2608059
0.8693529 0.7663004 0.2859585
0.9047619 0.7570208 0.3010989
0.1221001 0.8029304 0.1482296
0.1714286 0.7975580 0.1521368
0.1990232 0.7968254 0.1506716
0.2393162 0.8014652 0.1592186
0.2735043 0.8021978 0.1641026
0.3225885 0.8004884 0.1714286
0.3807082 0.8000000 0.1780220
0.4268620 0.7987790 0.1860806
0.4737485 0.7931624 0.1892552
0.5247864 0.7963370 0.2000000
0.5743590 0.7956044 0.2085470
0.6293041 0.7936508 0.2214896
0.6937729 0.7990232 0.2432234
0.7536020 0.8012210 0.2605617
0.8100122 0.8012210 0.2786325
0.8688645 0.8087912 0.3079365
0.8884005 0.8136752 0.3218559
0.1304029 0.8263736 0.1680098
0.1721612 0.8192918 0.1689866
0.2051282 0.8087912 0.1582418
0.2424908 0.8100122 0.1643468
0.2771673 0.8141636 0.1731380
0.3328449 0.8166056 0.1843712
0.3851038 0.8168498 0.1907204
0.4310134 0.8153846 0.1992674
0.4774115 0.8083028 0.2004884
0.5260074 0.8039072 0.2048840
0.5743590 0.8026862 0.2126984
0.6319903 0.8078144 0.2329670
0.6915751 0.8148962 0.2539683
0.7438340 0.8156288 0.2676435
0.8087912 0.8095238 0.2835165
0.8742369 0.8285714 0.3247863
0.9098901 0.8681319 0.3721612
0.1421245 0.8654457 0.2097680
0.1587302 0.8578755 0.2039072
0.2053724 0.8185592 0.1680098
0.2444444 0.8144078 0.1694750
0.2832723 0.8200244 0.1797314
0.3631258 0.8454213 0.2173382
0.3919414 0.8493285 0.2256410
0.4378510 0.8488401 0.2358974
0.4671551 0.8393162 0.2305250
0.5242980 0.8129426 0.2139194
0.5782662 0.8105006 0.2212454
0.6561661 0.8378510 0.2669109
0.6881563 0.8449329 0.2813187
0.7174603 0.8410257 0.2842491
0.8087912 0.8195360 0.2925519
0.8783883 0.8503053 0.3484738
0.9181929 0.8862027 0.3919414
0.0180708 0.0244200 0.0822955
0.0461538 0.0307692 0.0854701
0.0932845 0.0405372 0.0884005
0.1645910 0.0444444 0.1108669
0.2068376 0.0410256 0.1235653
0.2891331 0.0517705 0.1369963
0.3438340 0.0669109 0.1462760
0.4070818 0.0818071 0.1553114
0.4666667 0.0952381 0.1616606
0.5304030 0.1128205 0.1687424
0.5968254 0.1316239 0.1802198
0.6590965 0.1506716 0.1953602
0.7218559 0.1738706 0.2139194
0.7829060 0.2007326 0.2349206
0.8410257 0.2327228 0.2590965
0.8847375 0.2608059 0.2835165
0.8986569 0.2708181 0.2925519
0.0214896 0.0481074 0.0766789
0.0485958 0.0529915 0.0796093
0.0932845 0.0642247 0.0859585
0.1533578 0.0717949 0.1013431
0.2129426 0.0774115 0.1140415
0.2818071 0.0874237 0.1267399
0.3433456 0.0979243 0.1399267
0.4053724 0.1096459 0.1482296
0.4661783 0.1201465 0.1560440
0.5282052 0.1340659 0.1655678
0.5921856 0.1511600 0.1787546
0.6549451 0.1702076 0.1946276
0.7177045 0.1934066 0.2134310
0.7797314 0.2205128 0.2339438
0.8402930 0.2520147 0.2576313
0.8910867 0.2835165 0.2844933
0.9284493 0.3111111 0.3101343
0.0275946 0.0910867 0.0825397
0.0537241 0.0947497 0.0859585
0.0979243 0.1001221 0.0935287
0.1509158 0.1081807 0.1028083
0.2144078 0.1184371 0.1142857
0.2783883 0.1277167 0.1252747
0.3416362 0.1372405 0.1355311
0.4051282 0.1470086 0.1443224
0.4661783 0.1570208 0.1536020
0.5255190 0.1692308 0.1648352
0.5882784 0.1846154 0.1780220
0.6510379 0.2019536 0.1934066
0.7140415 0.2229548 0.2112332
0.7768010 0.2481074 0.2310134
0.8388278 0.2776557 0.2544567
0.8935287 0.3091575 0.2810745
0.9330891 0.3352869 0.3064713
0.0307692 0.1421245 0.0862027
0.0578755 0.1457876 0.0896215
0.1037851 0.1501832 0.0969475
0.1548230 0.1582418 0.1040293
0.2156288 0.1663004 0.1123321
0.2788767 0.1741148 0.1221001
0.3418804 0.1821734 0.1306471
0.4051282 0.1907204 0.1401709
0.4637363 0.2002442 0.1496948
0.5221002 0.2114774 0.1611722
0.5848596 0.2253968 0.1750916
0.6481075 0.2415140 0.1904762
0.7113553 0.2608059 0.2080586
0.7748474 0.2842491 0.2273504
0.8373626 0.3115995 0.2510379
0.8947497 0.3416362 0.2778999
0.9330891 0.3660562 0.3001221
0.0329670 0.2031746 0.0852259
0.0627595 0.2070818 0.0874237
0.1076923 0.2117216 0.0940171
0.1599512 0.2170940 0.1015873
0.2178266 0.2244200 0.1089133
0.2798535 0.2305250 0.1172161
0.3428572 0.2366300 0.1260073
0.4043956 0.2437118 0.1360195
0.4617827 0.2522589 0.1460318
0.5196581 0.2615385 0.1579976
0.5821734 0.2730159 0.1719170
0.6454213 0.2869353 0.1877900
0.7086691 0.3035409 0.2046398
0.7724054 0.3240537 0.2246642
0.8356532 0.3489622 0.2490842
0.8957265 0.3775336 0.2764347
0.9369963 0.4004884 0.3010989
0.0395604 0.2669109 0.0849817
0.0676435 0.2688645 0.0859585
0.1106227 0.2722833 0.0915751
0.1626374 0.2764347 0.0981685
0.2207570 0.2818071 0.1050061
0.2810745 0.2871795 0.1130647
0.3423688 0.2932845 0.1228327
0.4036630 0.2991453 0.1333333
0.4608059 0.3054945 0.1438340
0.5184371 0.3133089 0.1553114
0.5799756 0.3233211 0.1687424
0.6432235 0.3357753 0.1843712
0.7067155 0.3506716 0.2017094
0.7699634 0.3689866 0.2214896
0.8334554 0.3916972 0.2463980
0.8952381 0.4180708 0.2754579
0.9374847 0.4398046 0.3008547
0.0463980 0.3308913 0.0837607
0.0725275 0.3321123 0.0852259
0.1145299 0.3355311 0.0898657
0.1658120 0.3387057 0.0962149
0.2229548 0.3418804 0.1040293
0.2832723 0.3455434 0.1125763
0.3428572 0.3511600 0.1225885
0.4031746 0.3565324 0.1326007
0.4603175 0.3609280 0.1431013
0.5179487 0.3670330 0.1540904
0.5792430 0.3755800 0.1672772
0.6415141 0.3858364 0.1826618
0.7047619 0.3987790 0.2002442
0.7677656 0.4151404 0.2205128
0.8317460 0.4349206 0.2446886
0.8925519 0.4576313 0.2739927
0.9338217 0.4761905 0.2986569
0.0556777 0.3946276 0.0842491
0.0798535 0.3946276 0.0862027
0.1206349 0.3970696 0.0913309
0.1706960 0.3992674 0.0976801
0.2266178 0.4014652 0.1057387
0.2854701 0.4048840 0.1142857
0.3448108 0.4080586 0.1238095
0.4034188 0.4124542 0.1333333
0.4590965 0.4168498 0.1431013
0.5167277 0.4222222 0.1540904
0.5782662 0.4293040 0.1677656
0.6402931 0.4383394 0.1829060
0.7030525 0.4490843 0.2000000
0.7653236 0.4627595 0.2195360
0.8290598 0.4796093 0.2437118
0.8901099 0.4993895 0.2722833
0.9313797 0.5159951 0.2979243
0.0647131 0.4542125 0.0876679
0.0893773 0.4532357 0.0910867
0.1282051 0.4547009 0.0957265
0.1760684 0.4566545 0.1020757
0.2305250 0.4583639 0.1098901
0.2884005 0.4608059 0.1179487
0.3467644 0.4627595 0.1269841
0.4056166 0.4656899 0.1362637
0.4593407 0.4700855 0.1460318
0.5157509 0.4744811 0.1567766
0.5770452 0.4798535 0.1699634
0.6385837 0.4866911 0.1846154
0.7015873 0.4957265 0.2014652
0.7633700 0.5079365 0.2210012
0.8268620 0.5223444 0.2449328
0.8874237 0.5401710 0.2735043
0.9286935 0.5550672 0.2979243
0.0732601 0.5135531 0.0947497
0.0996337 0.5125763 0.0984127
0.1367521 0.5135531 0.1030525
0.1831502 0.5152625 0.1091575
0.2356532 0.5164835 0.1164835
0.2920635 0.5181929 0.1242979
0.3494506 0.5194139 0.1328449
0.4070818 0.5213675 0.1418803
0.4612943 0.5235654 0.1516484
0.5155067 0.5279610 0.1623932
0.5758242 0.5321124 0.1753358
0.6376069 0.5374848 0.1897436
0.6993895 0.5440782 0.2056166
0.7611722 0.5540904 0.2246642
0.8241758 0.5663004 0.2481074
0.8849817 0.5814408 0.2761905
0.9262515 0.5931624 0.2986569
0.0840049 0.5770452 0.1062271
0.1120879 0.5763126 0.1103785
0.1479854 0.5765568 0.1150183
0.1924298 0.5772894 0.1208791
0.2427350 0.5782662 0.1277167
0.2969475 0.5792430 0.1350427
0.3526252 0.5797314 0.1428571
0.4092796 0.5807082 0.1516484
0.4627595 0.5819292 0.1606838
0.5174603 0.5843712 0.1709402
0.5755800 0.5885226 0.1831502
0.6363859 0.5926740 0.1970696
0.6981685 0.5978022 0.2124542
0.7594628 0.6053724 0.2307692
0.8214896 0.6151404 0.2537241
0.8815629 0.6273504 0.2808303
0.9235653 0.6376069 0.3025641
0.0932845 0.6415141 0.1203907
0.1255189 0.6405373 0.1250305
0.1601954 0.6400489 0.1291819
0.2021978 0.6395605 0.1343101
0.2507937 0.6395605 0.1406593
0.3030525 0.6400489 0.1472528
0.3577534 0.6402931 0.1550672
0.4129426 0.6407815 0.1633700
0.4652015 0.6417583 0.1719170
0.5189255 0.6427351 0.1814408
0.5763126 0.6446887 0.1929182
0.6351649 0.6485959 0.2063492
0.6962149 0.6525031 0.2217338
0.7572650 0.6576313 0.2395604
0.8188034 0.6649573 0.2615385
0.8769231 0.6742369 0.2871795
0.9157509 0.6815629 0.3079365
0.1025641 0.7045177 0.1374847
0.1411477 0.7028083 0.1431013
0.1753358 0.7025641 0.1472528
0.2153846 0.7020757 0.1516484
0.2620269 0.7018315 0.1575092
0.3118437 0.7015873 0.1641026
0.3648352 0.7013431 0.1714286
0.4180708 0.7013431 0.1792430
0.4688645 0.7015873 0.1870574
0.5208791 0.7020757 0.1956044
0.5775336 0.7025641 0.2063492
0.6356533 0.7040293 0.2188034
0.6942613 0.7072039 0.2334554
0.7550672 0.7108669 0.2510379
0.8161172 0.7157509 0.2722833
0.8739927 0.7238095 0.2979243
