Programming/LUT/Fuji_Pro Neg Hi.cube
TITLE "Pro Neg Hi"
LUT_3D_SIZE 5
0.0009768 0.0007326 0.0002442
0.1885226 0.0083028 0.0161172
0.4747253 0.0407814 0.0405372
0.7496948 0.1313797 0.1052503
0.9257631 0.2759463 0.2039072
0.0090354 0.1448108 0.0000000
0.1728938 0.1746032 0.0021978
0.4781441 0.2107448 0.0073260
0.7387058 0.2876679 0.0547009
0.9697192 0.3946276 0.2327228
0.0202686 0.4547009 0.0000000
0.1982906 0.4571429 0.0000000
0.4759463 0.4686203 0.0029304
0.7286935 0.4901099 0.0554335
0.9655678 0.5421246 0.2234432
0.0615385 0.7111111 0.0017094
0.2485958 0.7047619 0.0046398
0.4825397 0.6998779 0.0207570
0.7189255 0.7028083 0.0998779
0.9162393 0.7177045 0.2109890
0.1277167 0.8788767 0.1211233
0.2698413 0.8161172 0.0398046
0.5301588 0.8168498 0.1045177
0.7140415 0.8129426 0.1738706
0.9553114 0.8739927 0.3142857
0.0068376 0.0144078 0.1750916
0.1699634 0.0515263 0.2134310
0.4859585 0.0871795 0.2615385
0.7462760 0.1623932 0.3172161
0.9819292 0.3191697 0.4017094
0.0192918 0.1797314 0.1726496
0.1997558 0.2017094 0.1987790
0.4825397 0.2344322 0.2349206
0.7330891 0.3064713 0.2901099
0.9846154 0.4212454 0.3907204
0.0371184 0.4678877 0.1504274
0.2188034 0.4688645 0.1675214
0.4776557 0.4754579 0.2014652
0.7228327 0.4991453 0.2630037
0.9770452 0.5592186 0.3680098
0.0918193 0.7181929 0.1726496
0.2630037 0.7101343 0.1846154
0.4844933 0.7042735 0.2107448
0.7140415 0.7079365 0.2598291
0.9680098 0.7328449 0.3555556
0.1936508 0.9345543 0.2673993
0.3347985 0.9323565 0.2857143
0.5047619 0.8862027 0.2586081
0.7128205 0.8778999 0.2981685
0.9633700 0.8847375 0.3848596
0.0507937 0.0876679 0.5094017
0.2512821 0.1128205 0.5838828
0.4588523 0.1223443 0.5741148
0.7611722 0.2366300 0.6368743
0.9887668 0.3643468 0.6241758
0.0395604 0.2356532 0.5169719
0.2544567 0.2527473 0.5355312
0.4962149 0.2837607 0.5431014
0.7304029 0.3435898 0.5599512
0.9829060 0.4488401 0.5987790
0.0568987 0.4896215 0.4747253
0.2688645 0.4896215 0.4813187
0.4930403 0.4949939 0.4937729
0.7225885 0.5162393 0.5133089
0.9780220 0.5780220 0.5648352
0.1228327 0.7238095 0.4446886
0.3057387 0.7157509 0.4490843
0.4998779 0.7098901 0.4586081
0.7152625 0.7135531 0.4788767
0.9699634 0.7428572 0.5421246
0.2290598 0.9626374 0.4488401
0.3719170 0.9531136 0.4529915
0.5308914 0.9413919 0.4600733
0.7211233 0.9323565 0.4830281
0.9582418 0.9401709 0.5536020
0.2385836 0.2593407 0.8332112
0.3391941 0.2307692 0.8405373
0.5433456 0.2468864 0.8529915
0.7501832 0.3086691 0.8588523
0.9858364 0.4227106 0.8583639
0.1194139 0.3296703 0.8175824
0.3523810 0.3418804 0.8192918
0.5350428 0.3645910 0.8207570
0.7416362 0.4065934 0.8210012
0.9831502 0.4996337 0.8341880
0.1199023 0.5286936 0.7667888
0.3582418 0.5262516 0.7682540
0.5321124 0.5306472 0.7704518
0.7340659 0.5509158 0.7768010
0.9799756 0.6134310 0.7968254
0.1709402 0.7396826 0.7184371
0.3785104 0.7296703 0.7184371
0.5362638 0.7260073 0.7208791
0.7277167 0.7294261 0.7279609
0.9724054 0.7631258 0.7611722
0.2766789 0.9733822 0.6879121
0.4346764 0.9643468 0.6874237
0.5704518 0.9570208 0.6888889
0.7384616 0.9487180 0.6991453
0.9650794 0.9553114 0.7489622
0.5030525 0.5269842 1.0000000
0.5164835 0.5030525 1.0000000
0.6515263 0.5064713 1.0000000
0.8200244 0.5120879 1.0000000
0.9934066 0.5423688 1.0000000
0.4473749 0.5115995 1.0000000
0.5506716 0.5240538 1.0000000
0.6659341 0.5355312 1.0000000
0.8148962 0.5584860 1.0000000
0.9909646 0.6000000 1.0000000
0.3291819 0.6444445 0.9980464
0.5538462 0.6459097 0.9980464
0.6617827 0.6476191 0.9978022
0.8122100 0.6676435 0.9978022
0.9863248 0.6888889 0.9980464
0.3418804 0.8146520 0.9916972
0.5682540 0.8051282 0.9914530
0.6742369 0.8051282 0.9914530
0.8148962 0.8102564 0.9909646
0.9789988 0.8136752 0.9934066
0.3890110 0.9909646 0.9733822
0.5697192 0.9858364 0.9709402
0.6700855 0.9811966 0.9682540
0.8048840 0.9750916 0.9670330
0.9780220 0.9777778 0.9765568
