Programming/LUT/Fuji_Velvia.cube
TITLE "Velvia"
LUT_3D_SIZE 9
0.0002442 0.0000000 0.0000000
0.0647131 0.0000000 0.0000000
0.2512821 0.0000000 0.0000000
0.4424908 0.0000000 0.0000000
0.6134310 0.0019536 0.0000000
0.7792430 0.0114774 0.0000000
0.9164835 0.0695971 0.0000000
0.9965812 0.1619048 0.0051282
1.0000000 0.2319902 0.0097680
0.0000000 0.0332112 0.0000000
0.0332112 0.0402930 0.0000000
0.1970696 0.0434676 0.0000000
0.4131868 0.0483516 0.0000000
0.6002442 0.0600733 0.0000000
0.7579976 0.0925519 0.0000000
0.8818071 0.1570208 0.0000000
0.9877900 0.2332112 0.0021978
1.0000000 0.2713065 0.0073260
0.0000000 0.1760684 0.0000000
0.0244200 0.1887668 0.0000000
0.1728938 0.1982906 0.0000000
0.3892552 0.2009768 0.0000000
0.5697192 0.2114774 0.0000000
0.7130647 0.2368742 0.0000000
0.8427351 0.2781441 0.0000000
0.9714286 0.3313797 0.0007326
1.0000000 0.3694750 0.0410256
0.0000000 0.3816850 0.0000000
0.0148962 0.3848596 0.0000000
0.1472528 0.3868132 0.0000000
0.3477412 0.3785104 0.0000000
0.5233212 0.3758242 0.0000000
0.6678877 0.3853480 0.0000000
0.8026862 0.4048840 0.0000000
0.9457875 0.4332112 0.0007326
0.9990232 0.4544567 0.0190476
0.0000000 0.5645910 0.0000000
0.0148962 0.5597070 0.0000000
0.1262515 0.5428572 0.0000000
0.3155067 0.5247864 0.0000000
0.4820513 0.5162393 0.0000000
0.6283273 0.5096459 0.0000000
0.7677656 0.5123321 0.0000000
0.9201465 0.5228328 0.0009768
0.9958486 0.5345544 0.0246642
0.0019536 0.7072039 0.0000000
0.0212454 0.6969475 0.0000000
0.1211233 0.6769231 0.0000000
0.2910867 0.6468865 0.0000000
0.4515263 0.6349207 0.0000000
0.5916972 0.6268620 0.0000000
0.7330891 0.6205128 0.0000000
0.8884005 0.6219780 0.0031746
0.9877900 0.6219780 0.0454212
0.0053724 0.8300366 0.0000000
0.0344322 0.8166056 0.0000000
0.1262515 0.7968254 0.0000000
0.2749695 0.7704518 0.0000000
0.4217338 0.7528694 0.0000000
0.5633700 0.7382174 0.0000000
0.7006105 0.7277167 0.0004884
0.8593407 0.7216117 0.0124542
0.9492064 0.7179487 0.0358974
0.0119658 0.8874237 0.0004884
0.0556777 0.8805861 0.0000000
0.1206349 0.8937729 0.0000000
0.2744811 0.8673993 0.0000000
0.4166056 0.8239316 0.0000000
0.5267400 0.8344322 0.0017094
0.6752137 0.8219780 0.0210012
0.8358974 0.8158730 0.0437118
0.9333333 0.8224664 0.0864469
0.0151404 0.9540904 0.0586081
0.0849817 0.9103785 0.0070818
0.1284493 0.9006105 0.0017094
0.2803419 0.8932845 0.0166056
0.4473749 0.8686203 0.0139194
0.5223444 0.8459097 0.0039072
0.6649573 0.8481075 0.0351648
0.8322344 0.8258852 0.0488400
0.9641026 0.9081807 0.1396825
0.0017094 0.0007326 0.0483516
0.0515263 0.0034188 0.0393162
0.2210012 0.0017094 0.0632479
0.4424908 0.0014652 0.0656899
0.6158730 0.0029304 0.0559219
0.7831502 0.0168498 0.0412698
0.9137973 0.0781441 0.0517705
0.9960928 0.1699634 0.0879121
1.0000000 0.2212454 0.1272283
0.0014652 0.0388278 0.0380952
0.0449328 0.0437118 0.0383394
0.2117216 0.0503053 0.0388278
0.4229548 0.0537241 0.0354090
0.6041514 0.0661783 0.0283272
0.7531136 0.0993895 0.0271062
0.8769231 0.1584860 0.0368742
0.9873016 0.2358974 0.0683761
1.0000000 0.3045177 0.1343101
0.0004884 0.1885226 0.0178266
0.0339438 0.1978022 0.0166056
0.1860806 0.2053724 0.0136752
0.3951160 0.2063492 0.0097680
0.5680098 0.2166056 0.0090354
0.7067155 0.2400488 0.0107448
0.8358974 0.2788767 0.0180708
0.9682540 0.3311355 0.0478632
1.0000000 0.3804640 0.1155067
0.0000000 0.3909646 0.0043956
0.0188034 0.3938950 0.0036630
0.1538462 0.3882784 0.0031746
0.3504274 0.3802198 0.0029304
0.5206349 0.3765568 0.0036630
0.6620269 0.3843712 0.0046398
0.7960928 0.4031746 0.0114774
0.9409035 0.4324786 0.0373626
1.0000000 0.4605617 0.1084249
0.0000000 0.5641026 0.0017094
0.0180708 0.5577534 0.0017094
0.1343101 0.5409036 0.0017094
0.3186813 0.5213675 0.0017094
0.4815629 0.5115995 0.0021978
0.6244200 0.5076923 0.0036630
0.7626374 0.5120879 0.0097680
0.9147741 0.5245422 0.0378510
0.9975580 0.5404152 0.1054945
0.0034188 0.6984127 0.0021978
0.0251526 0.6881563 0.0021978
0.1282051 0.6688645 0.0021978
0.2937729 0.6456655 0.0021978
0.4510379 0.6290599 0.0029304
0.5902320 0.6205128 0.0058608
0.7301587 0.6151404 0.0156288
0.8871795 0.6161172 0.0515263
0.9936508 0.6210012 0.1108669
0.0080586 0.8212454 0.0087912
0.0410256 0.8078144 0.0092796
0.1338217 0.7880342 0.0087912
0.2786325 0.7643468 0.0092796
0.4239316 0.7465202 0.0117216
0.5606838 0.7323565 0.0175824
0.6969475 0.7240537 0.0354090
0.8576313 0.7174603 0.0744811
0.9868132 0.7211233 0.1277167
0.0163614 0.9186813 0.0368742
0.0612943 0.9123321 0.0349206
0.1443224 0.9076923 0.0390720
0.2695971 0.8852259 0.0346764
0.4004884 0.8610501 0.0351648
0.5335776 0.8473749 0.0481074
0.6649573 0.8412699 0.0698413
0.8236874 0.8317460 0.1025641
0.9724054 0.8444445 0.1428571
0.0166056 0.9636142 0.0776557
0.0708181 0.9604396 0.0879121
0.1589744 0.9677656 0.0967033
0.2661783 0.9543346 0.0673993
0.3633700 0.9272283 0.0656899
0.5260074 0.9074481 0.0927961
0.6368743 0.9157509 0.0925519
0.8544567 0.8893773 0.1247863
0.9699634 0.9338217 0.1626374
0.0041514 0.0007326 0.2427350
0.0507937 0.0048840 0.2837607
0.2126984 0.0102564 0.2644689
0.4608059 0.0029304 0.2778999
0.6163614 0.0163614 0.2710623
0.7770452 0.0224664 0.2617827
0.8930403 0.0927961 0.2659341
0.9924298 0.1841270 0.2830281
1.0000000 0.2627595 0.2874237
0.0031746 0.0529915 0.2358974
0.0647131 0.0627595 0.2415140
0.2253968 0.0654457 0.2415140
0.4358974 0.0652015 0.2432234
0.6039072 0.0769231 0.2402930
0.7391942 0.1108669 0.2398046
0.8627595 0.1648352 0.2498168
0.9826618 0.2412698 0.2608059
1.0000000 0.3123321 0.2854701
0.0029304 0.2004884 0.2021978
0.0476190 0.2053724 0.2036630
0.2048840 0.2061050 0.2026862
0.4029304 0.2051282 0.1956044
0.5633700 0.2151404 0.1938950
0.6969475 0.2393162 0.1951160
0.8236874 0.2796093 0.2043956
0.9609280 0.3323565 0.2278388
1.0000000 0.3851038 0.2622711
0.0036630 0.3924298 0.1543346
0.0341880 0.3929182 0.1487180
0.1721612 0.3833944 0.1440782
0.3582418 0.3738706 0.1387057
0.5181929 0.3731380 0.1431013
0.6542125 0.3824176 0.1506716
0.7860806 0.4007326 0.1692308
0.9338217 0.4297924 0.2017094
0.9997558 0.4615385 0.2444444
0.0039072 0.5555556 0.1179487
0.0307692 0.5465202 0.1150183
0.1518926 0.5291820 0.1133089
0.3279609 0.5118437 0.1118437
0.4813187 0.5035409 0.1172161
0.6195360 0.4998779 0.1296703
0.7548230 0.5064713 0.1499390
0.9091575 0.5201465 0.1875458
0.9975580 0.5387058 0.2315018
0.0065934 0.6888889 0.1108669
0.0390720 0.6781441 0.1091575
0.1455434 0.6566545 0.1064713
0.3047619 0.6361417 0.1069597
0.4527473 0.6207570 0.1118437
0.5887668 0.6146520 0.1245421
0.7252747 0.6112332 0.1462760
0.8832723 0.6129426 0.1811966
0.9946276 0.6217338 0.2246642
0.0134310 0.8107448 0.1267399
0.0522589 0.7990232 0.1235653
0.1465202 0.7792430 0.1199023
0.2876679 0.7579976 0.1186813
0.4266178 0.7411478 0.1233211
0.5594628 0.7291819 0.1350427
0.6932845 0.7216117 0.1538462
0.8542125 0.7167277 0.1836386
0.9897436 0.7199023 0.2224664
0.0271062 0.9211233 0.1594628
0.0725275 0.9206349 0.1560440
0.1565324 0.9103785 0.1511600
0.2783883 0.8920635 0.1482296
0.4036630 0.8761905 0.1501832
0.5294262 0.8627595 0.1572650
0.6617827 0.8520147 0.1699634
0.8205128 0.8466423 0.1904762
0.9787546 0.8515263 0.2214896
0.0402930 0.9885226 0.2134310
0.0925519 0.9926740 0.2124542
0.1682540 0.9934066 0.2158730
0.2778999 0.9694750 0.1709402
0.3934066 0.9550672 0.1665446
0.5133089 0.9462759 0.1716728
0.6427351 0.9326007 0.1833944
0.8083028 0.9221001 0.1985348
0.9699634 0.9199023 0.2256410
0.0041514 0.0017094 0.4693529
0.0903541 0.0170940 0.4901099
0.2583639 0.0085470 0.5518926
0.4383394 0.0148962 0.5943834
0.6324787 0.0268620 0.5133089
0.7440782 0.0764347 0.5074481
0.8776557 0.1196581 0.5035409
0.9894994 0.2021978 0.4671551
1.0000000 0.2793651 0.4666667
0.0085470 0.0666667 0.4837607
0.0940171 0.0744811 0.4884005
0.2605617 0.0744811 0.5115995
0.4488401 0.0764347 0.5157509
0.6039072 0.0923077 0.4884005
0.7262515 0.1274725 0.4776557
0.8495727 0.1814408 0.4588523
0.9760684 0.2510379 0.4434676
1.0000000 0.3213675 0.4434676
0.0056166 0.2139194 0.4615385
0.0730159 0.2151404 0.4615385
0.2322344 0.2134310 0.4559219
0.4129426 0.2148962 0.4417582
0.5606838 0.2275946 0.4278388
0.6886447 0.2505495 0.4158730
0.8134310 0.2857143 0.4100122
0.9521368 0.3352869 0.4102564
1.0000000 0.3907204 0.4134310
0.0051282 0.3995116 0.4021978
0.0539683 0.3929182 0.3963370
0.2000000 0.3802198 0.3819292
0.3726496 0.3731380 0.3741148
0.5206349 0.3728938 0.3663004
0.6500611 0.3814408 0.3650794
0.7787546 0.4007326 0.3653236
0.9269841 0.4307692 0.3731380
0.9987790 0.4652015 0.3880342
0.0095238 0.5470086 0.3516484
0.0561661 0.5377290 0.3431014
0.1811966 0.5199023 0.3352869
0.3440782 0.5035409 0.3272283
0.4871795 0.4984127 0.3242979
0.6190476 0.4971917 0.3264957
0.7494506 0.5035409 0.3323565
0.9047619 0.5167277 0.3467644
0.9973138 0.5382174 0.3689866
0.0156288 0.6788767 0.3181929
0.0642247 0.6649573 0.3108669
0.1719170 0.6451771 0.3037851
0.3211233 0.6261294 0.2986569
0.4612943 0.6134310 0.2984127
0.5897436 0.6080586 0.3010989
0.7211233 0.6063492 0.3111111
0.8805861 0.6092796 0.3262515
0.9946276 0.6202686 0.3506716
0.0227106 0.7965812 0.3052503
0.0759463 0.7843712 0.2974359
0.1719170 0.7663004 0.2913309
0.3059829 0.7465202 0.2862027
0.4366300 0.7318681 0.2857143
0.5628816 0.7211233 0.2896215
0.6932845 0.7157509 0.2976801
0.8551893 0.7118437 0.3113553
0.9909646 0.7186813 0.3350427
0.0398046 0.9125763 0.3008547
0.0974359 0.9137973 0.2932845
0.1799756 0.9042735 0.2859585
0.2947497 0.8871795 0.2810745
0.4131868 0.8722833 0.2786325
0.5335776 0.8605617 0.2793651
0.6622711 0.8510379 0.2857143
0.8205128 0.8468865 0.2964591
0.9797314 0.8547009 0.3177045
0.0559219 0.9943834 0.2993895
0.1106227 0.9963370 0.2930403
0.1807082 0.9953602 0.2874237
0.2893773 0.9931624 0.2830281
0.3938950 0.9907204 0.2774115
0.5091575 0.9873016 0.2761905
0.6317461 0.9807082 0.2757021
0.7897436 0.9792430 0.2945055
0.9555556 0.9716728 0.3062271
0.0378510 0.0258852 0.6678877
0.1479854 0.0285714 0.6822955
0.3145299 0.0241758 0.7609280
0.4559219 0.0141636 0.7365080
0.5726496 0.0244200 0.7264957
0.7404152 0.1050061 0.6876679
0.8778999 0.1550672 0.7096459
0.9860806 0.2175824 0.6261294
1.0000000 0.2964591 0.5980464
0.0251526 0.0857143 0.6910867
0.1465202 0.0932845 0.7028083
0.2952381 0.0964591 0.7240537
0.4656899 0.0964591 0.7125763
0.5931624 0.1137973 0.6822955
0.7184371 0.1511600 0.6590965
0.8383394 0.2000000 0.6312577
0.9687424 0.2649573 0.5997558
1.0000000 0.3374847 0.5750916
0.0163614 0.2344322 0.6742369
0.1137973 0.2317460 0.6732601
0.2700855 0.2275946 0.6603175
0.4285714 0.2305250 0.6383395
0.5638584 0.2432234 0.6163614
0.6835165 0.2647131 0.5982906
0.8065934 0.2986569 0.5804640
0.9455433 0.3450550 0.5599512
1.0000000 0.3987790 0.5489622
0.0134310 0.4056166 0.6124542
0.0925519 0.3938950 0.5960928
0.2378510 0.3833944 0.5787546
0.3929182 0.3775336 0.5631258
0.5277168 0.3797314 0.5501832
0.6503053 0.3875458 0.5374848
0.7765568 0.4068376 0.5269842
0.9240537 0.4341880 0.5191697
0.9978022 0.4698413 0.5191697
0.0146520 0.5470086 0.5448108
0.0879121 0.5311356 0.5301588
0.2163614 0.5174603 0.5172161
0.3660562 0.5035409 0.5072039
0.4979243 0.4991453 0.4996337
0.6207570 0.4979243 0.4925519
0.7494506 0.5042735 0.4864469
0.9025641 0.5194139 0.4854701
0.9960928 0.5426130 0.4925519
0.0285714 0.6708181 0.4971917
0.0991453 0.6512821 0.4862027
0.2065934 0.6358975 0.4739927
0.3452992 0.6207570 0.4659341
0.4735043 0.6095238 0.4605617
0.5948718 0.6041514 0.4564103
0.7225885 0.6026862 0.4539683
0.8805861 0.6078144 0.4586081
0.9941392 0.6219780 0.4705739
0.0398046 0.7851038 0.4610501
0.1108669 0.7721612 0.4505495
0.2051282 0.7567766 0.4417582
0.3282051 0.7396826 0.4329670
0.4495727 0.7262515 0.4288156
0.5689866 0.7172161 0.4258852
0.6952381 0.7125763 0.4266178
0.8554335 0.7098901 0.4317460
0.9907204 0.7201465 0.4451770
0.0481074 0.9045177 0.4319902
0.1213675 0.9045177 0.4217338
0.2063492 0.8957265 0.4134310
0.3155067 0.8805861 0.4048840
0.4268620 0.8683761 0.4004884
0.5404152 0.8581197 0.3982906
0.6652015 0.8500611 0.3980464
0.8236874 0.8468865 0.4004884
0.9802198 0.8564103 0.4153846
0.0649573 0.9946276 0.4097680
0.1333333 0.9963370 0.3995116
0.2075702 0.9951160 0.3946276
0.3072039 0.9929182 0.3848596
0.4095238 0.9909646 0.3809524
0.5186813 0.9880342 0.3785104
0.6405373 0.9853480 0.3799756
0.7985348 0.9787546 0.3838828
0.9621490 0.9775336 0.4036630
0.1492064 0.0891331 0.9184371
0.1384615 0.0647131 0.7953602
0.3318681 0.0498169 0.8822955
0.4918193 0.0612943 0.9140415
0.6148962 0.0881563 0.8808303
0.7321123 0.1389499 0.8522589
0.8652015 0.1787546 0.8263736
0.9809524 0.2422466 0.7677656
1.0000000 0.3167277 0.7333333
0.0771673 0.1264957 0.9006105
0.2107448 0.1304029 0.9089133
0.3428572 0.1213675 0.8986569
0.4888889 0.1340659 0.8737485
0.6043956 0.1531136 0.8488401
0.7150183 0.1848596 0.8170940
0.8302808 0.2275946 0.7831502
0.9636142 0.2862027 0.7409036
1.0000000 0.3565324 0.7118437
0.0398046 0.2661783 0.8566545
0.1792430 0.2593407 0.8393162
0.3184371 0.2551893 0.8202686
0.4534799 0.2600733 0.7982906
0.5736264 0.2693529 0.7782662
0.6847375 0.2891331 0.7545788
0.8034188 0.3181929 0.7304029
0.9431013 0.3584860 0.7018315
1.0000000 0.4141636 0.6808303
0.0341880 0.4185592 0.7824176
0.1555556 0.4024420 0.7604396
0.2866911 0.3958486 0.7418804
0.4227106 0.3909646 0.7269841
0.5401710 0.3946276 0.7128205
0.6539683 0.4024420 0.6959707
0.7758242 0.4180708 0.6793651
0.9235653 0.4410256 0.6617827
0.9975580 0.4805861 0.6512821
0.0329670 0.5474970 0.7137973
0.1435897 0.5282052 0.6923077
0.2644689 0.5162393 0.6791209
0.3970696 0.5067155 0.6664225
0.5155067 0.5020757 0.6581197
0.6275946 0.5032967 0.6473749
0.7521368 0.5091575 0.6358975
0.9052503 0.5221002 0.6236874
0.9963370 0.5479854 0.6219780
0.0388278 0.6676435 0.6571429
0.1428571 0.6451771 0.6395605
0.2510379 0.6300367 0.6280831
0.3755800 0.6175824 0.6175824
0.4915751 0.6095238 0.6117216
0.6036630 0.6051282 0.6046398
0.7267399 0.6043956 0.5980464
0.8830281 0.6083028 0.5909646
0.9946276 0.6251526 0.5929182
0.0561661 0.7758242 0.6100122
0.1521368 0.7611722 0.5946276
0.2468864 0.7474970 0.5860806
0.3589744 0.7333333 0.5768010
0.4686203 0.7221001 0.5719170
0.5797314 0.7145299 0.5653236
0.7008547 0.7106227 0.5599512
0.8581197 0.7086691 0.5557998
0.9912088 0.7238095 0.5614164
0.0644689 0.8974359 0.5641026
0.1599512 0.8969475 0.5489622
0.2427350 0.8866911 0.5416362
0.3440782 0.8742369 0.5335776
0.4461538 0.8644689 0.5262516
0.5516484 0.8556777 0.5213675
0.6717949 0.8498169 0.5186813
0.8280830 0.8451771 0.5152625
0.9809524 0.8603175 0.5250306
0.0820513 0.9941392 0.5262516
0.1680098 0.9956044 0.5130647
0.2407814 0.9943834 0.5069597
0.3330891 0.9919414 0.4981685
0.4280830 0.9904762 0.4945055
0.5301588 0.9877900 0.4896215
0.6476191 0.9860806 0.4901099
0.8056166 0.9787546 0.4918193
0.9670330 0.9794872 0.5086691
0.2630037 0.1765568 0.9990232
0.3338217 0.2148962 0.9990232
0.3992674 0.1365079 0.9995116
0.5291820 0.1267399 1.0000000
0.6383395 0.1477412 0.9951160
0.7440782 0.1728938 0.9960928
0.8454213 0.2185592 0.9694750
0.9750916 0.2742369 0.9208791
1.0000000 0.3433456 0.8793651
0.1890110 0.1743590 0.9992674
0.2945055 0.1794872 0.9992674
0.4070818 0.1809524 0.9978022
0.5194139 0.1926740 0.9941392
0.6180708 0.2073260 0.9831502
0.7184371 0.2324786 0.9619048
0.8275946 0.2678877 0.9311355
0.9614164 0.3162393 0.8915751
1.0000000 0.3826618 0.8568987
0.0940171 0.3010989 0.9894994
0.2693529 0.2942613 0.9768010
0.3792430 0.2920635 0.9663004
0.4896215 0.2976801 0.9509158
0.5919414 0.3064713 0.9323565
0.6925519 0.3225885 0.9111111
0.8041514 0.3479854 0.8854701
0.9448107 0.3824176 0.8537241
1.0000000 0.4354090 0.8322344
0.0754579 0.4371184 0.9389499
0.2432234 0.4197802 0.9108669
0.3506716 0.4131868 0.8993895
0.4634921 0.4107448 0.8842491
0.5638584 0.4141636 0.8700855
0.6656899 0.4212454 0.8547009
0.7794872 0.4351648 0.8363858
0.9240537 0.4566545 0.8161172
0.9978022 0.4959707 0.8017094
0.0691087 0.5538462 0.8774115
0.2280830 0.5299146 0.8532357
0.3304029 0.5223444 0.8405373
0.4410256 0.5150183 0.8280830
0.5411478 0.5115995 0.8168498
0.6412699 0.5152625 0.8063492
0.7579976 0.5201465 0.7941392
0.9079365 0.5313798 0.7782662
0.9960928 0.5597070 0.7738706
0.0708181 0.6647131 0.8224664
0.2195360 0.6393163 0.7982906
0.3150183 0.6283273 0.7894994
0.4214896 0.6178266 0.7797314
0.5203907 0.6124542 0.7709402
0.6200244 0.6087912 0.7623932
0.7355312 0.6092796 0.7533578
0.8896215 0.6114774 0.7443224
0.9948718 0.6344323 0.7445666
0.0788767 0.7692308 0.7684982
0.2146520 0.7504274 0.7479854
0.3020757 0.7399268 0.7399268
0.4017094 0.7296703 0.7318681
0.4971917 0.7213675 0.7245421
0.5973138 0.7147741 0.7186813
0.7120879 0.7123321 0.7115995
0.8671551 0.7106227 0.7069597
0.9919414 0.7321123 0.7108669
0.0920635 0.8908425 0.7155067
0.2173382 0.8876679 0.6967033
0.2940171 0.8781441 0.6886447
0.3838828 0.8686203 0.6815629
0.4742369 0.8605617 0.6754579
0.5704518 0.8534799 0.6698413
0.6832723 0.8481075 0.6637363
0.8368742 0.8456655 0.6586081
0.9824176 0.8654457 0.6708181
0.1133089 0.9938950 0.6673993
0.2195360 0.9951160 0.6527473
0.2876679 0.9941392 0.6473749
0.3702076 0.9919414 0.6390721
0.4559219 0.9899878 0.6356533
0.5499390 0.9885226 0.6322345
0.6630037 0.9858364 0.6322345
0.8168498 0.9782662 0.6329671
0.9692308 0.9787546 0.6583639
0.3938950 0.3042735 1.0000000
0.4024420 0.2949939 1.0000000
0.4498169 0.2827839 1.0000000
0.5465202 0.2837607 1.0000000
0.6422467 0.2485958 1.0000000
0.7389500 0.2590965 1.0000000
0.8449329 0.2798535 1.0000000
0.9731380 0.3216117 0.9985348
1.0000000 0.3794872 0.9956044
0.3272283 0.2610501 1.0000000
0.3951160 0.2615385 1.0000000
0.4749695 0.2632479 1.0000000
0.5570208 0.2700855 1.0000000
0.6407815 0.2798535 1.0000000
0.7269841 0.2969475 1.0000000
0.8315018 0.3225885 0.9992674
0.9636142 0.3582418 0.9963370
1.0000000 0.4153846 0.9921856
0.2315018 0.3457876 1.0000000
0.3726496 0.3450550 1.0000000
0.4515263 0.3450550 1.0000000
0.5367522 0.3484738 0.9997558
0.6190476 0.3565324 0.9992674
0.7067155 0.3684982 0.9978022
0.8117216 0.3868132 0.9958486
0.9501832 0.4122100 0.9902320
1.0000000 0.4600733 0.9846154
0.1448108 0.4637363 0.9995116
0.3509158 0.4461538 0.9978022
0.4288156 0.4434676 0.9970696
0.5155067 0.4415140 0.9956044
0.5968254 0.4446886 0.9941392
0.6854701 0.4503053 0.9914530
0.7921856 0.4610501 0.9855922
0.9338217 0.4783883 0.9770452
0.9997558 0.5145299 0.9748474
0.1279609 0.5655678 0.9948718
0.3357753 0.5406594 0.9907204
0.4105006 0.5355312 0.9880342
0.4959707 0.5318682 0.9831502
0.5787546 0.5296704 0.9787546
0.6649573 0.5316240 0.9746032
0.7738706 0.5362638 0.9677656
0.9179487 0.5448108 0.9589744
0.9975580 0.5728938 0.9592186
0.1245421 0.6620269 0.9807082
0.3201465 0.6351649 0.9687424
0.3934066 0.6290599 0.9653236
0.4761905 0.6229548 0.9592186
0.5587302 0.6190476 0.9548230
0.6466423 0.6168498 0.9494506
0.7538462 0.6173382 0.9438339
0.9015873 0.6200244 0.9340659
0.9958486 0.6459097 0.9391941
0.1274725 0.7658120 0.9533578
0.3084249 0.7438340 0.9345543
0.3775336 0.7367522 0.9318681
0.4576313 0.7289377 0.9250305
0.5377290 0.7233211 0.9213675
0.6246642 0.7199023 0.9145299
0.7318681 0.7177045 0.9062271
0.8793651 0.7181929 0.8969475
0.9929182 0.7443224 0.9037851
0.1347985 0.8915751 0.9032967
0.2981685 0.8822955 0.8842491
0.3616606 0.8761905 0.8796093
0.4363858 0.8683761 0.8739927
0.5133089 0.8615385 0.8693529
0.5978022 0.8559219 0.8644689
0.7050061 0.8515263 0.8581197
0.8520147 0.8483517 0.8520147
0.9836386 0.8713065 0.8639805
0.1594628 0.9929182 0.8610501
0.2940171 0.9934066 0.8461539
0.3521368 0.9919414 0.8424909
0.4227106 0.9904762 0.8388278
0.4969475 0.9890110 0.8339438
0.5816850 0.9870574 0.8319902
0.6903541 0.9843712 0.8293040
0.8380952 0.9763126 0.8256410
0.9716728 0.9780220 0.8478633
0.5233212 0.4437118 1.0000000
0.5025641 0.4188034 1.0000000
0.5426130 0.4192918 1.0000000
0.6061050 0.4039072 1.0000000
0.6908425 0.4156288 1.0000000
0.7816850 0.4129426 1.0000000
0.8903541 0.4139194 1.0000000
0.9880342 0.4273504 1.0000000
1.0000000 0.4410256 1.0000000
0.4893773 0.4122100 1.0000000
0.5159951 0.4136752 1.0000000
0.5702076 0.4119658 1.0000000
0.6329671 0.4053724 1.0000000
0.7111111 0.4188034 1.0000000
0.7865690 0.4158730 1.0000000
0.8871795 0.4295482 1.0000000
0.9848596 0.4517705 1.0000000
1.0000000 0.4710623 1.0000000
0.4598291 0.4385836 1.0000000
0.5242980 0.4463980 1.0000000
0.5746032 0.4476191 1.0000000
0.6315019 0.4476191 1.0000000
0.6979243 0.4556777 1.0000000
0.7738706 0.4627595 1.0000000
0.8730159 0.4727717 1.0000000
0.9785104 0.4910867 1.0000000
1.0000000 0.5067155 1.0000000
0.3699634 0.5201465 1.0000000
0.5079365 0.5177045 1.0000000
0.5584860 0.5174603 1.0000000
0.6163614 0.5169719 1.0000000
0.6771673 0.5162393 1.0000000
0.7592186 0.5255190 1.0000000
0.8598291 0.5313798 1.0000000
0.9714286 0.5438340 1.0000000
1.0000000 0.5531136 1.0000000
0.2842491 0.6085470 1.0000000
0.4962149 0.5914530 1.0000000
0.5467644 0.5912088 1.0000000
0.6043956 0.5892552 1.0000000
0.6649573 0.5873016 1.0000000
0.7440782 0.5904762 1.0000000
0.8495727 0.5968254 1.0000000
0.9636142 0.6041514 1.0000000
1.0000000 0.6070818 1.0000000
0.2551893 0.6989011 1.0000000
0.4859585 0.6776557 1.0000000
0.5335776 0.6752137 1.0000000
0.5931624 0.6739927 1.0000000
0.6551893 0.6710623 1.0000000
0.7323565 0.6703297 1.0000000
0.8383394 0.6759463 1.0000000
0.9553114 0.6788767 1.0000000
0.9992674 0.6793651 1.0000000
0.2510379 0.8051282 1.0000000
0.4713065 0.7851038 1.0000000
0.5174603 0.7821734 1.0000000
0.5755800 0.7799756 1.0000000
0.6385837 0.7775336 1.0000000
0.7159951 0.7760684 0.9997558
0.8197802 0.7755800 0.9995116
0.9372405 0.7789988 0.9987790
0.9970696 0.7738706 0.9987790
0.2510379 0.9367521 0.9985348
0.4529915 0.9238095 0.9968254
0.4986569 0.9201465 0.9963370
0.5548230 0.9162393 0.9958486
0.6168498 0.9115995 0.9948718
0.6940171 0.9069597 0.9938950
0.7973138 0.9018315 0.9926740
0.9157509 0.8979243 0.9907204
0.9887668 0.8991453 0.9899878
0.2315018 0.9978022 0.9936508
0.3973138 0.9965812 0.9909646
0.4454212 0.9958486 0.9902320
0.5028083 0.9948718 0.9894994
0.5667888 0.9938950 0.9882784
0.6451771 0.9924298 0.9873016
0.7514042 0.9899878 0.9836386
0.8840049 0.9821734 0.9782662
0.9804640 0.9809524 0.9782662
