Programming/LUT/Fuji_Velvia.cube
TITLE "Velvia"
LUT_3D_SIZE 5
0.0002442 0.0000000 0.0000000
0.2512821 0.0000000 0.0000000
0.6134310 0.0019536 0.0000000
0.9164835 0.0695971 0.0000000
1.0000000 0.2319902 0.0097680
0.0000000 0.1760684 0.0000000
0.1728938 0.1982906 0.0000000
0.5697192 0.2114774 0.0000000
0.8427351 0.2781441 0.0000000
1.0000000 0.3694750 0.0410256
0.0000000 0.5645910 0.0000000
0.1262515 0.5428572 0.0000000
0.4820513 0.5162393 0.0000000
0.7677656 0.5123321 0.0000000
0.9958486 0.5345544 0.0246642
0.0053724 0.8300366 0.0000000
0.1262515 0.7968254 0.0000000
0.4217338 0.7528694 0.0000000
0.7006105 0.7277167 0.0004884
0.9492064 0.7179487 0.0358974
0.0151404 0.9540904 0.0586081
0.1284493 0.9006105 0.0017094
0.4473749 0.8686203 0.0139194
0.6649573 0.8481075 0.0351648
0.9641026 0.9081807 0.1396825
0.0041514 0.0007326 0.2427350
0.2126984 0.0102564 0.2644689
0.6163614 0.0163614 0.2710623
0.8930403 0.0927961 0.2659341
1.0000000 0.2627595 0.2874237
0.0029304 0.2004884 0.2021978
0.2048840 0.2061050 0.2026862
0.5633700 0.2151404 0.1938950
0.8236874 0.2796093 0.2043956
1.0000000 0.3851038 0.2622711
0.0039072 0.5555556 0.1179487
0.1518926 0.5291820 0.1133089
0.4813187 0.5035409 0.1172161
0.7548230 0.5064713 0.1499390
0.9975580 0.5387058 0.2315018
0.0134310 0.8107448 0.1267399
0.1465202 0.7792430 0.1199023
0.4266178 0.7411478 0.1233211
0.6932845 0.7216117 0.1538462
0.9897436 0.7199023 0.2224664
0.0402930 0.9885226 0.2134310
0.1682540 0.9934066 0.2158730
0.3934066 0.9550672 0.1665446
0.6427351 0.9326007 0.1833944
0.9699634 0.9199023 0.2256410
0.0378510 0.0258852 0.6678877
0.3145299 0.0241758 0.7609280
0.5726496 0.0244200 0.7264957
0.8778999 0.1550672 0.7096459
1.0000000 0.2964591 0.5980464
0.0163614 0.2344322 0.6742369
0.2700855 0.2275946 0.6603175
0.5638584 0.2432234 0.6163614
0.8065934 0.2986569 0.5804640
1.0000000 0.3987790 0.5489622
0.0146520 0.5470086 0.5448108
0.2163614 0.5174603 0.5172161
0.4979243 0.4991453 0.4996337
0.7494506 0.5042735 0.4864469
0.9960928 0.5426130 0.4925519
0.0398046 0.7851038 0.4610501
0.2051282 0.7567766 0.4417582
0.4495727 0.7262515 0.4288156
0.6952381 0.7125763 0.4266178
0.9907204 0.7201465 0.4451770
0.0649573 0.9946276 0.4097680
0.2075702 0.9951160 0.3946276
0.4095238 0.9909646 0.3809524
0.6405373 0.9853480 0.3799756
0.9621490 0.9775336 0.4036630
0.2630037 0.1765568 0.9990232
0.3992674 0.1365079 0.9995116
0.6383395 0.1477412 0.9951160
0.8454213 0.2185592 0.9694750
1.0000000 0.3433456 0.8793651
0.0940171 0.3010989 0.9894994
0.3792430 0.2920635 0.9663004
0.5919414 0.3064713 0.9323565
0.8041514 0.3479854 0.8854701
1.0000000 0.4354090 0.8322344
0.0691087 0.5538462 0.8774115
0.3304029 0.5223444 0.8405373
0.5411478 0.5115995 0.8168498
0.7579976 0.5201465 0.7941392
0.9960928 0.5597070 0.7738706
0.0788767 0.7692308 0.7684982
0.3020757 0.7399268 0.7399268
0.4971917 0.7213675 0.7245421
0.7120879 0.7123321 0.7115995
0.9919414 0.7321123 0.7108669
0.1133089 0.9938950 0.6673993
0.2876679 0.9941392 0.6473749
0.4559219 0.9899878 0.6356533
0.6630037 0.9858364 0.6322345
0.9692308 0.9787546 0.6583639
0.5233212 0.4437118 1.0000000
0.5426130 0.4192918 1.0000000
0.6908425 0.4156288 1.0000000
0.8903541 0.4139194 1.0000000
1.0000000 0.4410256 1.0000000
0.4598291 0.4385836 1.0000000
0.5746032 0.4476191 1.0000000
0.6979243 0.4556777 1.0000000
0.8730159 0.4727717 1.0000000
1.0000000 0.5067155 1.0000000
0.2842491 0.6085470 1.0000000
0.5467644 0.5912088 1.0000000
0.6649573 0.5873016 1.0000000
0.8495727 0.5968254 1.0000000
1.0000000 0.6070818 1.0000000
0.2510379 0.8051282 1.0000000
0.5174603 0.7821734 1.0000000
0.6385837 0.7775336 1.0000000
0.8197802 0.7755800 0.9995116
0.9970696 0.7738706 0.9987790
0.2315018 0.9978022 0.9936508
0.4454212 0.9958486 0.9902320
0.5667888 0.9938950 0.9882784
0.7514042 0.9899878 0.9836386
0.9804640 0.9809524 0.9782662
