Programming/LUT/Fuji_Velvia.cube
TITLE "Velvia"
LUT_3D_SIZE 17
0.0002442 0.0000000 0.0000000
0.0102564 0.0000000 0.0000000
0.0647131 0.0000000 0.0000000
0.1601954 0.0002442 0.0000000
0.2512821 0.0000000 0.0000000
0.3477412 0.0000000 0.0000000
0.4424908 0.0000000 0.0000000
0.5330892 0.0007326 0.0000000
0.6134310 0.0019536 0.0000000
0.6935287 0.0041514 0.0000000
0.7792430 0.0114774 0.0000000
0.8544567 0.0332112 0.0000000
0.9164835 0.0695971 0.0000000
0.9702076 0.1135531 0.0014652
0.9965812 0.1619048 0.0051282
1.0000000 0.2227106 0.0090354
1.0000000 0.2319902 0.0097680
0.0014652 0.0051282 0.0007326
0.0097680 0.0041514 0.0000000
0.0454212 0.0065934 0.0000000
0.1216117 0.0078144 0.0000000
0.2173382 0.0075702 0.0000000
0.3240537 0.0073260 0.0000000
0.4278388 0.0080586 0.0000000
0.5238096 0.0100122 0.0000000
0.6087912 0.0136752 0.0000000
0.6913309 0.0210012 0.0000000
0.7738706 0.0371184 0.0000000
0.8424909 0.0661783 0.0000000
0.9015873 0.1042735 0.0000000
0.9577534 0.1479854 0.0004884
0.9936508 0.1916972 0.0034188
1.0000000 0.2351648 0.0075702
1.0000000 0.2417582 0.0080586
0.0000000 0.0332112 0.0000000
0.0056166 0.0361416 0.0000000
0.0332112 0.0402930 0.0000000
0.1013431 0.0427350 0.0000000
0.1970696 0.0434676 0.0000000
0.3050061 0.0463980 0.0000000
0.4131868 0.0483516 0.0000000
0.5133089 0.0529915 0.0000000
0.6002442 0.0600733 0.0000000
0.6818071 0.0720391 0.0000000
0.7579976 0.0925519 0.0000000
0.8227106 0.1216117 0.0000000
0.8818071 0.1570208 0.0000000
0.9411477 0.1956044 0.0000000
0.9877900 0.2332112 0.0021978
0.9992674 0.2669109 0.0065934
1.0000000 0.2713065 0.0073260
0.0000000 0.0884005 0.0000000
0.0036630 0.0952381 0.0000000
0.0285714 0.1020757 0.0000000
0.0923077 0.1074481 0.0000000
0.1863248 0.1111111 0.0000000
0.2942613 0.1137973 0.0000000
0.4021978 0.1172161 0.0000000
0.5028083 0.1223443 0.0000000
0.5890110 0.1299145 0.0000000
0.6647131 0.1428571 0.0000000
0.7365080 0.1619048 0.0000000
0.8009768 0.1870574 0.0000000
0.8620269 0.2156288 0.0000000
0.9245421 0.2478632 0.0000000
0.9809524 0.2810745 0.0012210
0.9982906 0.3098901 0.0063492
1.0000000 0.3157509 0.0122100
0.0000000 0.1760684 0.0000000
0.0029304 0.1836386 0.0000000
0.0244200 0.1887668 0.0000000
0.0832723 0.1943834 0.0000000
0.1728938 0.1982906 0.0000000
0.2796093 0.2002442 0.0000000
0.3892552 0.2009768 0.0000000
0.4876679 0.2048840 0.0000000
0.5697192 0.2114774 0.0000000
0.6424909 0.2219780 0.0000000
0.7130647 0.2368742 0.0000000
0.7792430 0.2559219 0.0000000
0.8427351 0.2781441 0.0000000
0.9076923 0.3052503 0.0000000
0.9714286 0.3313797 0.0007326
0.9968254 0.3548230 0.0102564
1.0000000 0.3694750 0.0410256
0.0000000 0.2749695 0.0000000
0.0021978 0.2803419 0.0000000
0.0197802 0.2832723 0.0000000
0.0725275 0.2864469 0.0000000
0.1609280 0.2898657 0.0000000
0.2615385 0.2913309 0.0000000
0.3682540 0.2913309 0.0000000
0.4659341 0.2940171 0.0000000
0.5452992 0.2979243 0.0000000
0.6173382 0.3045177 0.0000000
0.6901099 0.3142857 0.0000000
0.7572650 0.3277167 0.0000000
0.8222222 0.3443224 0.0000000
0.8903541 0.3641026 0.0000000
0.9589744 0.3831502 0.0007326
0.9951160 0.4004884 0.0065934
1.0000000 0.4087912 0.0205128
0.0000000 0.3816850 0.0000000
0.0017094 0.3853480 0.0000000
0.0148962 0.3848596 0.0000000
0.0615385 0.3853480 0.0000000
0.1472528 0.3868132 0.0000000
0.2454212 0.3811966 0.0000000
0.3477412 0.3785104 0.0000000
0.4432234 0.3763126 0.0000000
0.5233212 0.3758242 0.0000000
0.5951160 0.3802198 0.0000000
0.6678877 0.3853480 0.0000000
0.7360196 0.3936508 0.0000000
0.8026862 0.4048840 0.0000000
0.8715507 0.4183150 0.0000000
0.9457875 0.4332112 0.0007326
0.9909646 0.4463980 0.0061050
0.9990232 0.4544567 0.0190476
0.0000000 0.4808303 0.0000000
0.0017094 0.4835165 0.0000000
0.0141636 0.4832723 0.0000000
0.0556777 0.4776557 0.0000000
0.1352869 0.4708181 0.0000000
0.2324786 0.4605617 0.0000000
0.3304029 0.4542125 0.0000000
0.4222222 0.4500611 0.0000000
0.5023199 0.4481075 0.0000000
0.5755800 0.4473749 0.0000000
0.6476191 0.4500611 0.0000000
0.7174603 0.4532357 0.0000000
0.7858364 0.4603175 0.0000000
0.8559219 0.4703297 0.0000000
0.9330891 0.4820513 0.0007326
0.9868132 0.4913309 0.0058608
0.9960928 0.4964591 0.0139194
0.0000000 0.5645910 0.0000000
0.0029304 0.5611722 0.0000000
0.0148962 0.5597070 0.0000000
0.0527473 0.5533578 0.0000000
0.1262515 0.5428572 0.0000000
0.2212454 0.5308914 0.0000000
0.3155067 0.5247864 0.0000000
0.4024420 0.5194139 0.0000000
0.4820513 0.5162393 0.0000000
0.5572650 0.5118437 0.0000000
0.6283273 0.5096459 0.0000000
0.6996337 0.5098901 0.0000000
0.7677656 0.5123321 0.0000000
0.8390720 0.5162393 0.0000000
0.9201465 0.5228328 0.0009768
0.9811966 0.5299146 0.0078144
0.9958486 0.5345544 0.0246642
0.0002442 0.6354091 0.0000000
0.0048840 0.6319903 0.0000000
0.0173382 0.6251526 0.0000000
0.0517705 0.6170940 0.0000000
0.1211233 0.6063492 0.0000000
0.2114774 0.5946276 0.0000000
0.3030525 0.5853480 0.0000000
0.3882784 0.5768010 0.0000000
0.4659341 0.5714286 0.0000000
0.5394384 0.5667888 0.0000000
0.6126984 0.5633700 0.0000000
0.6800977 0.5623932 0.0000000
0.7518926 0.5614164 0.0000000
0.8234432 0.5633700 0.0000000
0.9037851 0.5687424 0.0017094
0.9724054 0.5733822 0.0085470
0.9870574 0.5748474 0.0197802
0.0019536 0.7072039 0.0000000
0.0068376 0.7030525 0.0000000
0.0212454 0.6969475 0.0000000
0.0588523 0.6871795 0.0000000
0.1211233 0.6769231 0.0000000
0.2021978 0.6608059 0.0000000
0.2910867 0.6468865 0.0000000
0.3799756 0.6378511 0.0000000
0.4515263 0.6349207 0.0000000
0.5181929 0.6324787 0.0000000
0.5916972 0.6268620 0.0000000
0.6632479 0.6222222 0.0000000
0.7330891 0.6205128 0.0000000
0.8075702 0.6210012 0.0000000
0.8884005 0.6219780 0.0031746
0.9619048 0.6231990 0.0153846
0.9877900 0.6219780 0.0454212
0.0034188 0.7716728 0.0000000
0.0114774 0.7699634 0.0000000
0.0283272 0.7643468 0.0000000
0.0634921 0.7555556 0.0000000
0.1213675 0.7426130 0.0000000
0.1980464 0.7289377 0.0000000
0.2793651 0.7150183 0.0000000
0.3636142 0.7059829 0.0000000
0.4371184 0.6984127 0.0000000
0.5067155 0.6908425 0.0000000
0.5770452 0.6849817 0.0000000
0.6444445 0.6793651 0.0000000
0.7177045 0.6742369 0.0000000
0.7912088 0.6720391 0.0009768
0.8737485 0.6717949 0.0063492
0.9467643 0.6695971 0.0173382
0.9609280 0.6688645 0.0249084
0.0053724 0.8300366 0.0000000
0.0156288 0.8249084 0.0000000
0.0344322 0.8166056 0.0000000
0.0691087 0.8075702 0.0000000
0.1262515 0.7968254 0.0000000
0.1965812 0.7838828 0.0000000
0.2749695 0.7704518 0.0000000
0.3526252 0.7594628 0.0000000
0.4217338 0.7528694 0.0000000
0.4913309 0.7452992 0.0000000
0.5633700 0.7382174 0.0000000
0.6302809 0.7316239 0.0000000
0.7006105 0.7277167 0.0004884
0.7746032 0.7240537 0.0036630
0.8593407 0.7216117 0.0124542
0.9318681 0.7189255 0.0288156
0.9492064 0.7179487 0.0358974
0.0097680 0.8717949 0.0000000
0.0239316 0.8661783 0.0000000
0.0463980 0.8608059 0.0000000
0.0818071 0.8571429 0.0000000
0.1321123 0.8485959 0.0000000
0.1941392 0.8371184 0.0000000
0.2710623 0.8236874 0.0000000
0.3450550 0.8114774 0.0000000
0.4144078 0.7992674 0.0000000
0.4793651 0.7982906 0.0000000
0.5460318 0.7929182 0.0000000
0.6173382 0.7809524 0.0012210
0.6862027 0.7792430 0.0053724
0.7601954 0.7758242 0.0105006
0.8444445 0.7719170 0.0244200
0.9228327 0.7702076 0.0481074
0.9428571 0.7645910 0.0551893
0.0119658 0.8874237 0.0004884
0.0288156 0.8818071 0.0004884
0.0556777 0.8805861 0.0000000
0.0959707 0.8947497 0.0000000
0.1206349 0.8937729 0.0000000
0.1877900 0.8813187 0.0000000
0.2744811 0.8673993 0.0000000
0.3396825 0.8539683 0.0017094
0.4166056 0.8239316 0.0000000
0.4786325 0.8373626 0.0009768
0.5267400 0.8344322 0.0017094
0.6053724 0.8075702 0.0056166
0.6752137 0.8219780 0.0210012
0.7589744 0.8183150 0.0229548
0.8358974 0.8158730 0.0437118
0.9189255 0.8202686 0.0793651
0.9333333 0.8224664 0.0864469
0.0146520 0.9181929 0.0124542
0.0376068 0.9111111 0.0112332
0.0820513 0.9025641 0.0014652
0.1018315 0.9020757 0.0000000
0.1201465 0.9001221 0.0002442
0.1948718 0.8884005 0.0017094
0.2759463 0.8766789 0.0026862
0.3452992 0.8715507 0.0080586
0.4485959 0.8500611 0.0021978
0.4849817 0.8468865 0.0014652
0.5218560 0.8439561 0.0026862
0.5912088 0.8351648 0.0129426
0.6703297 0.8349206 0.0258852
0.7567766 0.8266178 0.0258852
0.8344322 0.8229548 0.0471306
0.9199023 0.8334554 0.0876679
0.9423687 0.8556777 0.1069597
0.0151404 0.9540904 0.0586081
0.0285714 0.9465201 0.0510379
0.0849817 0.9103785 0.0070818
0.1025641 0.9028083 0.0000000
0.1284493 0.9006105 0.0017094
0.2395604 0.8918193 0.0100122
0.2803419 0.8932845 0.0166056
0.3460318 0.9113553 0.0388278
0.4473749 0.8686203 0.0139194
0.4847375 0.8495727 0.0029304
0.5223444 0.8459097 0.0039072
0.5934066 0.8500611 0.0231990
0.6649573 0.8481075 0.0351648
0.7438340 0.8378510 0.0317460
0.8322344 0.8258852 0.0488400
0.9225885 0.8493285 0.0981685
0.9641026 0.9081807 0.1396825
0.0000000 0.0000000 0.0073260
0.0087912 0.0000000 0.0070818
0.0561661 0.0007326 0.0070818
0.1538462 0.0017094 0.0095238
0.2451770 0.0004884 0.0105006
0.3516484 0.0000000 0.0097680
0.4454212 0.0000000 0.0080586
0.5367522 0.0009768 0.0080586
0.6180708 0.0019536 0.0068376
0.6986569 0.0046398 0.0046398
0.7831502 0.0129426 0.0041514
0.8549451 0.0339438 0.0043956
0.9174603 0.0710623 0.0070818
0.9711844 0.1142857 0.0134310
0.9965812 0.1604396 0.0273504
1.0000000 0.2056166 0.0454212
1.0000000 0.2134310 0.0490842
0.0012210 0.0048840 0.0075702
0.0085470 0.0053724 0.0065934
0.0432234 0.0083028 0.0061050
0.1181929 0.0097680 0.0080586
0.2190476 0.0083028 0.0063492
0.3289377 0.0080586 0.0056166
0.4327228 0.0087912 0.0056166
0.5274726 0.0105006 0.0048840
0.6124542 0.0139194 0.0039072
0.6935287 0.0219780 0.0031746
0.7741148 0.0383394 0.0029304
0.8417583 0.0669109 0.0034188
0.9010989 0.1052503 0.0048840
0.9577534 0.1489622 0.0097680
0.9934066 0.1929182 0.0210012
1.0000000 0.2324786 0.0402930
1.0000000 0.2420024 0.0476190
0.0002442 0.0346764 0.0053724
0.0073260 0.0371184 0.0046398
0.0378510 0.0400488 0.0043956
0.1074481 0.0412698 0.0053724
0.2034188 0.0442002 0.0041514
0.3118437 0.0466422 0.0039072
0.4188034 0.0493285 0.0034188
0.5174603 0.0544567 0.0024420
0.6036630 0.0615385 0.0019536
0.6830281 0.0735043 0.0019536
0.7575092 0.0940171 0.0019536
0.8224664 0.1213675 0.0024420
0.8818071 0.1553114 0.0034188
0.9416361 0.1936508 0.0063492
0.9880342 0.2334554 0.0156288
0.9992674 0.2671551 0.0334554
1.0000000 0.2754579 0.0410256
0.0000000 0.0954823 0.0031746
0.0058608 0.1006105 0.0031746
0.0349206 0.1045177 0.0031746
0.0989011 0.1096459 0.0026862
0.1931624 0.1133089 0.0019536
0.2998779 0.1152625 0.0017094
0.4073260 0.1184371 0.0009768
0.5064713 0.1235653 0.0007326
0.5904762 0.1316239 0.0004884
0.6647131 0.1445666 0.0004884
0.7350428 0.1633700 0.0007326
0.7997558 0.1868132 0.0012210
0.8615385 0.2148962 0.0019536
0.9240537 0.2471306 0.0039072
0.9804640 0.2810745 0.0119658
0.9982906 0.3096459 0.0290598
1.0000000 0.3184371 0.0388278
0.0000000 0.1833944 0.0009768
0.0048840 0.1897436 0.0007326
0.0290598 0.1936508 0.0004884
0.0905983 0.1973138 0.0004884
0.1794872 0.2019536 0.0002442
0.2847375 0.2029304 0.0000000
0.3924298 0.2036630 0.0000000
0.4891331 0.2073260 0.0000000
0.5699634 0.2141636 0.0000000
0.6410257 0.2241758 0.0000000
0.7103785 0.2385836 0.0000000
0.7765568 0.2564103 0.0002442
0.8402930 0.2781441 0.0009768
0.9059829 0.3032967 0.0024420
0.9697192 0.3301587 0.0095238
0.9965812 0.3548230 0.0293040
1.0000000 0.3724054 0.0593407
0.0000000 0.2862027 0.0000000
0.0026862 0.2884005 0.0000000
0.0222222 0.2908425 0.0000000
0.0783883 0.2932845 0.0000000
0.1660562 0.2940171 0.0000000
0.2664225 0.2942613 0.0000000
0.3704518 0.2940171 0.0000000
0.4654457 0.2947497 0.0000000
0.5452992 0.2976801 0.0000000
0.6166056 0.3040293 0.0000000
0.6869353 0.3133089 0.0000000
0.7543346 0.3267399 0.0000000
0.8192918 0.3431014 0.0002442
0.8869353 0.3623932 0.0017094
0.9567766 0.3824176 0.0078144
0.9948718 0.4021978 0.0278388
1.0000000 0.4207570 0.0649573
0.0000000 0.3890110 0.0000000
0.0019536 0.3885226 0.0000000
0.0168498 0.3904762 0.0000000
0.0654457 0.3902320 0.0000000
0.1494506 0.3873016 0.0000000
0.2500611 0.3816850 0.0000000
0.3494506 0.3794872 0.0000000
0.4417582 0.3775336 0.0000000
0.5221002 0.3760684 0.0000000
0.5936508 0.3792430 0.0000000
0.6647131 0.3848596 0.0000000
0.7333333 0.3931624 0.0000000
0.7997558 0.4041514 0.0000000
0.8691087 0.4173382 0.0014652
0.9435897 0.4319902 0.0068376
0.9907204 0.4466422 0.0251526
0.9995116 0.4595849 0.0561661
0.0000000 0.4835165 0.0000000
0.0019536 0.4825397 0.0000000
0.0153846 0.4822955 0.0000000
0.0588523 0.4778999 0.0000000
0.1377289 0.4698413 0.0000000
0.2346764 0.4615385 0.0000000
0.3313797 0.4554335 0.0000000
0.4210012 0.4512821 0.0000000
0.5008547 0.4473749 0.0000000
0.5731380 0.4473749 0.0000000
0.6446887 0.4500611 0.0000000
0.7145299 0.4544567 0.0000000
0.7829060 0.4605617 0.0000000
0.8527473 0.4693529 0.0012210
0.9304029 0.4796093 0.0070818
0.9863248 0.4905983 0.0236874
0.9978022 0.5030525 0.0463980
0.0000000 0.5631258 0.0000000
0.0031746 0.5599512 0.0000000
0.0156288 0.5562882 0.0000000
0.0564103 0.5496948 0.0000000
0.1299145 0.5404152 0.0000000
0.2224664 0.5299146 0.0000000
0.3169719 0.5218560 0.0000000
0.4051282 0.5159951 0.0000000
0.4810745 0.5125763 0.0000000
0.5548230 0.5089133 0.0000000
0.6271062 0.5081807 0.0000000
0.6971917 0.5086691 0.0000000
0.7665446 0.5108669 0.0000000
0.8378510 0.5162393 0.0017094
0.9177045 0.5225886 0.0083028
0.9807082 0.5313798 0.0256410
0.9970696 0.5406594 0.0515263
0.0009768 0.6334555 0.0000000
0.0051282 0.6293041 0.0000000
0.0190476 0.6241758 0.0000000
0.0573871 0.6166056 0.0000000
0.1255189 0.6065934 0.0000000
0.2126984 0.5946276 0.0000000
0.3052503 0.5841270 0.0000000
0.3919414 0.5748474 0.0000000
0.4661783 0.5702076 0.0000000
0.5367522 0.5670330 0.0000000
0.6105006 0.5638584 0.0000000
0.6813187 0.5614164 0.0000000
0.7504274 0.5609280 0.0004884
0.8227106 0.5641026 0.0024420
0.9037851 0.5689866 0.0105006
0.9746032 0.5733822 0.0290598
0.9948718 0.5772894 0.0532357
0.0024420 0.7028083 0.0000000
0.0073260 0.6974359 0.0000000
0.0227106 0.6910867 0.0000000
0.0605617 0.6835165 0.0000000
0.1238095 0.6727717 0.0000000
0.2039072 0.6603175 0.0000000
0.2905983 0.6481075 0.0000000
0.3770452 0.6380953 0.0000000
0.4498169 0.6317461 0.0000000
0.5194139 0.6278389 0.0000000
0.5909646 0.6246642 0.0000000
0.6632479 0.6197802 0.0002442
0.7335775 0.6178266 0.0012210
0.8065934 0.6183150 0.0043956
0.8891331 0.6190476 0.0144078
0.9653236 0.6210012 0.0363858
0.9904762 0.6217338 0.0617827
0.0041514 0.7680098 0.0000000
0.0122100 0.7631258 0.0000000
0.0302808 0.7572650 0.0000000
0.0671551 0.7489622 0.0000000
0.1245421 0.7372406 0.0000000
0.1997558 0.7245421 0.0000000
0.2815629 0.7118437 0.0000000
0.3638584 0.7020757 0.0000000
0.4363858 0.6940171 0.0000000
0.5064713 0.6866911 0.0000000
0.5748474 0.6813187 0.0004884
0.6442003 0.6769231 0.0012210
0.7164835 0.6725275 0.0029304
0.7899878 0.6705739 0.0078144
0.8737485 0.6691087 0.0207570
0.9487180 0.6681319 0.0415140
0.9675214 0.6681319 0.0527473
0.0061050 0.8278388 0.0002442
0.0173382 0.8212454 0.0002442
0.0366300 0.8144078 0.0002442
0.0732601 0.8058608 0.0002442
0.1291819 0.7943834 0.0002442
0.1992674 0.7816850 0.0002442
0.2764347 0.7692308 0.0004884
0.3531136 0.7589744 0.0007326
0.4234432 0.7506716 0.0009768
0.4923077 0.7433456 0.0012210
0.5616606 0.7362638 0.0017094
0.6295483 0.7311355 0.0034188
0.6991453 0.7269841 0.0068376
0.7743590 0.7228327 0.0144078
0.8593407 0.7196581 0.0312576
0.9391941 0.7177045 0.0568987
0.9780220 0.7167277 0.0793651
0.0100122 0.8759463 0.0021978
0.0253968 0.8703297 0.0024420
0.0463980 0.8652015 0.0021978
0.0837607 0.8588523 0.0019536
0.1338217 0.8495727 0.0019536
0.1978022 0.8376068 0.0019536
0.2708181 0.8261294 0.0019536
0.3440782 0.8144078 0.0021978
0.4114774 0.8046398 0.0026862
0.4771673 0.8002442 0.0039072
0.5457876 0.7936508 0.0056166
0.6151404 0.7853480 0.0085470
0.6849817 0.7814408 0.0151404
0.7579976 0.7782662 0.0271062
0.8434677 0.7731380 0.0461538
0.9279609 0.7687424 0.0717949
0.9731380 0.7526252 0.0896215
0.0141636 0.9089133 0.0068376
0.0334554 0.9035409 0.0070818
0.0520147 0.9013431 0.0051282
0.0923077 0.8993895 0.0043956
0.1294261 0.8949939 0.0051282
0.1912088 0.8835165 0.0041514
0.2720391 0.8705739 0.0043956
0.3367521 0.8605617 0.0063492
0.4017094 0.8466423 0.0061050
0.4664225 0.8432235 0.0087912
0.5284494 0.8368742 0.0105006
0.5953602 0.8285714 0.0163614
0.6705739 0.8285714 0.0300366
0.7460318 0.8258852 0.0449328
0.8275946 0.8200244 0.0625153
0.9191697 0.8234432 0.0891331
0.9457875 0.8288156 0.1010989
0.0148962 0.9262515 0.0192918
0.0327228 0.9201465 0.0180708
0.0564103 0.9113553 0.0083028
0.0945055 0.9072039 0.0073260
0.1313797 0.9081807 0.0134310
0.1995116 0.9013431 0.0139194
0.2717949 0.8910867 0.0139194
0.3357753 0.8810745 0.0153846
0.4000000 0.8644689 0.0122100
0.4649573 0.8525031 0.0112332
0.5260074 0.8454213 0.0131868
0.5929182 0.8466423 0.0249084
0.6615385 0.8505495 0.0395604
0.7284493 0.8468865 0.0517705
0.8239316 0.8312576 0.0666667
0.9211233 0.8510379 0.1020757
0.9628816 0.9047619 0.1382173
0.0151404 0.9553114 0.0603175
0.0231990 0.9494506 0.0542125
0.0568987 0.9201465 0.0195360
0.0959707 0.9120879 0.0141636
0.1379731 0.9142857 0.0197802
0.2312576 0.9330891 0.0417582
0.2686203 0.9328449 0.0456654
0.3306471 0.9252747 0.0485958
0.3731380 0.9084249 0.0410256
0.4588523 0.8652015 0.0210012
0.5274726 0.8559219 0.0229548
0.6097680 0.8879121 0.0593407
0.6449329 0.8949939 0.0703297
0.6849817 0.8864469 0.0717949
0.8224664 0.8456655 0.0747253
0.9211233 0.8825397 0.1233211
0.9692308 0.9308913 0.1543346
0.0017094 0.0007326 0.0483516
0.0105006 0.0014652 0.0476190
0.0515263 0.0034188 0.0393162
0.1511600 0.0029304 0.0537241
0.2210012 0.0017094 0.0632479
0.3575092 0.0012210 0.0634921
0.4424908 0.0014652 0.0656899
0.5340660 0.0019536 0.0637363
0.6158730 0.0029304 0.0559219
0.6989011 0.0063492 0.0461538
0.7831502 0.0168498 0.0412698
0.8525031 0.0400488 0.0439560
0.9137973 0.0781441 0.0517705
0.9687424 0.1213675 0.0666667
0.9960928 0.1699634 0.0879121
1.0000000 0.2085470 0.1155067
1.0000000 0.2212454 0.1272283
0.0017094 0.0080586 0.0388278
0.0102564 0.0092796 0.0380952
0.0466422 0.0129426 0.0354090
0.1257631 0.0122100 0.0417582
0.2200244 0.0109890 0.0466422
0.3352869 0.0105006 0.0478632
0.4341880 0.0109890 0.0517705
0.5267400 0.0134310 0.0461538
0.6114774 0.0170940 0.0405372
0.6927961 0.0263736 0.0361416
0.7714286 0.0444444 0.0346764
0.8376068 0.0727717 0.0380952
0.8969475 0.1106227 0.0468864
0.9538462 0.1533578 0.0598291
0.9924298 0.1990232 0.0798535
0.9997558 0.2398046 0.1111111
1.0000000 0.2727717 0.1448108
0.0014652 0.0388278 0.0380952
0.0095238 0.0412698 0.0378510
0.0449328 0.0437118 0.0383394
0.1130647 0.0468864 0.0385836
0.2117216 0.0503053 0.0388278
0.3186813 0.0515263 0.0378510
0.4229548 0.0537241 0.0354090
0.5191697 0.0586081 0.0307692
0.6041514 0.0661783 0.0283272
0.6808303 0.0791209 0.0271062
0.7531136 0.0993895 0.0271062
0.8170940 0.1260073 0.0297924
0.8769231 0.1584860 0.0368742
0.9374847 0.1958486 0.0481074
0.9873016 0.2358974 0.0683761
0.9992674 0.2744811 0.0993895
1.0000000 0.3045177 0.1343101
0.0009768 0.0996337 0.0319902
0.0083028 0.1035409 0.0310134
0.0424908 0.1067155 0.0315018
0.1064713 0.1128205 0.0290598
0.2009768 0.1162393 0.0261294
0.3069597 0.1179487 0.0236874
0.4112332 0.1206349 0.0205128
0.5089133 0.1255189 0.0183150
0.5902320 0.1343101 0.0166056
0.6620269 0.1474970 0.0166056
0.7311355 0.1663004 0.0173382
0.7953602 0.1892552 0.0200244
0.8573871 0.2166056 0.0256410
0.9208791 0.2483516 0.0358974
0.9794872 0.2825397 0.0561661
0.9980464 0.3162393 0.0881563
1.0000000 0.3413920 0.1181929
0.0004884 0.1885226 0.0178266
0.0065934 0.1941392 0.0166056
0.0339438 0.1978022 0.0166056
0.0971917 0.2009768 0.0158730
0.1860806 0.2053724 0.0136752
0.2901099 0.2058608 0.0114774
0.3951160 0.2063492 0.0097680
0.4896215 0.2092796 0.0090354
0.5680098 0.2166056 0.0090354
0.6378511 0.2263736 0.0092796
0.7067155 0.2400488 0.0107448
0.7719170 0.2578755 0.0136752
0.8358974 0.2788767 0.0180708
0.9023199 0.3035409 0.0275946
0.9682540 0.3311355 0.0478632
0.9965812 0.3592186 0.0815629
1.0000000 0.3804640 0.1155067
0.0000000 0.2901099 0.0092796
0.0039072 0.2923077 0.0080586
0.0251526 0.2947497 0.0080586
0.0832723 0.2954823 0.0073260
0.1709402 0.2962149 0.0061050
0.2715507 0.2954823 0.0053724
0.3721612 0.2947497 0.0053724
0.4656899 0.2952381 0.0053724
0.5438340 0.2981685 0.0053724
0.6144078 0.3042735 0.0056166
0.6832723 0.3135531 0.0068376
0.7496948 0.3267399 0.0090354
0.8148962 0.3428572 0.0136752
0.8827839 0.3619048 0.0217338
0.9543346 0.3831502 0.0410256
0.9943834 0.4051282 0.0761905
1.0000000 0.4229548 0.1135531
0.0000000 0.3909646 0.0043956
0.0024420 0.3921856 0.0039072
0.0188034 0.3938950 0.0036630
0.0695971 0.3924298 0.0031746
0.1538462 0.3882784 0.0031746
0.2534799 0.3826618 0.0029304
0.3504274 0.3802198 0.0029304
0.4420024 0.3782662 0.0034188
0.5206349 0.3765568 0.0036630
0.5919414 0.3792430 0.0039072
0.6620269 0.3843712 0.0046398
0.7294261 0.3921856 0.0068376
0.7960928 0.4031746 0.0114774
0.8654457 0.4170940 0.0192918
0.9409035 0.4324786 0.0373626
0.9909646 0.4481075 0.0725275
1.0000000 0.4605617 0.1084249
0.0000000 0.4857143 0.0021978
0.0029304 0.4844933 0.0019536
0.0178266 0.4835165 0.0021978
0.0637363 0.4786325 0.0021978
0.1421245 0.4705739 0.0021978
0.2373626 0.4627595 0.0021978
0.3335775 0.4556777 0.0021978
0.4217338 0.4515263 0.0024420
0.4991453 0.4490843 0.0026862
0.5709402 0.4490843 0.0031746
0.6422467 0.4505495 0.0039072
0.7103785 0.4549451 0.0058608
0.7782662 0.4612943 0.0100122
0.8488401 0.4703297 0.0173382
0.9272283 0.4805861 0.0356532
0.9868132 0.4915751 0.0705739
0.9987790 0.5015873 0.1057387
0.0000000 0.5641026 0.0017094
0.0041514 0.5609280 0.0017094
0.0180708 0.5577534 0.0017094
0.0608059 0.5506716 0.0017094
0.1343101 0.5409036 0.0017094
0.2253968 0.5308914 0.0017094
0.3186813 0.5213675 0.0017094
0.4070818 0.5145299 0.0017094
0.4815629 0.5115995 0.0021978
0.5526252 0.5089133 0.0026862
0.6244200 0.5076923 0.0036630
0.6935287 0.5086691 0.0051282
0.7626374 0.5120879 0.0097680
0.8339438 0.5179487 0.0180708
0.9147741 0.5245422 0.0378510
0.9816850 0.5326008 0.0722833
0.9975580 0.5404152 0.1054945
0.0019536 0.6322345 0.0017094
0.0061050 0.6283273 0.0017094
0.0217338 0.6236874 0.0017094
0.0627595 0.6158730 0.0019536
0.1299145 0.6053724 0.0017094
0.2156288 0.5943834 0.0014652
0.3057387 0.5838828 0.0014652
0.3919414 0.5753358 0.0017094
0.4669109 0.5692308 0.0021978
0.5355312 0.5663004 0.0026862
0.6073260 0.5631258 0.0039072
0.6771673 0.5614164 0.0065934
0.7462760 0.5619048 0.0112332
0.8188034 0.5650794 0.0212454
0.9013431 0.5684982 0.0427350
0.9753358 0.5731380 0.0766789
0.9963370 0.5777778 0.1059829
0.0034188 0.6984127 0.0021978
0.0083028 0.6942613 0.0021978
0.0251526 0.6881563 0.0021978
0.0652015 0.6796093 0.0021978
0.1282051 0.6688645 0.0021978
0.2080586 0.6571429 0.0021978
0.2937729 0.6456655 0.0021978
0.3770452 0.6366301 0.0026862
0.4510379 0.6290599 0.0029304
0.5208791 0.6236874 0.0039072
0.5902320 0.6205128 0.0058608
0.6600733 0.6170940 0.0095238
0.7301587 0.6151404 0.0156288
0.8034188 0.6153846 0.0283272
0.8871795 0.6161172 0.0515263
0.9660562 0.6180708 0.0840049
0.9936508 0.6210012 0.1108669
0.0051282 0.7621490 0.0034188
0.0134310 0.7565324 0.0036630
0.0327228 0.7496948 0.0036630
0.0710623 0.7401710 0.0036630
0.1296703 0.7289377 0.0036630
0.2034188 0.7172161 0.0039072
0.2847375 0.7057387 0.0041514
0.3650794 0.6957265 0.0048840
0.4371184 0.6876679 0.0058608
0.5059829 0.6808303 0.0073260
0.5753358 0.6754579 0.0100122
0.6429793 0.6722833 0.0148962
0.7135531 0.6688645 0.0236874
0.7885226 0.6661783 0.0390720
0.8727717 0.6649573 0.0622711
0.9548230 0.6647131 0.0923077
0.9882784 0.6659341 0.1167277
0.0080586 0.8212454 0.0087912
0.0202686 0.8144078 0.0095238
0.0410256 0.8078144 0.0092796
0.0786325 0.7990232 0.0087912
0.1338217 0.7880342 0.0087912
0.2019536 0.7763126 0.0087912
0.2786325 0.7643468 0.0092796
0.3548230 0.7545788 0.0102564
0.4239316 0.7465202 0.0117216
0.4918193 0.7389500 0.0139194
0.5606838 0.7323565 0.0175824
0.6285715 0.7272283 0.0239316
0.6969475 0.7240537 0.0354090
0.7721612 0.7203907 0.0520147
0.8576313 0.7174603 0.0744811
0.9421245 0.7177045 0.1020757
0.9868132 0.7211233 0.1277167
