Programming/LUT/Fuji_Astia.cube
TITLE "Astia"
LUT_3D_SIZE 17
0.0026862 0.0021978 0.0021978
0.0185592 0.0021978 0.0021978
0.0820513 0.0029304 0.0021978
0.1697192 0.0039072 0.0017094
0.2444444 0.0046398 0.0012210
0.3191697 0.0063492 0.0009768
0.3919414 0.0087912 0.0007326
0.4637363 0.0124542 0.0012210
0.5284494 0.0175824 0.0024420
0.5926740 0.0261294 0.0056166
0.6630037 0.0371184 0.0134310
0.7294261 0.0520147 0.0310134
0.7890110 0.0705739 0.0590965
0.8434677 0.0942613 0.0932845
0.8932845 0.1260073 0.1299145
0.9384615 0.1746032 0.1616606
0.9450549 0.1821734 0.1663004
0.0043956 0.0124542 0.0029304
0.0205128 0.0112332 0.0021978
0.0659341 0.0148962 0.0019536
0.1399267 0.0185592 0.0021978
0.2207570 0.0217338 0.0004884
0.3040293 0.0263736 0.0000000
0.3824176 0.0310134 0.0000000
0.4566545 0.0366300 0.0009768
0.5242980 0.0439560 0.0019536
0.5909646 0.0529915 0.0043956
0.6605617 0.0649573 0.0100122
0.7252747 0.0808303 0.0229548
0.7841270 0.1008547 0.0463980
0.8393162 0.1260073 0.0791209
0.8903541 0.1550672 0.1181929
0.9377289 0.1870574 0.1572650
0.9448107 0.1919414 0.1628816
0.0036630 0.0512821 0.0017094
0.0170940 0.0534799 0.0009768
0.0590965 0.0576313 0.0009768
0.1282051 0.0608059 0.0014652
0.2095238 0.0649573 0.0004884
0.2927961 0.0710623 0.0000000
0.3733822 0.0769231 0.0000000
0.4495727 0.0837607 0.0007326
0.5181929 0.0910867 0.0017094
0.5853480 0.1003663 0.0031746
0.6542125 0.1128205 0.0065934
0.7189255 0.1284493 0.0139194
0.7787546 0.1474970 0.0297924
0.8349206 0.1706960 0.0595849
0.8871795 0.1963370 0.1003663
0.9338217 0.2212454 0.1411477
0.9406593 0.2249084 0.1470086
0.0041514 0.1079365 0.0000000
0.0185592 0.1120879 0.0000000
0.0615385 0.1167277 0.0000000
0.1272283 0.1216117 0.0000000
0.2073260 0.1269841 0.0000000
0.2898657 0.1323565 0.0000000
0.3692308 0.1384615 0.0000000
0.4451770 0.1443224 0.0000000
0.5137973 0.1511600 0.0004884
0.5794872 0.1599512 0.0019536
0.6481075 0.1709402 0.0043956
0.7125763 0.1853480 0.0095238
0.7731380 0.2014652 0.0205128
0.8310134 0.2210012 0.0451770
0.8859585 0.2442002 0.0842491
0.9318681 0.2676435 0.1260073
0.9443223 0.2727717 0.1401709
0.0058608 0.1838828 0.0000000
0.0217338 0.1885226 0.0000000
0.0649573 0.1916972 0.0000000
0.1294261 0.1965812 0.0000000
0.2063492 0.2012210 0.0000000
0.2871795 0.2053724 0.0000000
0.3670330 0.2090354 0.0000000
0.4422466 0.2139194 0.0000000
0.5091575 0.2200244 0.0000000
0.5741148 0.2268620 0.0007326
0.6420025 0.2356532 0.0026862
0.7069597 0.2471306 0.0068376
0.7680098 0.2603175 0.0158730
0.8275946 0.2776557 0.0376068
0.8837607 0.2969475 0.0766789
0.9335775 0.3177045 0.1255189
0.9733822 0.3304029 0.1785104
0.0080586 0.2634921 0.0000000
0.0256410 0.2664225 0.0000000
0.0693529 0.2681319 0.0000000
0.1326007 0.2710623 0.0000000
0.2090354 0.2759463 0.0000000
0.2852259 0.2800977 0.0000000
0.3636142 0.2835165 0.0000000
0.4388278 0.2884005 0.0000000
0.5045177 0.2930403 0.0000000
0.5684982 0.2986569 0.0000000
0.6368743 0.3050061 0.0014652
0.7010989 0.3135531 0.0048840
0.7616606 0.3242979 0.0122100
0.8214896 0.3384615 0.0315018
0.8769231 0.3543346 0.0683761
0.9242979 0.3711844 0.1133089
0.9487180 0.3797314 0.1391941
0.0114774 0.3460318 0.0000000
0.0315018 0.3477412 0.0000000
0.0752137 0.3472528 0.0000000
0.1377289 0.3492064 0.0000000
0.2129426 0.3538462 0.0000000
0.2869353 0.3533578 0.0000000
0.3623932 0.3570208 0.0000000
0.4354090 0.3599512 0.0000000
0.5013431 0.3621490 0.0000000
0.5641026 0.3665446 0.0000000
0.6310135 0.3714286 0.0004884
0.6945055 0.3777778 0.0034188
0.7548230 0.3863248 0.0100122
0.8126984 0.3973138 0.0280830
0.8693529 0.4114774 0.0659341
0.9203907 0.4266178 0.1128205
0.9604396 0.4358974 0.1509158
0.0166056 0.4229548 0.0000000
0.0400488 0.4246642 0.0000000
0.0835165 0.4261294 0.0000000
0.1435897 0.4241758 0.0000000
0.2153846 0.4241758 0.0000000
0.2893773 0.4234432 0.0000000
0.3606838 0.4244200 0.0000000
0.4319902 0.4268620 0.0000000
0.4971917 0.4297924 0.0000000
0.5601954 0.4317460 0.0000000
0.6256410 0.4349206 0.0002442
0.6884005 0.4383394 0.0029304
0.7479854 0.4454212 0.0100122
0.8048840 0.4556777 0.0283272
0.8625153 0.4683761 0.0666667
0.9118437 0.4803419 0.1103785
0.9345543 0.4866911 0.1311355
0.0219780 0.4940171 0.0000000
0.0505495 0.4905983 0.0000000
0.0940171 0.4927961 0.0000000
0.1506716 0.4923077 0.0000000
0.2185592 0.4908425 0.0000000
0.2920635 0.4896215 0.0000000
0.3623932 0.4918193 0.0000000
0.4290598 0.4935287 0.0000000
0.4935287 0.4962149 0.0000000
0.5567766 0.4957265 0.0000000
0.6195360 0.4959707 0.0002442
0.6827839 0.4981685 0.0029304
0.7394384 0.5020757 0.0102564
0.7948718 0.5079365 0.0305250
0.8544567 0.5164835 0.0705739
0.9086691 0.5260074 0.1159951
0.9474970 0.5328450 0.1553114
0.0305250 0.5606838 0.0000000
0.0642247 0.5575092 0.0000000
0.1067155 0.5548230 0.0000000
0.1579976 0.5533578 0.0000000
0.2244200 0.5523810 0.0000000
0.2947497 0.5516484 0.0000000
0.3636142 0.5521368 0.0000000
0.4290598 0.5514042 0.0000000
0.4910867 0.5518926 0.0000000
0.5523810 0.5516484 0.0000000
0.6153846 0.5518926 0.0009768
0.6739927 0.5545788 0.0039072
0.7328449 0.5557998 0.0124542
0.7877900 0.5604396 0.0339438
0.8444445 0.5692308 0.0752137
0.8964591 0.5770452 0.1172161
0.9201465 0.5797314 0.1384615
0.0407814 0.6307693 0.0000000
0.0810745 0.6295483 0.0000000
0.1216117 0.6275946 0.0000000
0.1743590 0.6249084 0.0000000
0.2351648 0.6244200 0.0000000
0.2996337 0.6185592 0.0000000
0.3663004 0.6148962 0.0000000
0.4354090 0.6146520 0.0000000
0.4925519 0.6175824 0.0000000
0.5479854 0.6200244 0.0002442
0.6100122 0.6185592 0.0021978
0.6693529 0.6180708 0.0065934
0.7255189 0.6200244 0.0173382
0.7821734 0.6234432 0.0412698
0.8373626 0.6285715 0.0808303
0.8901099 0.6339439 0.1257631
0.9296703 0.6344323 0.1660562
0.0542125 0.6954823 0.0002442
0.1013431 0.6971917 0.0002442
0.1428571 0.6962149 0.0002442
0.1902320 0.6945055 0.0000000
0.2473748 0.6908425 0.0000000
0.3111111 0.6879121 0.0000000
0.3731380 0.6840049 0.0002442
0.4383394 0.6837607 0.0004884
0.4959707 0.6822955 0.0009768
0.5516484 0.6796093 0.0024420
0.6095238 0.6786325 0.0053724
0.6647131 0.6769231 0.0122100
0.7213675 0.6754579 0.0271062
0.7760684 0.6771673 0.0539683
0.8322344 0.6800977 0.0942613
0.8793651 0.6815629 0.1306471
0.8925519 0.6815629 0.1428571
0.0735043 0.7526252 0.0034188
0.1238095 0.7511600 0.0031746
0.1645910 0.7477412 0.0029304
0.2085470 0.7450550 0.0029304
0.2654457 0.7435898 0.0029304
0.3240537 0.7406594 0.0029304
0.3848596 0.7369964 0.0031746
0.4442002 0.7343102 0.0041514
0.4979243 0.7338217 0.0056166
0.5528694 0.7313797 0.0085470
0.6102564 0.7291819 0.0144078
0.6634921 0.7267399 0.0253968
0.7179487 0.7264957 0.0468864
0.7714286 0.7260073 0.0754579
0.8278388 0.7269841 0.1130647
0.8744811 0.7269841 0.1467644
0.8881563 0.7267399 0.1570208
0.0989011 0.7941392 0.0112332
0.1487180 0.7912088 0.0107448
0.1890110 0.7890110 0.0100122
0.2327228 0.7904762 0.0117216
0.2835165 0.7892552 0.0126984
0.3374847 0.7865690 0.0146520
0.3975580 0.7829060 0.0136752
0.4537241 0.7789988 0.0168498
0.5054945 0.7738706 0.0163614
0.5575092 0.7770452 0.0268620
0.6102564 0.7758242 0.0376068
0.6634921 0.7692308 0.0493285
0.7164835 0.7706960 0.0757021
0.7697192 0.7697192 0.1028083
0.8246642 0.7692308 0.1357753
0.8739927 0.7699634 0.1704518
0.8888889 0.7658120 0.1792430
0.1108669 0.8109890 0.0256410
0.1616606 0.8068376 0.0231990
0.2058608 0.8075702 0.0205128
0.2600733 0.8253968 0.0319902
0.2866911 0.8266178 0.0358974
0.3472528 0.8224664 0.0454212
0.4139194 0.8185592 0.0363858
0.4632479 0.8134310 0.0512821
0.5145299 0.7941392 0.0324786
0.5680098 0.8080586 0.0532357
0.6056166 0.8080586 0.0630037
0.6608059 0.7899878 0.0686203
0.7172161 0.8039072 0.1174603
0.7765568 0.8029304 0.1343101
0.8261294 0.8029304 0.1631258
0.8778999 0.8078144 0.2063492
0.8876679 0.8090354 0.2156288
0.1321123 0.8466423 0.0778999
0.1865690 0.8383394 0.0678877
0.2459096 0.8315018 0.0385836
0.2698413 0.8339438 0.0371184
0.2879121 0.8322344 0.0398046
0.3553114 0.8285714 0.0510379
0.4180708 0.8256410 0.0439560
0.4730159 0.8266178 0.0703297
0.5479854 0.8163614 0.0595849
0.5760684 0.8156288 0.0615385
0.6043956 0.8151404 0.0708181
0.6566545 0.8112332 0.1003663
0.7162393 0.8131868 0.1308913
0.7765568 0.8090354 0.1404151
0.8263736 0.8080586 0.1677656
0.8803419 0.8168498 0.2170940
0.8984127 0.8324786 0.2442002
0.1560440 0.8864469 0.1504274
0.1792430 0.8778999 0.1345543
0.2500611 0.8405373 0.0495727
0.2708181 0.8346764 0.0376068
0.2947497 0.8329670 0.0398046
0.3916972 0.8334554 0.0529915
0.4258852 0.8368742 0.0642247
0.4844933 0.8522589 0.1208791
0.5526252 0.8288156 0.0808303
0.5765568 0.8175824 0.0644689
0.6051282 0.8161172 0.0727717
0.6615385 0.8207570 0.1167277
0.7150183 0.8214896 0.1418803
0.7694750 0.8158730 0.1465202
0.8251526 0.8097680 0.1694750
0.8844933 0.8271062 0.2315018
0.9208791 0.8673993 0.2937729
0.0029304 0.0024420 0.0166056
0.0161172 0.0031746 0.0153846
0.0727717 0.0046398 0.0141636
0.1626374 0.0061050 0.0148962
0.2383394 0.0063492 0.0144078
0.3206349 0.0078144 0.0139194
0.3934066 0.0112332 0.0134310
0.4652015 0.0158730 0.0153846
0.5306472 0.0212454 0.0183150
0.5965812 0.0295482 0.0253968
0.6666667 0.0400488 0.0393162
0.7306471 0.0539683 0.0605617
0.7914530 0.0727717 0.0903541
0.8471307 0.0959707 0.1252747
0.8991453 0.1245421 0.1626374
0.9411477 0.1582418 0.1946276
0.9479854 0.1641026 0.2000000
0.0039072 0.0129426 0.0170940
0.0178266 0.0141636 0.0144078
0.0625153 0.0192918 0.0124542
0.1347985 0.0249084 0.0144078
0.2207570 0.0256410 0.0112332
0.3062271 0.0283272 0.0107448
0.3848596 0.0327228 0.0117216
0.4586081 0.0385836 0.0129426
0.5269842 0.0451770 0.0158730
0.5931624 0.0544567 0.0229548
0.6620269 0.0666667 0.0358974
0.7264957 0.0825397 0.0559219
0.7860806 0.1032967 0.0835165
0.8429793 0.1286935 0.1167277
0.8962149 0.1575092 0.1536020
0.9418803 0.1863248 0.1885226
0.9518926 0.1938950 0.1978022
0.0041514 0.0542125 0.0126984
0.0175824 0.0556777 0.0112332
0.0615385 0.0590965 0.0112332
0.1301587 0.0615385 0.0119658
0.2117216 0.0669109 0.0105006
0.2959707 0.0727717 0.0100122
0.3763126 0.0791209 0.0102564
0.4522589 0.0859585 0.0109890
0.5216118 0.0932845 0.0139194
0.5880342 0.1023199 0.0197802
0.6561661 0.1147741 0.0305250
0.7206349 0.1296703 0.0485958
0.7804640 0.1484738 0.0735043
0.8380952 0.1716728 0.1054945
0.8930403 0.1985348 0.1426129
0.9379731 0.2236874 0.1770452
0.9484738 0.2305250 0.1863248
0.0051282 0.1155067 0.0078144
0.0200244 0.1184371 0.0078144
0.0652015 0.1206349 0.0075702
0.1296703 0.1255189 0.0073260
0.2095238 0.1306471 0.0063492
0.2918193 0.1350427 0.0061050
0.3716728 0.1409035 0.0061050
0.4478633 0.1470086 0.0073260
0.5159951 0.1543346 0.0095238
0.5819292 0.1626374 0.0141636
0.6495727 0.1736264 0.0234432
0.7140415 0.1873016 0.0398046
0.7743590 0.2034188 0.0632479
0.8327228 0.2239316 0.0942613
0.8896215 0.2473748 0.1318681
0.9362637 0.2700855 0.1670330
0.9516484 0.2774115 0.1804640
0.0070818 0.1916972 0.0043956
0.0229548 0.1953602 0.0039072
0.0678877 0.1975580 0.0039072
0.1326007 0.2004884 0.0036630
0.2085470 0.2061050 0.0034188
0.2891331 0.2095238 0.0034188
0.3687424 0.2131868 0.0034188
0.4437118 0.2180708 0.0039072
0.5113553 0.2239316 0.0053724
0.5758242 0.2305250 0.0092796
0.6429793 0.2390720 0.0163614
0.7076923 0.2495726 0.0310134
0.7680098 0.2627595 0.0534799
0.8268620 0.2796093 0.0837607
0.8844933 0.2991453 0.1218559
0.9369963 0.3199023 0.1636142
0.9797314 0.3350427 0.2031746
0.0100122 0.2732601 0.0029304
0.0268620 0.2737485 0.0024420
0.0710623 0.2749695 0.0024420
0.1357753 0.2776557 0.0021978
0.2109890 0.2803419 0.0019536
0.2874237 0.2840049 0.0017094
0.3645910 0.2876679 0.0021978
0.4390720 0.2908425 0.0024420
0.5059829 0.2947497 0.0031746
0.5699634 0.2996337 0.0056166
0.6366301 0.3057387 0.0109890
0.7010989 0.3147741 0.0231990
0.7614164 0.3257631 0.0437118
0.8197802 0.3396825 0.0739927
0.8766789 0.3562882 0.1128205
0.9301587 0.3755800 0.1565324
0.9760684 0.3946276 0.1995116
0.0148962 0.3514042 0.0017094
0.0329670 0.3506716 0.0014652
0.0771673 0.3518926 0.0012210
0.1394383 0.3538462 0.0012210
0.2126984 0.3555556 0.0012210
0.2888889 0.3560440 0.0012210
0.3636142 0.3594628 0.0012210
0.4351648 0.3621490 0.0017094
0.5013431 0.3638584 0.0024420
0.5648352 0.3672772 0.0034188
0.6307693 0.3721612 0.0078144
0.6947497 0.3787546 0.0173382
0.7540904 0.3875458 0.0366300
0.8119658 0.3985348 0.0666667
0.8688645 0.4124542 0.1064713
0.9221001 0.4290598 0.1494506
0.9677656 0.4439560 0.1899878
0.0214896 0.4251526 0.0012210
0.0417582 0.4236874 0.0012210
0.0849817 0.4258852 0.0012210
0.1448108 0.4258852 0.0009768
0.2161172 0.4249084 0.0007326
0.2901099 0.4253968 0.0009768
0.3628816 0.4271062 0.0012210
0.4315018 0.4290598 0.0012210
0.4969475 0.4297924 0.0017094
0.5599512 0.4324786 0.0026862
0.6251526 0.4361416 0.0063492
0.6886447 0.4410256 0.0151404
0.7474970 0.4476191 0.0341880
0.8036630 0.4564103 0.0637363
0.8617827 0.4676435 0.1030525
0.9152625 0.4815629 0.1443224
0.9553114 0.4967033 0.1760684
0.0280830 0.4935287 0.0012210
0.0517705 0.4903541 0.0012210
0.0940171 0.4903541 0.0012210
0.1521368 0.4901099 0.0009768
0.2205128 0.4901099 0.0009768
0.2923077 0.4898657 0.0009768
0.3628816 0.4905983 0.0012210
0.4310134 0.4920635 0.0012210
0.4927961 0.4930403 0.0017094
0.5557998 0.4937729 0.0026862
0.6202686 0.4959707 0.0065934
0.6825397 0.4981685 0.0148962
0.7406594 0.5020757 0.0334554
0.7956044 0.5091575 0.0622711
0.8534799 0.5177045 0.1023199
0.9091575 0.5296704 0.1440782
0.9528694 0.5418804 0.1799756
0.0373626 0.5597070 0.0017094
0.0656899 0.5567766 0.0017094
0.1069597 0.5562882 0.0014652
0.1616606 0.5557998 0.0012210
0.2261294 0.5550672 0.0012210
0.2952381 0.5533578 0.0012210
0.3648352 0.5526252 0.0014652
0.4319902 0.5514042 0.0017094
0.4918193 0.5523810 0.0024420
0.5516484 0.5538462 0.0039072
0.6156288 0.5543346 0.0085470
0.6764347 0.5548230 0.0173382
0.7335775 0.5565324 0.0354090
0.7890110 0.5621490 0.0649573
0.8456655 0.5706960 0.1045177
0.9013431 0.5787546 0.1457876
0.9440781 0.5848596 0.1775336
0.0478632 0.6283273 0.0029304
0.0822955 0.6258852 0.0029304
0.1230769 0.6239316 0.0026862
0.1758242 0.6234432 0.0024420
0.2363858 0.6227106 0.0024420
0.3008547 0.6207570 0.0024420
0.3667888 0.6180708 0.0026862
0.4334554 0.6163614 0.0031746
0.4915751 0.6158730 0.0046398
0.5492064 0.6168498 0.0073260
0.6105006 0.6178266 0.0119658
0.6708181 0.6168498 0.0234432
0.7269841 0.6185592 0.0424908
0.7826618 0.6217338 0.0717949
0.8390720 0.6263736 0.1096459
0.8945055 0.6322345 0.1511600
0.9360195 0.6349207 0.1833944
0.0593407 0.6937729 0.0065934
0.1023199 0.6927961 0.0063492
0.1431013 0.6915751 0.0061050
0.1914530 0.6903541 0.0056166
0.2483516 0.6879121 0.0053724
0.3113553 0.6854701 0.0053724
0.3746032 0.6825397 0.0058608
0.4378510 0.6808303 0.0070818
0.4952381 0.6788767 0.0092796
0.5514042 0.6766789 0.0124542
0.6085470 0.6757021 0.0195360
0.6652015 0.6754579 0.0329670
0.7218559 0.6747253 0.0539683
0.7760684 0.6761905 0.0825397
0.8329670 0.6783883 0.1196581
0.8825397 0.6805861 0.1548230
0.9018315 0.6815629 0.1697192
0.0761905 0.7523810 0.0151404
0.1260073 0.7496948 0.0144078
0.1660562 0.7474970 0.0136752
0.2117216 0.7452992 0.0131868
0.2664225 0.7426130 0.0131868
0.3257631 0.7396826 0.0134310
0.3855922 0.7365080 0.0148962
0.4446886 0.7343102 0.0170940
0.4996337 0.7323565 0.0205128
0.5540904 0.7301587 0.0258852
0.6097680 0.7279609 0.0356532
0.6634921 0.7267399 0.0517705
0.7174603 0.7260073 0.0737485
0.7721612 0.7252747 0.1013431
0.8285714 0.7257631 0.1360195
0.8810745 0.7264957 0.1721612
0.9174603 0.7267399 0.1987790
0.1010989 0.8012210 0.0351648
0.1545788 0.7973138 0.0322344
0.1919414 0.7948718 0.0305250
0.2366300 0.7934066 0.0307692
0.2864469 0.7909646 0.0310134
0.3411478 0.7880342 0.0322344
0.3985348 0.7853480 0.0346764
0.4542125 0.7814408 0.0380952
0.5057387 0.7785104 0.0424908
0.5572650 0.7785104 0.0520147
0.6112332 0.7768010 0.0637363
0.6639805 0.7731380 0.0783883
0.7167277 0.7721612 0.1010989
0.7692308 0.7716728 0.1272283
0.8249084 0.7706960 0.1567766
0.8793651 0.7687424 0.1909646
0.9174603 0.7562882 0.2126984
0.1255189 0.8366300 0.0669109
0.1794872 0.8293040 0.0610501
0.2109890 0.8273504 0.0527473
0.2573871 0.8285714 0.0559219
0.2964591 0.8278388 0.0568987
0.3511600 0.8244200 0.0593407
0.4139194 0.8212454 0.0603175
0.4632479 0.8183150 0.0671551
0.5103785 0.8119658 0.0666667
0.5609280 0.8122100 0.0781441
0.6083028 0.8100122 0.0869353
0.6586081 0.8058608 0.1025641
0.7155067 0.8083028 0.1316239
0.7687424 0.8078144 0.1550672
0.8217338 0.8053724 0.1792430
0.8788767 0.8092796 0.2156288
0.8986569 0.8129426 0.2327228
0.1377289 0.8559219 0.0937729
0.1833944 0.8473749 0.0849817
0.2195360 0.8371184 0.0617827
0.2622711 0.8351648 0.0627595
0.3015873 0.8373626 0.0695971
0.3633700 0.8376068 0.0766789
0.4200244 0.8356532 0.0781441
0.4683761 0.8324786 0.0857143
0.5145299 0.8246642 0.0825397
0.5621490 0.8188034 0.0852259
0.6083028 0.8163614 0.0932845
0.6608059 0.8185592 0.1186813
0.7130647 0.8229548 0.1460318
0.7599512 0.8217338 0.1645910
0.8207570 0.8131868 0.1851038
0.8837607 0.8280830 0.2346764
0.9196581 0.8649573 0.2910867
0.1570208 0.8879121 0.1533578
0.1741148 0.8803419 0.1409035
0.2212454 0.8454213 0.0761905
0.2649573 0.8390720 0.0700855
0.3086691 0.8417583 0.0786325
0.3980464 0.8605617 0.1216117
0.4293040 0.8627595 0.1296703
0.4761905 0.8605617 0.1394383
0.5050061 0.8515263 0.1282051
0.5606838 0.8268620 0.0986569
0.6117216 0.8231990 0.1047619
0.6813187 0.8454213 0.1631258
0.7091575 0.8507937 0.1819292
0.7360196 0.8461539 0.1860806
0.8214896 0.8224664 0.1956044
0.8886447 0.8485959 0.2627595
0.9277167 0.8822955 0.3145299
0.0036630 0.0043956 0.0727717
0.0185592 0.0063492 0.0693529
0.0664225 0.0112332 0.0586081
0.1565324 0.0114774 0.0703297
0.2134310 0.0080586 0.0783883
0.3218559 0.0097680 0.0769231
0.3887668 0.0131868 0.0805861
0.4630037 0.0183150 0.0837607
0.5296704 0.0244200 0.0849817
0.5980464 0.0349206 0.0884005
0.6691087 0.0476190 0.0996337
0.7328449 0.0620269 0.1181929
0.7929182 0.0813187 0.1431013
0.8495727 0.1047619 0.1741148
0.9042735 0.1357753 0.2087912
0.9467643 0.1636142 0.2422466
0.9584860 0.1738706 0.2547009
0.0041514 0.0207570 0.0598291
0.0190476 0.0227106 0.0573871
0.0634921 0.0288156 0.0532357
0.1379731 0.0310134 0.0586081
0.2175824 0.0319902 0.0620269
0.3079365 0.0356532 0.0639805
0.3841270 0.0402930 0.0708181
0.4578755 0.0468864 0.0722833
0.5264958 0.0529915 0.0749695
0.5938950 0.0625153 0.0820513
0.6630037 0.0752137 0.0949939
0.7272283 0.0903541 0.1135531
0.7868132 0.1106227 0.1382173
0.8442003 0.1355311 0.1675214
0.9013431 0.1653236 0.2014652
0.9501832 0.1960928 0.2385836
0.9802198 0.2244200 0.2727717
0.0053724 0.0610501 0.0590965
0.0207570 0.0627595 0.0581197
0.0652015 0.0652015 0.0573871
0.1306471 0.0698413 0.0566545
0.2146520 0.0757021 0.0576313
0.2986569 0.0810745 0.0588523
0.3775336 0.0869353 0.0605617
0.4534799 0.0937729 0.0622711
0.5230770 0.1010989 0.0666667
0.5887668 0.1101343 0.0752137
0.6566545 0.1218559 0.0874237
0.7206349 0.1362637 0.1045177
0.7802198 0.1545788 0.1282051
0.8385836 0.1765568 0.1562882
0.8971917 0.2036630 0.1902320
0.9504274 0.2332112 0.2275946
0.9841270 0.2593407 0.2620269
0.0065934 0.1208791 0.0539683
0.0224664 0.1228327 0.0532357
0.0693529 0.1247863 0.0529915
0.1323565 0.1306471 0.0503053
0.2124542 0.1357753 0.0473748
0.2945055 0.1406593 0.0471306
0.3733822 0.1460318 0.0473748
0.4493285 0.1518926 0.0503053
0.5174603 0.1592186 0.0544567
0.5826618 0.1677656 0.0625153
0.6500611 0.1787546 0.0749695
0.7142857 0.1919414 0.0923077
0.7743590 0.2080586 0.1152625
0.8329670 0.2280830 0.1431013
0.8920635 0.2520147 0.1775336
0.9482296 0.2786325 0.2161172
0.9833944 0.3018315 0.2476190
0.0078144 0.1975580 0.0410256
0.0246642 0.2004884 0.0385836
0.0708181 0.2026862 0.0383394
0.1357753 0.2056166 0.0373626
0.2112332 0.2112332 0.0346764
0.2913309 0.2144078 0.0339438
0.3699634 0.2178266 0.0344322
0.4446886 0.2219780 0.0371184
0.5115995 0.2283272 0.0412698
0.5760684 0.2346764 0.0488400
0.6432235 0.2429792 0.0612943
0.7069597 0.2532357 0.0793651
0.7675214 0.2659341 0.1020757
0.8263736 0.2822955 0.1308913
0.8857143 0.3030525 0.1663004
0.9438339 0.3274725 0.2078144
0.9841270 0.3477412 0.2434676
0.0107448 0.2771673 0.0315018
0.0285714 0.2778999 0.0283272
0.0735043 0.2793651 0.0275946
0.1379731 0.2808303 0.0263736
0.2129426 0.2842491 0.0246642
0.2896215 0.2871795 0.0239316
0.3658120 0.2903541 0.0253968
0.4398046 0.2937729 0.0280830
0.5067155 0.2971917 0.0319902
0.5706960 0.3018315 0.0383394
0.6363859 0.3084249 0.0493285
0.7003663 0.3167277 0.0666667
0.7606838 0.3279609 0.0896215
0.8185592 0.3418804 0.1184371
0.8774115 0.3599512 0.1550672
0.9355311 0.3816850 0.1990232
0.9768010 0.4009768 0.2373626
0.0158730 0.3540904 0.0234432
0.0349206 0.3540904 0.0214896
0.0791209 0.3557998 0.0207570
0.1413919 0.3565324 0.0197802
0.2141636 0.3570208 0.0192918
0.2901099 0.3589744 0.0190476
0.3641026 0.3621490 0.0200244
0.4356532 0.3645910 0.0222222
0.5018315 0.3660562 0.0258852
0.5655678 0.3687424 0.0310134
0.6310135 0.3736264 0.0407814
0.6937729 0.3799756 0.0571429
0.7536020 0.3887668 0.0800977
0.8109890 0.4009768 0.1096459
0.8693529 0.4156288 0.1470086
0.9267399 0.4334554 0.1914530
0.9682540 0.4481075 0.2288156
0.0231990 0.4273504 0.0192918
0.0439560 0.4271062 0.0183150
0.0876679 0.4273504 0.0178266
0.1479854 0.4273504 0.0168498
0.2180708 0.4273504 0.0163614
0.2918193 0.4288156 0.0161172
0.3645910 0.4295482 0.0168498
0.4334554 0.4315018 0.0188034
0.4971917 0.4329670 0.0214896
0.5606838 0.4351648 0.0263736
0.6256410 0.4385836 0.0356532
0.6879121 0.4437118 0.0512821
0.7460318 0.4503053 0.0742369
0.8019536 0.4598291 0.1032967
0.8608059 0.4710623 0.1411477
0.9194139 0.4849817 0.1858364
0.9611722 0.4976801 0.2229548
0.0322344 0.4947497 0.0188034
0.0551893 0.4937729 0.0183150
0.0976801 0.4937729 0.0175824
0.1550672 0.4937729 0.0158730
0.2224664 0.4935287 0.0153846
0.2940171 0.4932845 0.0153846
0.3645910 0.4923077 0.0158730
0.4334554 0.4925519 0.0178266
0.4942613 0.4945055 0.0205128
0.5557998 0.4957265 0.0253968
0.6202686 0.4971917 0.0351648
0.6813187 0.5003663 0.0510379
0.7396826 0.5052503 0.0737485
0.7948718 0.5130647 0.1025641
0.8527473 0.5221002 0.1396825
0.9115995 0.5335776 0.1836386
0.9543346 0.5440782 0.2200244
0.0432234 0.5601954 0.0207570
0.0688645 0.5579976 0.0200244
0.1098901 0.5579976 0.0192918
0.1648352 0.5579976 0.0183150
0.2285714 0.5567766 0.0170940
0.2971917 0.5560440 0.0173382
0.3653236 0.5550672 0.0183150
0.4329670 0.5543346 0.0200244
0.4932845 0.5538462 0.0231990
0.5523810 0.5548230 0.0297924
0.6151404 0.5555556 0.0405372
0.6754579 0.5567766 0.0564103
0.7326007 0.5594628 0.0778999
0.7882784 0.5650794 0.1062271
0.8456655 0.5721612 0.1423687
0.9040293 0.5809524 0.1851038
0.9472528 0.5880342 0.2180708
0.0566545 0.6263736 0.0273504
0.0854701 0.6253968 0.0268620
0.1255189 0.6241758 0.0256410
0.1780220 0.6229548 0.0241758
0.2380952 0.6219780 0.0234432
0.3030525 0.6205128 0.0234432
0.3684982 0.6183150 0.0244200
0.4336996 0.6168498 0.0268620
0.4930403 0.6153846 0.0312576
0.5511600 0.6146520 0.0383394
0.6109890 0.6153846 0.0498169
0.6700855 0.6156288 0.0659341
0.7264957 0.6170940 0.0866911
0.7816850 0.6205128 0.1137973
0.8393162 0.6246642 0.1484738
0.8971917 0.6307693 0.1897436
0.9399267 0.6366301 0.2214896
0.0708181 0.6913309 0.0388278
0.1050061 0.6888889 0.0378510
0.1438340 0.6871795 0.0358974
0.1926740 0.6849817 0.0339438
0.2503053 0.6830281 0.0334554
0.3120879 0.6810745 0.0334554
0.3755800 0.6783883 0.0351648
0.4380952 0.6764347 0.0390720
0.4954823 0.6742369 0.0449328
0.5516484 0.6727717 0.0520147
0.6095238 0.6717949 0.0630037
0.6654457 0.6717949 0.0791209
0.7213675 0.6717949 0.0998779
0.7763126 0.6727717 0.1262515
0.8332112 0.6752137 0.1587302
0.8901099 0.6783883 0.1968254
0.9304029 0.6813187 0.2266178
0.0874237 0.7494506 0.0581197
0.1289377 0.7465202 0.0571429
0.1675214 0.7445666 0.0554335
0.2141636 0.7421246 0.0534799
0.2686203 0.7394384 0.0532357
0.3264957 0.7369964 0.0537241
0.3868132 0.7335775 0.0559219
0.4459096 0.7313797 0.0600733
0.5003663 0.7294261 0.0649573
0.5540904 0.7272283 0.0720391
0.6097680 0.7250305 0.0830281
0.6634921 0.7240537 0.0981685
0.7172161 0.7238095 0.1179487
0.7719170 0.7233211 0.1428571
0.8285714 0.7235653 0.1736264
0.8849817 0.7264957 0.2095238
0.9291819 0.7308913 0.2412698
