Programming/LUT/Fuji_Pro Neg Std.cube
TITLE "Pro Neg Std"
LUT_3D_SIZE 5
0.0105006 0.0105006 0.0102564
0.2207570 0.0305250 0.0505495
0.4595849 0.0854701 0.0910867
0.7150183 0.1653236 0.1557998
0.8822955 0.2735043 0.2288156
0.0229548 0.1894994 0.0107448
0.2070818 0.2144078 0.0266178
0.4549451 0.2434676 0.0630037
0.7054945 0.2974359 0.1328449
0.9235653 0.3855922 0.2517705
0.0451770 0.4488401 0.0173382
0.2229548 0.4527473 0.0395604
0.4549451 0.4683761 0.0832723
0.6984127 0.4908425 0.1455434
0.9189255 0.5438340 0.2478632
0.0857143 0.7015873 0.0783883
0.2556777 0.7001221 0.1001221
0.4639805 0.7010989 0.1326007
0.6932845 0.7067155 0.1853480
0.8761905 0.7223443 0.2573871
0.1416361 0.8634921 0.2078144
0.2710623 0.8080586 0.1526252
0.5152625 0.8144078 0.2019536
0.6935287 0.8134310 0.2507937
0.9113553 0.8705739 0.3743590
0.0380952 0.0466422 0.2017094
0.2122100 0.0969475 0.2415140
0.4781441 0.1333333 0.2835165
0.7238095 0.1919414 0.3252747
0.9416361 0.3096459 0.3912088
0.0495727 0.2205128 0.2051282
0.2344322 0.2371184 0.2344322
0.4713065 0.2622711 0.2703297
0.7133089 0.3135531 0.3137973
0.9467643 0.4131868 0.3877900
0.0722833 0.4610501 0.2056166
0.2454212 0.4649573 0.2261294
0.4678877 0.4757021 0.2566545
0.7052503 0.5003663 0.3003663
0.9374847 0.5609280 0.3794872
0.1191697 0.7091575 0.2295482
0.2732601 0.7062271 0.2449328
0.4754579 0.7054945 0.2703297
0.6976801 0.7113553 0.3106227
0.9250305 0.7362638 0.3897436
0.2007326 0.9150183 0.3267399
0.3321123 0.9159951 0.3506716
0.4971917 0.8791209 0.3291819
0.6981685 0.8735043 0.3665446
0.9199023 0.8803419 0.4412698
0.1025641 0.1409035 0.4708181
0.2832723 0.1650794 0.5406594
0.4617827 0.1721612 0.5316240
0.7538462 0.2537241 0.6117216
0.9616606 0.3533578 0.6141636
0.0796093 0.2686203 0.4727717
0.2825397 0.2813187 0.4986569
0.4969475 0.3035409 0.5203907
0.7245421 0.3470086 0.5514042
0.9609280 0.4427350 0.5963370
0.0945055 0.4835165 0.4529915
0.2905983 0.4879121 0.4722833
0.4949939 0.4967033 0.4954823
0.7169719 0.5181929 0.5221002
0.9504274 0.5802198 0.5736264
0.1470086 0.7157509 0.4483517
0.3137973 0.7130647 0.4642247
0.5006105 0.7106227 0.4827839
0.7084249 0.7157509 0.5091575
0.9362637 0.7452992 0.5682540
0.2317460 0.9401709 0.4864469
0.3699634 0.9335775 0.4996337
0.5306472 0.9242979 0.5137973
0.7152625 0.9167277 0.5406594
0.9245421 0.9252747 0.6014652
0.2603175 0.2981685 0.7611722
0.3492064 0.2725275 0.7702076
0.5492064 0.2783883 0.7960928
0.7528694 0.3189255 0.8207570
0.9758242 0.4170940 0.8368742
0.1504274 0.3484738 0.7445666
0.3599512 0.3587302 0.7631258
0.5423688 0.3753358 0.7787546
0.7452992 0.4100122 0.7943834
0.9706960 0.4993895 0.8180708
0.1416361 0.5284494 0.7128205
0.3633700 0.5311356 0.7311355
0.5394384 0.5362638 0.7443224
0.7365080 0.5567766 0.7614164
0.9597070 0.6168498 0.7899878
0.1804640 0.7347986 0.6862027
0.3802198 0.7296703 0.7010989
0.5426130 0.7272283 0.7133089
0.7291819 0.7316239 0.7296703
0.9496948 0.7653236 0.7677656
0.2715507 0.9533578 0.6879121
0.4344322 0.9445665 0.6993895
0.5758242 0.9372405 0.7094017
0.7401710 0.9294261 0.7264957
0.9389499 0.9372405 0.7741148
0.4808303 0.5536020 0.9980464
0.5018315 0.5284494 0.9978022
0.6500611 0.5294262 0.9982906
0.8197802 0.5316240 0.9995116
0.9860806 0.5528694 1.0000000
0.4268620 0.5352870 0.9919414
0.5423688 0.5462760 0.9931624
0.6664225 0.5557998 0.9951160
0.8156288 0.5755800 0.9963370
0.9794872 0.6105006 0.9975580
0.2947497 0.6605617 0.9794872
0.5467644 0.6620269 0.9865690
0.6625153 0.6622711 0.9885226
0.8122100 0.6803419 0.9907204
0.9702076 0.6964591 0.9929182
0.3030525 0.8188034 0.9670330
0.5614164 0.8097680 0.9743590
0.6742369 0.8095238 0.9775336
0.8139194 0.8134310 0.9797314
0.9604396 0.8158730 0.9821734
0.3628816 0.9794872 0.9245421
0.5670330 0.9687424 0.9333333
0.6720391 0.9614164 0.9367521
0.8046398 0.9543346 0.9433455
0.9616606 0.9587302 0.9594628
