Programming/LUT/Fuji_Pro Neg Hi.cube
TITLE "Pro Neg Hi"
LUT_3D_SIZE 17
0.0009768 0.0007326 0.0002442
0.0109890 0.0007326 0.0014652
0.0568987 0.0029304 0.0058608
0.1250305 0.0051282 0.0114774
0.1885226 0.0083028 0.0161172
0.2590965 0.0129426 0.0214896
0.3335775 0.0200244 0.0261294
0.4080586 0.0290598 0.0334554
0.4747253 0.0407814 0.0405372
0.5406594 0.0568987 0.0507937
0.6129426 0.0754579 0.0647131
0.6825397 0.1006105 0.0815629
0.7496948 0.1313797 0.1052503
0.8136752 0.1677656 0.1340659
0.8710623 0.2112332 0.1665446
0.9194139 0.2673993 0.1992674
0.9257631 0.2759463 0.2039072
0.0024420 0.0083028 0.0019536
0.0136752 0.0083028 0.0021978
0.0463980 0.0129426 0.0041514
0.1018315 0.0195360 0.0085470
0.1694750 0.0258852 0.0114774
0.2473748 0.0344322 0.0163614
0.3277167 0.0427350 0.0217338
0.4056166 0.0525031 0.0275946
0.4744811 0.0644689 0.0339438
0.5413920 0.0788767 0.0417582
0.6126984 0.0981685 0.0547009
0.6803419 0.1235653 0.0715507
0.7465202 0.1543346 0.0945055
0.8119658 0.1919414 0.1238095
0.8698413 0.2339438 0.1579976
0.9199023 0.2774115 0.1958486
0.9272283 0.2840049 0.2017094
0.0031746 0.0368742 0.0014652
0.0141636 0.0405372 0.0014652
0.0442002 0.0463980 0.0026862
0.0962149 0.0532357 0.0051282
0.1638584 0.0608059 0.0068376
0.2417582 0.0708181 0.0097680
0.3242979 0.0803419 0.0131868
0.4043956 0.0908425 0.0168498
0.4744811 0.1020757 0.0205128
0.5413920 0.1162393 0.0261294
0.6105006 0.1360195 0.0366300
0.6764347 0.1611722 0.0544567
0.7438340 0.1919414 0.0776557
0.8097680 0.2280830 0.1081807
0.8683761 0.2671551 0.1452992
0.9177045 0.3025641 0.1848596
0.9250305 0.3074481 0.1907204
0.0058608 0.0805861 0.0000000
0.0183150 0.0866911 0.0007326
0.0498169 0.0937729 0.0017094
0.1003663 0.1020757 0.0029304
0.1672772 0.1111111 0.0043956
0.2449328 0.1203907 0.0058608
0.3269841 0.1299145 0.0073260
0.4065934 0.1396825 0.0090354
0.4774115 0.1506716 0.0117216
0.5416362 0.1650794 0.0158730
0.6080586 0.1846154 0.0246642
0.6735043 0.2087912 0.0407814
0.7411478 0.2366300 0.0642247
0.8075702 0.2695971 0.0959707
0.8681319 0.3062271 0.1347985
0.9179487 0.3372405 0.1758242
0.9316239 0.3445666 0.1897436
0.0090354 0.1448108 0.0000000
0.0244200 0.1514042 0.0000000
0.0573871 0.1572650 0.0004884
0.1076923 0.1658120 0.0014652
0.1728938 0.1746032 0.0021978
0.2493284 0.1831502 0.0031746
0.3321123 0.1909646 0.0041514
0.4105006 0.2000000 0.0053724
0.4781441 0.2107448 0.0073260
0.5406594 0.2241758 0.0112332
0.6058608 0.2417582 0.0183150
0.6715507 0.2630037 0.0319902
0.7387058 0.2876679 0.0547009
0.8068376 0.3172161 0.0891331
0.8693529 0.3477412 0.1318681
0.9242979 0.3758242 0.1807082
0.9697192 0.3946276 0.2327228
0.0119658 0.2180708 0.0000000
0.0290598 0.2231990 0.0000000
0.0637363 0.2280830 0.0000000
0.1140415 0.2349206 0.0000000
0.1804640 0.2439560 0.0002442
0.2537241 0.2522589 0.0009768
0.3343101 0.2603175 0.0017094
0.4117216 0.2695971 0.0029304
0.4776557 0.2793651 0.0051282
0.5389500 0.2910867 0.0085470
0.6046398 0.3059829 0.0153846
0.6695971 0.3233211 0.0275946
0.7367522 0.3431014 0.0490842
0.8058608 0.3667888 0.0852259
0.8686203 0.3909646 0.1289377
0.9221001 0.4136752 0.1746032
0.9489622 0.4249084 0.2007326
0.0144078 0.3008547 0.0000000
0.0329670 0.3047619 0.0000000
0.0688645 0.3076923 0.0000000
0.1206349 0.3133089 0.0000000
0.1875458 0.3223443 0.0000000
0.2598291 0.3260073 0.0000000
0.3377289 0.3326007 0.0002442
0.4122100 0.3391941 0.0014652
0.4774115 0.3460318 0.0031746
0.5382174 0.3557998 0.0063492
0.6021978 0.3667888 0.0124542
0.6669109 0.3799756 0.0249084
0.7335775 0.3953602 0.0481074
0.8014652 0.4129426 0.0852259
0.8683761 0.4336996 0.1306471
0.9267399 0.4542125 0.1785104
0.9702076 0.4678877 0.2161172
0.0161172 0.3824176 0.0000000
0.0366300 0.3863248 0.0000000
0.0737485 0.3899878 0.0000000
0.1262515 0.3912088 0.0000000
0.1931624 0.3938950 0.0000000
0.2661783 0.3946276 0.0000000
0.3406594 0.3980464 0.0000000
0.4117216 0.4029304 0.0009768
0.4769231 0.4087912 0.0029304
0.5372406 0.4146520 0.0056166
0.6004884 0.4229548 0.0119658
0.6644689 0.4315018 0.0251526
0.7323565 0.4437118 0.0515263
0.7995116 0.4588523 0.0888889
0.8671551 0.4774115 0.1340659
0.9233211 0.4945055 0.1785104
0.9489622 0.5028083 0.1990232
0.0202686 0.4547009 0.0000000
0.0446886 0.4544567 0.0000000
0.0827839 0.4566545 0.0000000
0.1338217 0.4573871 0.0000000
0.1982906 0.4571429 0.0000000
0.2722833 0.4571429 0.0000000
0.3450550 0.4605617 0.0000000
0.4126984 0.4642247 0.0012210
0.4759463 0.4686203 0.0029304
0.5367522 0.4710623 0.0061050
0.5978022 0.4754579 0.0136752
0.6637363 0.4820513 0.0293040
0.7286935 0.4901099 0.0554335
0.7951160 0.5008547 0.0930403
0.8639805 0.5152625 0.1391941
0.9242979 0.5308914 0.1851038
0.9655678 0.5421246 0.2234432
0.0266178 0.5179487 0.0000000
0.0559219 0.5172161 0.0000000
0.0942613 0.5150183 0.0000000
0.1416361 0.5142857 0.0000000
0.2058608 0.5140415 0.0000000
0.2778999 0.5142857 0.0000000
0.3489622 0.5155067 0.0004884
0.4148962 0.5159951 0.0019536
0.4759463 0.5189255 0.0034188
0.5347986 0.5213675 0.0070818
0.5970696 0.5250306 0.0163614
0.6583639 0.5306472 0.0339438
0.7260073 0.5362638 0.0630037
0.7924298 0.5450550 0.0993895
0.8586081 0.5589744 0.1440782
0.9169719 0.5721612 0.1860806
0.9431013 0.5777778 0.2063492
0.0354090 0.5853480 0.0000000
0.0715507 0.5846154 0.0000000
0.1084249 0.5838828 0.0000000
0.1587302 0.5809524 0.0000000
0.2190476 0.5814408 0.0000000
0.2849817 0.5765568 0.0002442
0.3540904 0.5736264 0.0014652
0.4229548 0.5748474 0.0029304
0.4788767 0.5794872 0.0056166
0.5326008 0.5841270 0.0107448
0.5946276 0.5858364 0.0214896
0.6576313 0.5882784 0.0424908
0.7230769 0.5934066 0.0722833
0.7907204 0.6012210 0.1069597
0.8554335 0.6114774 0.1487180
0.9152625 0.6222222 0.1929182
0.9606838 0.6278389 0.2295482
0.0463980 0.6490843 0.0000000
0.0891331 0.6520147 0.0000000
0.1284493 0.6515263 0.0002442
0.1746032 0.6495727 0.0007326
0.2322344 0.6468865 0.0014652
0.2974359 0.6446887 0.0021978
0.3609280 0.6415141 0.0034188
0.4261294 0.6424909 0.0056166
0.4822955 0.6434677 0.0100122
0.5369964 0.6429793 0.0180708
0.5956044 0.6446887 0.0319902
0.6551893 0.6456655 0.0529915
0.7213675 0.6481075 0.0832723
0.7870574 0.6532357 0.1169719
0.8520147 0.6617827 0.1577534
0.9052503 0.6681319 0.1931624
0.9206349 0.6695971 0.2046398
0.0615385 0.7111111 0.0017094
0.1081807 0.7108669 0.0024420
0.1474970 0.7076923 0.0029304
0.1912088 0.7054945 0.0034188
0.2485958 0.7047619 0.0046398
0.3091575 0.7028083 0.0063492
0.3709402 0.6998779 0.0090354
0.4300366 0.6984127 0.0134310
0.4825397 0.6998779 0.0207570
0.5369964 0.6998779 0.0324786
0.5963370 0.6996337 0.0505495
0.6549451 0.6998779 0.0713065
0.7189255 0.7028083 0.0998779
0.7829060 0.7059829 0.1311355
0.8483517 0.7120879 0.1689866
0.9008547 0.7164835 0.2012210
0.9162393 0.7177045 0.2109890
0.0822955 0.7609280 0.0061050
0.1289377 0.7594628 0.0073260
0.1682540 0.7579976 0.0083028
0.2117216 0.7609280 0.0119658
0.2632479 0.7609280 0.0151404
0.3186813 0.7592186 0.0202686
0.3797314 0.7557998 0.0231990
0.4356532 0.7531136 0.0319902
0.4874237 0.7487180 0.0380952
0.5391942 0.7545788 0.0568987
0.5946276 0.7553114 0.0742369
0.6549451 0.7494506 0.0923077
0.7174603 0.7533578 0.1211233
0.7804640 0.7555556 0.1492064
0.8442003 0.7584860 0.1829060
0.9003663 0.7623932 0.2170940
0.9172161 0.7594628 0.2266178
0.0920635 0.7821734 0.0158730
0.1404151 0.7792430 0.0173382
0.1831502 0.7816850 0.0170940
0.2354090 0.8051282 0.0302808
0.2625153 0.8083028 0.0358974
0.3242979 0.8043956 0.0507937
0.3921856 0.8009768 0.0488400
0.4415140 0.7960928 0.0686203
0.4947497 0.7733822 0.0551893
0.5477412 0.7921856 0.0815629
0.5875458 0.7931624 0.0949939
0.6510379 0.7738706 0.1076923
0.7179487 0.7919414 0.1540904
0.7882784 0.7934066 0.1733822
0.8446887 0.7951160 0.2026862
0.9040293 0.8034188 0.2442002
0.9152625 0.8058608 0.2527473
0.1089133 0.8288156 0.0544567
0.1616606 0.8205128 0.0534799
0.2207570 0.8124542 0.0341880
0.2442002 0.8151404 0.0351648
0.2632479 0.8153846 0.0395604
0.3318681 0.8122100 0.0566545
0.3953602 0.8097680 0.0561661
0.4500611 0.8122100 0.0874237
0.5272284 0.8017094 0.0854701
0.5553114 0.8029304 0.0903541
0.5858364 0.8019536 0.1015873
0.6451771 0.7987790 0.1330891
0.7159951 0.8031746 0.1650794
0.7880342 0.8002442 0.1777778
0.8444445 0.8007326 0.2061050
0.9069597 0.8134310 0.2525031
0.9279609 0.8324786 0.2754579
0.1277167 0.8788767 0.1211233
0.1509158 0.8695971 0.1103785
0.2244200 0.8229548 0.0437118
0.2449328 0.8156288 0.0354090
0.2698413 0.8161172 0.0398046
0.3677656 0.8180708 0.0608059
0.4019536 0.8229548 0.0742369
0.4583639 0.8434677 0.1316239
0.5301588 0.8168498 0.1045177
0.5557998 0.8048840 0.0930403
0.5865690 0.8036630 0.1032967
0.6503053 0.8102564 0.1467644
0.7140415 0.8129426 0.1738706
0.7794872 0.8078144 0.1819292
0.8432235 0.8029304 0.2073260
0.9115995 0.8258852 0.2639805
0.9553114 0.8739927 0.3142857
0.0012210 0.0009768 0.0078144
0.0102564 0.0021978 0.0092796
0.0512821 0.0048840 0.0156288
0.1208791 0.0080586 0.0253968
0.1851038 0.0109890 0.0319902
0.2630037 0.0161172 0.0402930
0.3369963 0.0253968 0.0459096
0.4114774 0.0351648 0.0539683
0.4783883 0.0461538 0.0617827
0.5445666 0.0608059 0.0717949
0.6170940 0.0791209 0.0862027
0.6842491 0.1028083 0.1045177
0.7516484 0.1338217 0.1304029
0.8168498 0.1697192 0.1611722
0.8757021 0.2112332 0.1956044
0.9213675 0.2537241 0.2278388
0.9289377 0.2610501 0.2334554
0.0026862 0.0090354 0.0102564
0.0126984 0.0105006 0.0102564
0.0454212 0.0170940 0.0144078
0.1008547 0.0253968 0.0229548
0.1711844 0.0302808 0.0271062
0.2510379 0.0371184 0.0344322
0.3313797 0.0454212 0.0422466
0.4083028 0.0551893 0.0500611
0.4781441 0.0661783 0.0581197
0.5448108 0.0808303 0.0676435
0.6146520 0.1001221 0.0815629
0.6813187 0.1252747 0.1003663
0.7474970 0.1570208 0.1252747
0.8144078 0.1946276 0.1557998
0.8744811 0.2361416 0.1902320
0.9235653 0.2757021 0.2253968
0.9355311 0.2854701 0.2349206
0.0048840 0.0398046 0.0102564
0.0158730 0.0424908 0.0105006
0.0481074 0.0483516 0.0141636
0.0998779 0.0547009 0.0210012
0.1680098 0.0637363 0.0258852
0.2463980 0.0732601 0.0319902
0.3286935 0.0830281 0.0385836
0.4080586 0.0935287 0.0451770
0.4783883 0.1050061 0.0525031
0.5448108 0.1191697 0.0615385
0.6119658 0.1387057 0.0747253
0.6783883 0.1631258 0.0940171
0.7448108 0.1931624 0.1184371
0.8119658 0.2288156 0.1484738
0.8742369 0.2683761 0.1836386
0.9225885 0.3035409 0.2180708
0.9345543 0.3120879 0.2278388
0.0070818 0.0876679 0.0078144
0.0212454 0.0925519 0.0090354
0.0556777 0.0979243 0.0119658
0.1052503 0.1062271 0.0161172
0.1721612 0.1152625 0.0207570
0.2493284 0.1238095 0.0258852
0.3311355 0.1333333 0.0305250
0.4102564 0.1435897 0.0363858
0.4791209 0.1550672 0.0429792
0.5438340 0.1694750 0.0527473
0.6095238 0.1885226 0.0669109
0.6749695 0.2117216 0.0859585
0.7416362 0.2390720 0.1103785
0.8092796 0.2720391 0.1406593
0.8732601 0.3079365 0.1777778
0.9235653 0.3389499 0.2139194
0.9409035 0.3489622 0.2275946
0.0112332 0.1523810 0.0048840
0.0275946 0.1579976 0.0061050
0.0625153 0.1633700 0.0080586
0.1130647 0.1704518 0.0105006
0.1777778 0.1799756 0.0131868
0.2542125 0.1880342 0.0166056
0.3357753 0.1960928 0.0202686
0.4131868 0.2053724 0.0251526
0.4803419 0.2163614 0.0329670
0.5421246 0.2297924 0.0434676
0.6063492 0.2463980 0.0583639
0.6720391 0.2669109 0.0776557
0.7384616 0.2905983 0.1020757
0.8065934 0.3186813 0.1338217
0.8713065 0.3489622 0.1728938
0.9291819 0.3780220 0.2156288
0.9772894 0.3990232 0.2556777
0.0151404 0.2288156 0.0029304
0.0317460 0.2312576 0.0029304
0.0673993 0.2361416 0.0039072
0.1194139 0.2424908 0.0053724
0.1851038 0.2498168 0.0068376
0.2583639 0.2578755 0.0085470
0.3377289 0.2656899 0.0109890
0.4136752 0.2737485 0.0158730
0.4788767 0.2827839 0.0234432
0.5399268 0.2942613 0.0346764
0.6039072 0.3084249 0.0495727
0.6691087 0.3257631 0.0693529
0.7357754 0.3455434 0.0945055
0.8036630 0.3682540 0.1279609
0.8691087 0.3926740 0.1692308
0.9291819 0.4180708 0.2144078
0.9777778 0.4415140 0.2578755
0.0185592 0.3091575 0.0017094
0.0356532 0.3101343 0.0014652
0.0720391 0.3147741 0.0017094
0.1240537 0.3201465 0.0021978
0.1894994 0.3252747 0.0029304
0.2639805 0.3299145 0.0041514
0.3399267 0.3369963 0.0068376
0.4119658 0.3433456 0.0102564
0.4776557 0.3496948 0.0168498
0.5382174 0.3582418 0.0275946
0.6014652 0.3694750 0.0427350
0.6661783 0.3826618 0.0632479
0.7328449 0.3975580 0.0901099
0.8004884 0.4148962 0.1250305
0.8673993 0.4351648 0.1675214
0.9279609 0.4568987 0.2122100
0.9772894 0.4757021 0.2527473
0.0210012 0.3875458 0.0007326
0.0390720 0.3880342 0.0007326
0.0764347 0.3919414 0.0009768
0.1291819 0.3943834 0.0012210
0.1948718 0.3965812 0.0019536
0.2688645 0.3990232 0.0026862
0.3433456 0.4024420 0.0046398
0.4129426 0.4070818 0.0083028
0.4766789 0.4112332 0.0144078
0.5362638 0.4173382 0.0244200
0.5992674 0.4256410 0.0400488
0.6642247 0.4354090 0.0620269
0.7311355 0.4466422 0.0905983
0.7980464 0.4603175 0.1252747
0.8652015 0.4774115 0.1675214
0.9264957 0.4962149 0.2100122
0.9728938 0.5140415 0.2412698
0.0263736 0.4561661 0.0004884
0.0471306 0.4554335 0.0007326
0.0842491 0.4564103 0.0009768
0.1365079 0.4576313 0.0012210
0.2014652 0.4586081 0.0017094
0.2735043 0.4593407 0.0026862
0.3462760 0.4612943 0.0051282
0.4151404 0.4639805 0.0085470
0.4752137 0.4676435 0.0146520
0.5352870 0.4713065 0.0246642
0.5978022 0.4766789 0.0405372
0.6625153 0.4832723 0.0627595
0.7284493 0.4913309 0.0908425
0.7948718 0.5028083 0.1257631
0.8620269 0.5169719 0.1684982
0.9250305 0.5340660 0.2112332
0.9748474 0.5504274 0.2456654
0.0334554 0.5194139 0.0009768
0.0586081 0.5181929 0.0009768
0.0959707 0.5177045 0.0012210
0.1470086 0.5181929 0.0017094
0.2095238 0.5184371 0.0024420
0.2796093 0.5177045 0.0041514
0.3514042 0.5177045 0.0070818
0.4180708 0.5179487 0.0102564
0.4764347 0.5206349 0.0163614
0.5338218 0.5242980 0.0268620
0.5968254 0.5279610 0.0437118
0.6608059 0.5321124 0.0669109
0.7260073 0.5379732 0.0949939
0.7924298 0.5477412 0.1296703
0.8588523 0.5609280 0.1711844
0.9221001 0.5748474 0.2126984
0.9702076 0.5853480 0.2424908
0.0424908 0.5853480 0.0019536
0.0737485 0.5831502 0.0021978
0.1113553 0.5819292 0.0026862
0.1614164 0.5821734 0.0031746
0.2214896 0.5816850 0.0048840
0.2871795 0.5799756 0.0073260
0.3548230 0.5782662 0.0097680
0.4212454 0.5780220 0.0144078
0.4776557 0.5792430 0.0217338
0.5335776 0.5824176 0.0329670
0.5943834 0.5863248 0.0505495
0.6586081 0.5887668 0.0747253
0.7235653 0.5934066 0.1028083
0.7902320 0.6007326 0.1360195
0.8556777 0.6105006 0.1750916
0.9194139 0.6222222 0.2156288
0.9670330 0.6295483 0.2449328
0.0517705 0.6493285 0.0039072
0.0913309 0.6493285 0.0053724
0.1296703 0.6485959 0.0063492
0.1770452 0.6478633 0.0075702
0.2339438 0.6456655 0.0092796
0.2981685 0.6442003 0.0117216
0.3626374 0.6420025 0.0156288
0.4256410 0.6415141 0.0217338
0.4813187 0.6415141 0.0307692
0.5362638 0.6415141 0.0432234
0.5938950 0.6432235 0.0610501
0.6551893 0.6459097 0.0842491
0.7208791 0.6483517 0.1118437
0.7860806 0.6537241 0.1433455
0.8515263 0.6612943 0.1807082
0.9076923 0.6686203 0.2146520
0.9299145 0.6720391 0.2280830
0.0649573 0.7128205 0.0097680
0.1113553 0.7111111 0.0114774
0.1499390 0.7096459 0.0129426
0.1948718 0.7079365 0.0146520
0.2503053 0.7059829 0.0178266
0.3108669 0.7040293 0.0222222
0.3716728 0.7018315 0.0283272
0.4300366 0.7010989 0.0363858
0.4840049 0.7003663 0.0468864
0.5379732 0.7003663 0.0600733
0.5951160 0.6998779 0.0781441
0.6547009 0.7013431 0.0996337
0.7179487 0.7037851 0.1250305
0.7829060 0.7067155 0.1545788
0.8483517 0.7115995 0.1894994
0.9076923 0.7177045 0.2239316
0.9489622 0.7218559 0.2490842
0.0840049 0.7719170 0.0222222
0.1345543 0.7689866 0.0249084
0.1709402 0.7672772 0.0263736
0.2153846 0.7667888 0.0307692
0.2661783 0.7653236 0.0351648
0.3221001 0.7626374 0.0412698
0.3799756 0.7606838 0.0488400
0.4356532 0.7579976 0.0581197
0.4864469 0.7557998 0.0686203
0.5384616 0.7579976 0.0835165
0.5948718 0.7575092 0.1003663
0.6542125 0.7553114 0.1194139
0.7172161 0.7567766 0.1438340
0.7794872 0.7589744 0.1706960
0.8437119 0.7606838 0.2014652
0.9059829 0.7628816 0.2356532
0.9494506 0.7531136 0.2578755
0.1035409 0.8166056 0.0456654
0.1557998 0.8095238 0.0478632
0.1865690 0.8080586 0.0437118
0.2329670 0.8109890 0.0512821
0.2722833 0.8109890 0.0564103
0.3282051 0.8075702 0.0649573
0.3919414 0.8051282 0.0727717
0.4407814 0.8026862 0.0844933
0.4886447 0.7958486 0.0888889
0.5396826 0.7980464 0.1045177
0.5902320 0.7963370 0.1172161
0.6471307 0.7934066 0.1362637
0.7150183 0.7980464 0.1663004
0.7782662 0.7992674 0.1904762
0.8390720 0.7985348 0.2158730
0.9047619 0.8061050 0.2522589
0.9279609 0.8114774 0.2678877
0.1133089 0.8407815 0.0681319
0.1575092 0.8322344 0.0676435
0.1938950 0.8202686 0.0515263
0.2368742 0.8192918 0.0568987
0.2766789 0.8229548 0.0673993
0.3389499 0.8239316 0.0805861
0.3960928 0.8224664 0.0884005
0.4444444 0.8197802 0.1008547
0.4915751 0.8114774 0.1030525
0.5406594 0.8063492 0.1103785
0.5899878 0.8034188 0.1218559
0.6493285 0.8080586 0.1492064
0.7115995 0.8148962 0.1770452
0.7675214 0.8146520 0.1963370
0.8376068 0.8073260 0.2197802
0.9108669 0.8273504 0.2666667
0.9538462 0.8713065 0.3125763
0.1284493 0.8808303 0.1238095
0.1455434 0.8725275 0.1152625
0.1951160 0.8300366 0.0642247
0.2393162 0.8234432 0.0634921
0.2830281 0.8285714 0.0757021
0.3706960 0.8522589 0.1228327
0.4014652 0.8551893 0.1333333
0.4490843 0.8534799 0.1470086
0.4791209 0.8434677 0.1406593
0.5384616 0.8156288 0.1211233
0.5936508 0.8112332 0.1311355
0.6732601 0.8395604 0.1860806
0.7062271 0.8468865 0.2039072
0.7379732 0.8422467 0.2102564
0.8380952 0.8180708 0.2280830
0.9152625 0.8512821 0.2881563
0.9636142 0.8915751 0.3306471
0.0029304 0.0036630 0.0454212
0.0151404 0.0063492 0.0468864
0.0503053 0.0119658 0.0466422
0.1206349 0.0148962 0.0654457
0.1684982 0.0129426 0.0776557
0.2678877 0.0185592 0.0903541
0.3350427 0.0275946 0.1001221
0.4114774 0.0385836 0.1086691
0.4791209 0.0500611 0.1142857
0.5474970 0.0673993 0.1208791
0.6195360 0.0876679 0.1330891
0.6857143 0.1113553 0.1514042
0.7523810 0.1421245 0.1753358
0.8183150 0.1782662 0.2048840
0.8798535 0.2219780 0.2393162
0.9255189 0.2595849 0.2735043
0.9401709 0.2720391 0.2859585
0.0041514 0.0156288 0.0398046
0.0163614 0.0185592 0.0407814
0.0500611 0.0263736 0.0442002
0.1074481 0.0322344 0.0566545
0.1736264 0.0371184 0.0676435
0.2573871 0.0446886 0.0793651
0.3340659 0.0532357 0.0925519
0.4102564 0.0634921 0.0993895
0.4793651 0.0739927 0.1064713
0.5462760 0.0891331 0.1155067
0.6156288 0.1089133 0.1291819
0.6815629 0.1333333 0.1482296
0.7474970 0.1643468 0.1724054
0.8144078 0.2014652 0.2012210
0.8788767 0.2444444 0.2351648
0.9326007 0.2857143 0.2735043
0.9724054 0.3191697 0.3081807
0.0068376 0.0463980 0.0427350
0.0205128 0.0498169 0.0446886
0.0547009 0.0549451 0.0498169
0.1050061 0.0627595 0.0566545
0.1753358 0.0725275 0.0664225
0.2532357 0.0815629 0.0759463
0.3333333 0.0908425 0.0847375
0.4114774 0.1010989 0.0918193
0.4818071 0.1125763 0.0996337
0.5460318 0.1269841 0.1103785
0.6126984 0.1465202 0.1242979
0.6774115 0.1702076 0.1428571
0.7435898 0.1992674 0.1663004
0.8114774 0.2336996 0.1941392
0.8769231 0.2739927 0.2283272
0.9355311 0.3142857 0.2671551
0.9787546 0.3452992 0.3025641
0.0097680 0.0942613 0.0429792
0.0251526 0.0979243 0.0449328
0.0620269 0.1032967 0.0498169
0.1111111 0.1120879 0.0547009
0.1787546 0.1213675 0.0608059
0.2556777 0.1299145 0.0678877
0.3357753 0.1391941 0.0742369
0.4139194 0.1492064 0.0813187
0.4820513 0.1609280 0.0888889
0.5440782 0.1755800 0.0998779
0.6092796 0.1946276 0.1147741
0.6742369 0.2170940 0.1338217
0.7406594 0.2439560 0.1570208
0.8085470 0.2761905 0.1851038
0.8754579 0.3125763 0.2207570
0.9365079 0.3489622 0.2610501
0.9792430 0.3758242 0.2930403
0.0126984 0.1597070 0.0358974
0.0305250 0.1643468 0.0363858
0.0673993 0.1702076 0.0407814
0.1186813 0.1770452 0.0456654
0.1836386 0.1868132 0.0495727
0.2595849 0.1943834 0.0547009
0.3394383 0.2019536 0.0600733
0.4153846 0.2109890 0.0673993
0.4810745 0.2222222 0.0759463
0.5418804 0.2351648 0.0879121
0.6058608 0.2515263 0.1040293
0.6705739 0.2715507 0.1240537
0.7372406 0.2947497 0.1474970
0.8053724 0.3218559 0.1772894
0.8725275 0.3528694 0.2144078
0.9374847 0.3851038 0.2578755
0.9831502 0.4090354 0.2937729
0.0163614 0.2351648 0.0285714
0.0346764 0.2378510 0.0275946
0.0713065 0.2424908 0.0302808
0.1235653 0.2483516 0.0336996
0.1892552 0.2556777 0.0363858
0.2632479 0.2630037 0.0398046
0.3404151 0.2708181 0.0461538
0.4153846 0.2783883 0.0547009
0.4798535 0.2874237 0.0644689
0.5399268 0.2984127 0.0769231
0.6029304 0.3123321 0.0930403
0.6676435 0.3291819 0.1137973
0.7340659 0.3487180 0.1387057
0.8019536 0.3706960 0.1697192
0.8700855 0.3963370 0.2087912
0.9365079 0.4239316 0.2544567
0.9829060 0.4459096 0.2923077
0.0197802 0.3145299 0.0195360
0.0378510 0.3164835 0.0188034
0.0752137 0.3213675 0.0202686
0.1277167 0.3260073 0.0224664
0.1931624 0.3304029 0.0256410
0.2673993 0.3350427 0.0297924
0.3423688 0.3418804 0.0363858
0.4151404 0.3479854 0.0446886
0.4778999 0.3538462 0.0551893
0.5382174 0.3619048 0.0683761
0.6007326 0.3724054 0.0852259
0.6647131 0.3848596 0.1067155
0.7316239 0.4000000 0.1333333
0.7992674 0.4175824 0.1655678
0.8671551 0.4383394 0.2056166
0.9335775 0.4612943 0.2512821
0.9804640 0.4793651 0.2876679
0.0236874 0.3931624 0.0131868
0.0422466 0.3934066 0.0134310
0.0805861 0.3965812 0.0148962
0.1338217 0.3992674 0.0170940
0.1990232 0.4012210 0.0207570
0.2717949 0.4043956 0.0251526
0.3455434 0.4070818 0.0310134
0.4151404 0.4112332 0.0390720
0.4766789 0.4156288 0.0498169
0.5365080 0.4217338 0.0634921
0.5990232 0.4293040 0.0818071
0.6630037 0.4388278 0.1042735
0.7289377 0.4498169 0.1308913
0.7960928 0.4637363 0.1633700
0.8639805 0.4808303 0.2034188
0.9306471 0.5003663 0.2488400
0.9782662 0.5164835 0.2840049
0.0312576 0.4610501 0.0117216
0.0517705 0.4600733 0.0126984
0.0893773 0.4615385 0.0141636
0.1411477 0.4630037 0.0163614
0.2053724 0.4632479 0.0202686
0.2769231 0.4642247 0.0246642
0.3487180 0.4647131 0.0312576
0.4178266 0.4666667 0.0395604
0.4764347 0.4705739 0.0505495
0.5345544 0.4744811 0.0644689
0.5973138 0.4796093 0.0830281
0.6608059 0.4862027 0.1052503
0.7269841 0.4949939 0.1318681
0.7934066 0.5067155 0.1641026
0.8612943 0.5211233 0.2036630
0.9277167 0.5384616 0.2478632
0.9770452 0.5531136 0.2815629
0.0398046 0.5225886 0.0131868
0.0632479 0.5213675 0.0146520
0.1003663 0.5218560 0.0166056
0.1518926 0.5223444 0.0195360
0.2136752 0.5218560 0.0231990
0.2827839 0.5218560 0.0285714
0.3528694 0.5216118 0.0354090
0.4192918 0.5218560 0.0444444
0.4781441 0.5235654 0.0556777
0.5338218 0.5272284 0.0703297
0.5951160 0.5308914 0.0886447
0.6588523 0.5352870 0.1108669
0.7240537 0.5416362 0.1367521
0.7907204 0.5511600 0.1682540
0.8576313 0.5628816 0.2061050
0.9247863 0.5777778 0.2483516
0.9746032 0.5892552 0.2786325
0.0520147 0.5858364 0.0190476
0.0783883 0.5848596 0.0212454
0.1155067 0.5841270 0.0236874
0.1655678 0.5838828 0.0266178
0.2249084 0.5831502 0.0315018
0.2908425 0.5819292 0.0376068
0.3575092 0.5807082 0.0451770
0.4217338 0.5804640 0.0549451
0.4788767 0.5807082 0.0661783
0.5350428 0.5824176 0.0800977
0.5938950 0.5858364 0.0979243
0.6564103 0.5890110 0.1199023
0.7216117 0.5936508 0.1448108
0.7875458 0.6007326 0.1748474
0.8539683 0.6102564 0.2105006
0.9206349 0.6222222 0.2500611
0.9709402 0.6324787 0.2781441
0.0637363 0.6498169 0.0285714
0.0957265 0.6481075 0.0317460
0.1323565 0.6466423 0.0344322
0.1797314 0.6449329 0.0378510
0.2373626 0.6434677 0.0434676
0.3001221 0.6424909 0.0495727
0.3641026 0.6407815 0.0576313
0.4256410 0.6398047 0.0676435
0.4810745 0.6395605 0.0793651
0.5357754 0.6398047 0.0925519
0.5936508 0.6412699 0.1096459
0.6542125 0.6444445 0.1304029
0.7186813 0.6478633 0.1548230
0.7846154 0.6522589 0.1829060
0.8503053 0.6595849 0.2158730
0.9150183 0.6691087 0.2510379
0.9619048 0.6766789 0.2774115
0.0769231 0.7135531 0.0442002
0.1162393 0.7111111 0.0490842
0.1531136 0.7096459 0.0522589
0.1990232 0.7079365 0.0556777
0.2537241 0.7059829 0.0610501
0.3123321 0.7042735 0.0673993
0.3726496 0.7020757 0.0757021
0.4307692 0.7010989 0.0857143
0.4835165 0.7006105 0.0962149
0.5365080 0.6998779 0.1086691
0.5941392 0.6996337 0.1247863
0.6539683 0.7006105 0.1435897
0.7159951 0.7035409 0.1660562
0.7809524 0.7067155 0.1919414
0.8466423 0.7115995 0.2227106
0.9106227 0.7196581 0.2564103
