Programming/LUT/Fuji_Pro Neg Hi.cube
TITLE "Pro Neg Hi"
LUT_3D_SIZE 9
0.0009768 0.0007326 0.0002442
0.0568987 0.0029304 0.0058608
0.1885226 0.0083028 0.0161172
0.3335775 0.0200244 0.0261294
0.4747253 0.0407814 0.0405372
0.6129426 0.0754579 0.0647131
0.7496948 0.1313797 0.1052503
0.8710623 0.2112332 0.1665446
0.9257631 0.2759463 0.2039072
0.0031746 0.0368742 0.0014652
0.0442002 0.0463980 0.0026862
0.1638584 0.0608059 0.0068376
0.3242979 0.0803419 0.0131868
0.4744811 0.1020757 0.0205128
0.6105006 0.1360195 0.0366300
0.7438340 0.1919414 0.0776557
0.8683761 0.2671551 0.1452992
0.9250305 0.3074481 0.1907204
0.0090354 0.1448108 0.0000000
0.0573871 0.1572650 0.0004884
0.1728938 0.1746032 0.0021978
0.3321123 0.1909646 0.0041514
0.4781441 0.2107448 0.0073260
0.6058608 0.2417582 0.0183150
0.7387058 0.2876679 0.0547009
0.8693529 0.3477412 0.1318681
0.9697192 0.3946276 0.2327228
0.0144078 0.3008547 0.0000000
0.0688645 0.3076923 0.0000000
0.1875458 0.3223443 0.0000000
0.3377289 0.3326007 0.0002442
0.4774115 0.3460318 0.0031746
0.6021978 0.3667888 0.0124542
0.7335775 0.3953602 0.0481074
0.8683761 0.4336996 0.1306471
0.9702076 0.4678877 0.2161172
0.0202686 0.4547009 0.0000000
0.0827839 0.4566545 0.0000000
0.1982906 0.4571429 0.0000000
0.3450550 0.4605617 0.0000000
0.4759463 0.4686203 0.0029304
0.5978022 0.4754579 0.0136752
0.7286935 0.4901099 0.0554335
0.8639805 0.5152625 0.1391941
0.9655678 0.5421246 0.2234432
0.0354090 0.5853480 0.0000000
0.1084249 0.5838828 0.0000000
0.2190476 0.5814408 0.0000000
0.3540904 0.5736264 0.0014652
0.4788767 0.5794872 0.0056166
0.5946276 0.5858364 0.0214896
0.7230769 0.5934066 0.0722833
0.8554335 0.6114774 0.1487180
0.9606838 0.6278389 0.2295482
0.0615385 0.7111111 0.0017094
0.1474970 0.7076923 0.0029304
0.2485958 0.7047619 0.0046398
0.3709402 0.6998779 0.0090354
0.4825397 0.6998779 0.0207570
0.5963370 0.6996337 0.0505495
0.7189255 0.7028083 0.0998779
0.8483517 0.7120879 0.1689866
0.9162393 0.7177045 0.2109890
0.0920635 0.7821734 0.0158730
0.1831502 0.7816850 0.0170940
0.2625153 0.8083028 0.0358974
0.3921856 0.8009768 0.0488400
0.4947497 0.7733822 0.0551893
0.5875458 0.7931624 0.0949939
0.7179487 0.7919414 0.1540904
0.8446887 0.7951160 0.2026862
0.9152625 0.8058608 0.2527473
0.1277167 0.8788767 0.1211233
0.2244200 0.8229548 0.0437118
0.2698413 0.8161172 0.0398046
0.4019536 0.8229548 0.0742369
0.5301588 0.8168498 0.1045177
0.5865690 0.8036630 0.1032967
0.7140415 0.8129426 0.1738706
0.8432235 0.8029304 0.2073260
0.9553114 0.8739927 0.3142857
0.0029304 0.0036630 0.0454212
0.0503053 0.0119658 0.0466422
0.1684982 0.0129426 0.0776557
0.3350427 0.0275946 0.1001221
0.4791209 0.0500611 0.1142857
0.6195360 0.0876679 0.1330891
0.7523810 0.1421245 0.1753358
0.8798535 0.2219780 0.2393162
0.9401709 0.2720391 0.2859585
0.0068376 0.0463980 0.0427350
0.0547009 0.0549451 0.0498169
0.1753358 0.0725275 0.0664225
0.3333333 0.0908425 0.0847375
0.4818071 0.1125763 0.0996337
0.6126984 0.1465202 0.1242979
0.7435898 0.1992674 0.1663004
0.8769231 0.2739927 0.2283272
0.9787546 0.3452992 0.3025641
0.0126984 0.1597070 0.0358974
0.0673993 0.1702076 0.0407814
0.1836386 0.1868132 0.0495727
0.3394383 0.2019536 0.0600733
0.4810745 0.2222222 0.0759463
0.6058608 0.2515263 0.1040293
0.7372406 0.2947497 0.1474970
0.8725275 0.3528694 0.2144078
0.9831502 0.4090354 0.2937729
0.0197802 0.3145299 0.0195360
0.0752137 0.3213675 0.0202686
0.1931624 0.3304029 0.0256410
0.3423688 0.3418804 0.0363858
0.4778999 0.3538462 0.0551893
0.6007326 0.3724054 0.0852259
0.7316239 0.4000000 0.1333333
0.8671551 0.4383394 0.2056166
0.9804640 0.4793651 0.2876679
0.0312576 0.4610501 0.0117216
0.0893773 0.4615385 0.0141636
0.2053724 0.4632479 0.0202686
0.3487180 0.4647131 0.0312576
0.4764347 0.4705739 0.0505495
0.5973138 0.4796093 0.0830281
0.7269841 0.4949939 0.1318681
0.8612943 0.5211233 0.2036630
0.9770452 0.5531136 0.2815629
0.0520147 0.5858364 0.0190476
0.1155067 0.5841270 0.0236874
0.2249084 0.5831502 0.0315018
0.3575092 0.5807082 0.0451770
0.4788767 0.5807082 0.0661783
0.5938950 0.5858364 0.0979243
0.7216117 0.5936508 0.1448108
0.8539683 0.6102564 0.2105006
0.9709402 0.6324787 0.2781441
0.0769231 0.7135531 0.0442002
0.1531136 0.7096459 0.0522589
0.2537241 0.7059829 0.0610501
0.3726496 0.7020757 0.0757021
0.4835165 0.7006105 0.0962149
0.5941392 0.6996337 0.1247863
0.7159951 0.7035409 0.1660562
0.8466423 0.7115995 0.2227106
0.9606838 0.7286935 0.2849817
0.1130647 0.8356532 0.0964591
0.1978022 0.8249084 0.1010989
0.2874237 0.8256410 0.1150183
0.3912088 0.8183150 0.1242979
0.4903541 0.8095238 0.1372405
0.5965812 0.8070818 0.1633700
0.7128205 0.8083028 0.1992674
0.8378510 0.8083028 0.2471306
0.9531136 0.8253968 0.3076923
0.1345543 0.8923077 0.1457876
0.2190476 0.8713065 0.1545788
0.3115995 0.8759463 0.1736264
0.4034188 0.8727717 0.1641026
0.4752137 0.8576313 0.1694750
0.6031746 0.8517705 0.2051282
0.7035409 0.8625153 0.2227106
0.8661783 0.8532357 0.2788767
0.9643468 0.8940171 0.3379731
0.0068376 0.0144078 0.1750916
0.0537241 0.0295482 0.2105006
0.1699634 0.0515263 0.2134310
0.3531136 0.0439560 0.2415140
0.4859585 0.0871795 0.2615385
0.6195360 0.1018315 0.2798535
0.7462760 0.1623932 0.3172161
0.8793651 0.2434676 0.3687424
0.9819292 0.3191697 0.4017094
0.0122100 0.0695971 0.1772894
0.0739927 0.0835165 0.1902320
0.1890110 0.0979243 0.2053724
0.3484738 0.1125763 0.2288156
0.4866911 0.1328449 0.2500611
0.6102564 0.1655678 0.2754579
0.7394384 0.2148962 0.3123321
0.8747253 0.2886447 0.3560440
0.9863248 0.3609280 0.4029304
0.0192918 0.1797314 0.1726496
0.0822955 0.1890110 0.1826618
0.1997558 0.2017094 0.1987790
0.3501832 0.2153846 0.2156288
0.4825397 0.2344322 0.2349206
0.6039072 0.2634921 0.2583639
0.7330891 0.3064713 0.2901099
0.8695971 0.3631258 0.3384615
0.9846154 0.4212454 0.3907204
0.0288156 0.3289377 0.1626374
0.0920635 0.3360195 0.1675214
0.2080586 0.3428572 0.1789988
0.3509158 0.3514042 0.1924298
0.4798535 0.3641026 0.2126984
0.5990232 0.3824176 0.2368742
0.7269841 0.4078144 0.2730159
0.8632479 0.4446886 0.3240537
0.9814408 0.4881563 0.3794872
0.0371184 0.4678877 0.1504274
0.1054945 0.4683761 0.1557998
0.2188034 0.4688645 0.1675214
0.3565324 0.4703297 0.1819292
0.4776557 0.4754579 0.2014652
0.5951160 0.4832723 0.2280830
0.7228327 0.4991453 0.2630037
0.8578755 0.5252748 0.3140415
0.9770452 0.5592186 0.3680098
0.0600733 0.5904762 0.1538462
0.1308913 0.5897436 0.1599512
0.2376068 0.5860806 0.1699634
0.3648352 0.5843712 0.1843712
0.4796093 0.5841270 0.2017094
0.5934066 0.5899878 0.2263736
0.7186813 0.5980464 0.2590965
0.8515263 0.6144078 0.3050061
0.9738706 0.6405373 0.3577534
0.0918193 0.7181929 0.1726496
0.1648352 0.7147741 0.1770452
0.2630037 0.7101343 0.1846154
0.3777778 0.7064713 0.1958486
0.4844933 0.7042735 0.2107448
0.5934066 0.7047619 0.2315018
0.7140415 0.7079365 0.2598291
0.8442003 0.7167277 0.3013431
0.9680098 0.7328449 0.3555556
0.1433455 0.8449329 0.2083028
0.2134310 0.8393162 0.2117216
0.2989011 0.8346764 0.2168498
0.3980464 0.8297924 0.2249084
0.4957265 0.8261294 0.2366300
0.5973138 0.8222222 0.2529915
0.7130647 0.8190476 0.2774115
0.8371184 0.8217338 0.3164835
0.9633700 0.8334554 0.3711844
0.1936508 0.9345543 0.2673993
0.2630037 0.9335775 0.2742369
0.3347985 0.9323565 0.2857143
0.4151404 0.8937729 0.2527473
0.5047619 0.8862027 0.2586081
0.6014652 0.8844933 0.2737485
0.7128205 0.8778999 0.2981685
0.8390720 0.8771673 0.3343101
0.9633700 0.8847375 0.3848596
0.0153846 0.0380952 0.3372405
0.0866911 0.0700855 0.3663004
0.2061050 0.0783883 0.4244200
0.3460318 0.0976801 0.4639805
0.5052503 0.1142857 0.4315018
0.6119658 0.1548230 0.4542125
0.7445666 0.1943834 0.4815629
0.8820513 0.2688645 0.4940171
0.9877900 0.3433456 0.5230770
0.0192918 0.0962149 0.3536020
0.0986569 0.1106227 0.3663004
0.2178266 0.1242979 0.3970696
0.3643468 0.1389499 0.4190476
0.4942613 0.1582418 0.4234432
0.6085470 0.1909646 0.4415140
0.7372406 0.2390720 0.4581197
0.8713065 0.3072039 0.4791209
0.9855922 0.3768010 0.5106227
0.0261294 0.2046398 0.3553114
0.1054945 0.2136752 0.3660562
0.2227106 0.2246642 0.3789988
0.3636142 0.2385836 0.3907204
0.4869353 0.2583639 0.4019536
0.6041514 0.2852259 0.4151404
0.7304029 0.3225885 0.4346764
0.8639805 0.3750916 0.4625153
0.9838828 0.4339438 0.4947497
0.0322344 0.3496948 0.3396825
0.1133089 0.3545788 0.3477412
0.2295482 0.3577534 0.3533578
0.3648352 0.3663004 0.3658120
0.4844933 0.3768010 0.3768010
0.5995116 0.3931624 0.3931624
0.7250305 0.4175824 0.4126984
0.8595849 0.4542125 0.4429792
0.9819292 0.4991453 0.4796093
0.0488400 0.4757021 0.3255189
0.1321123 0.4778999 0.3304029
0.2407814 0.4766789 0.3382173
0.3684982 0.4766789 0.3470086
0.4832723 0.4830281 0.3592186
0.5968254 0.4915751 0.3755800
0.7206349 0.5062271 0.3956044
0.8547009 0.5306472 0.4271062
0.9787546 0.5667888 0.4669109
0.0725275 0.5960928 0.3174603
0.1553114 0.5943834 0.3216117
0.2576313 0.5907204 0.3277167
0.3758242 0.5880342 0.3362637
0.4862027 0.5882784 0.3479854
0.5953602 0.5938950 0.3611722
0.7162393 0.6024420 0.3824176
0.8483517 0.6190476 0.4124542
0.9755800 0.6466423 0.4542125
0.1050061 0.7199023 0.3179487
0.1890110 0.7157509 0.3203907
0.2815629 0.7113553 0.3245421
0.3887668 0.7072039 0.3311355
0.4908425 0.7052503 0.3404151
0.5958486 0.7054945 0.3538462
0.7133089 0.7094017 0.3726496
0.8424909 0.7184371 0.4021978
0.9704518 0.7369964 0.4471307
0.1575092 0.8488401 0.3274725
0.2373626 0.8437119 0.3286935
0.3164835 0.8390720 0.3313797
0.4092796 0.8332112 0.3372405
0.5023199 0.8288156 0.3450550
0.6009768 0.8253968 0.3560440
0.7135531 0.8222222 0.3746032
0.8358974 0.8256410 0.4056166
0.9672772 0.8395604 0.4544567
0.2141636 0.9553114 0.3460318
0.2820513 0.9509158 0.3477412
0.3494506 0.9496948 0.3514042
0.4351648 0.9416361 0.3575092
0.5169719 0.9335775 0.3614164
0.6109890 0.9311355 0.3716728
0.7128205 0.9206349 0.3836386
0.8312576 0.9225885 0.4205128
0.9536020 0.9277167 0.4590965
0.0507937 0.0876679 0.5094017
0.1318681 0.1064713 0.5326008
0.2512821 0.1128205 0.5838828
0.3616606 0.1125763 0.5694750
0.4588523 0.1223443 0.5741148
0.6207570 0.1882784 0.5865690
0.7611722 0.2366300 0.6368743
0.8774115 0.2908425 0.6078144
0.9887668 0.3643468 0.6241758
0.0373626 0.1279609 0.5179487
0.1387057 0.1448108 0.5326008
0.2483516 0.1577534 0.5560440
0.3846154 0.1682540 0.5667888
0.4937729 0.1868132 0.5660562
0.6119658 0.2210012 0.5750916
0.7362638 0.2649573 0.5824176
0.8676435 0.3277167 0.5936508
0.9851038 0.3973138 0.6119658
0.0395604 0.2356532 0.5169719
0.1387057 0.2442002 0.5282052
0.2544567 0.2527473 0.5355312
0.3816850 0.2652015 0.5396826
0.4962149 0.2837607 0.5431014
0.6068376 0.3086691 0.5494506
0.7304029 0.3435898 0.5599512
0.8622711 0.3909646 0.5738706
0.9829060 0.4488401 0.5987790
0.0463980 0.3706960 0.4993895
0.1470086 0.3736264 0.5025641
0.2600733 0.3775336 0.5052503
0.3826618 0.3841270 0.5098901
0.4935287 0.3946276 0.5159951
0.6039072 0.4085470 0.5230770
0.7264957 0.4319902 0.5340660
0.8576313 0.4654457 0.5526252
0.9807082 0.5106227 0.5811966
0.0568987 0.4896215 0.4747253
0.1631258 0.4888889 0.4778999
0.2688645 0.4896215 0.4813187
0.3863248 0.4893773 0.4869353
0.4930403 0.4949939 0.4937729
0.6007326 0.5020757 0.5018315
0.7225885 0.5162393 0.5133089
0.8527473 0.5411478 0.5338218
0.9780220 0.5780220 0.5648352
0.0864469 0.6021978 0.4583639
0.1870574 0.5980464 0.4615385
0.2827839 0.5965812 0.4630037
0.3931624 0.5956044 0.4688645
0.4952381 0.5956044 0.4752137
0.6002442 0.5997558 0.4835165
0.7181929 0.6073260 0.4954823
0.8473749 0.6253968 0.5177045
0.9750916 0.6554335 0.5516484
0.1228327 0.7238095 0.4446886
0.2190476 0.7186813 0.4466422
0.3057387 0.7157509 0.4490843
0.4036630 0.7123321 0.4525031
0.4998779 0.7098901 0.4586081
0.6012210 0.7098901 0.4661783
0.7152625 0.7135531 0.4788767
0.8405373 0.7223443 0.5023199
0.9699634 0.7428572 0.5421246
0.1692308 0.8507937 0.4407814
0.2617827 0.8442003 0.4422466
0.3369963 0.8402930 0.4437118
0.4236874 0.8351648 0.4459096
0.5120879 0.8315018 0.4520147
0.6063492 0.8278388 0.4605617
0.7157509 0.8253968 0.4744811
0.8358974 0.8290598 0.4989011
0.9663004 0.8442003 0.5421246
0.2290598 0.9626374 0.4488401
0.3074481 0.9579976 0.4488401
0.3719170 0.9531136 0.4529915
0.4503053 0.9484738 0.4539683
0.5308914 0.9413919 0.4600733
0.6192918 0.9355311 0.4683761
0.7211233 0.9323565 0.4830281
0.8356532 0.9299145 0.5057387
0.9582418 0.9401709 0.5536020
0.1391941 0.1675214 0.6964591
0.1323565 0.1413919 0.6178266
0.2710623 0.1499390 0.6798535
0.4051282 0.1677656 0.7140415
0.5096459 0.1853480 0.7069597
0.6251526 0.2273504 0.7221001
0.7584860 0.2639805 0.7308913
0.8764347 0.3218559 0.7223443
0.9868132 0.3899878 0.7360196
0.0898657 0.1799756 0.6778999
0.1899878 0.1926740 0.6920635
0.2908425 0.1948718 0.6940171
0.4126984 0.2112332 0.6991453
0.5135531 0.2305250 0.7023199
0.6195360 0.2600733 0.7035409
0.7379732 0.2996337 0.7057387
0.8656899 0.3548230 0.7081807
0.9853480 0.4222222 0.7262515
0.0632479 0.2776557 0.6627595
0.1902320 0.2857143 0.6688645
0.2974359 0.2920635 0.6720391
0.4083028 0.3045177 0.6737485
0.5111111 0.3191697 0.6764347
0.6158730 0.3411478 0.6786325
0.7338217 0.3704518 0.6827839
0.8608059 0.4117216 0.6903541
0.9821734 0.4703297 0.7103785
0.0725275 0.3990232 0.6407815
0.1978022 0.4002442 0.6434677
0.3001221 0.4041514 0.6439561
0.4090354 0.4092796 0.6478633
0.5081807 0.4192918 0.6515263
0.6122100 0.4317460 0.6542125
0.7299145 0.4510379 0.6600733
0.8568987 0.4803419 0.6715507
0.9816850 0.5286936 0.6930403
0.0805861 0.5050061 0.6156288
0.2109890 0.5037851 0.6168498
0.3064713 0.5032967 0.6183150
0.4114774 0.5050061 0.6212454
0.5086691 0.5089133 0.6268620
0.6095238 0.5172161 0.6317461
0.7264957 0.5296704 0.6388279
0.8525031 0.5526252 0.6498169
0.9787546 0.5914530 0.6742369
0.1037851 0.6134310 0.5936508
0.2300366 0.6092796 0.5953602
0.3181929 0.6058608 0.5960928
0.4158730 0.6053724 0.5987790
0.5101343 0.6070818 0.6046398
0.6092796 0.6109890 0.6097680
0.7225885 0.6180708 0.6170940
0.8471307 0.6344323 0.6305251
0.9758242 0.6656899 0.6568987
0.1433455 0.7294261 0.5746032
0.2578755 0.7233211 0.5753358
0.3360195 0.7206349 0.5772894
0.4249084 0.7177045 0.5792430
0.5140415 0.7155067 0.5838828
0.6100122 0.7157509 0.5885226
0.7189255 0.7194139 0.5958486
0.8400488 0.7277167 0.6112332
0.9702076 0.7501832 0.6432235
0.1875458 0.8527473 0.5616606
0.2952381 0.8454213 0.5611722
0.3636142 0.8410257 0.5631258
0.4434676 0.8371184 0.5650794
0.5257632 0.8341880 0.5680098
0.6153846 0.8307692 0.5736264
0.7206349 0.8295482 0.5846154
0.8363858 0.8324786 0.6014652
0.9680098 0.8515263 0.6380953
0.2466422 0.9677656 0.5609280
0.3384615 0.9636142 0.5609280
0.3975580 0.9594628 0.5626374
0.4703297 0.9545788 0.5633700
0.5460318 0.9487180 0.5684982
0.6300367 0.9433455 0.5736264
0.7262515 0.9389499 0.5855922
0.8388278 0.9352869 0.6043956
0.9621490 0.9477412 0.6444445
0.2385836 0.2593407 0.8332112
0.3023199 0.2986569 0.9062271
0.3391941 0.2307692 0.8405373
0.4466422 0.2283272 0.8317460
0.5433456 0.2468864 0.8529915
0.6454213 0.2708181 0.8688645
0.7501832 0.3086691 0.8588523
0.8720391 0.3597070 0.8547009
0.9858364 0.4227106 0.8583639
0.1785104 0.2424908 0.8410257
0.2610501 0.2515263 0.8373626
0.3536020 0.2590965 0.8437119
0.4490843 0.2739927 0.8449329
0.5377290 0.2893773 0.8449329
0.6349207 0.3128205 0.8415141
0.7452992 0.3450550 0.8398046
0.8661783 0.3904762 0.8400488
0.9851038 0.4544567 0.8466423
0.1194139 0.3296703 0.8175824
0.2634921 0.3369963 0.8183150
0.3523810 0.3418804 0.8192918
0.4444444 0.3526252 0.8207570
0.5350428 0.3645910 0.8207570
0.6317461 0.3816850 0.8205128
0.7416362 0.4065934 0.8210012
0.8622711 0.4427350 0.8224664
0.9831502 0.4996337 0.8341880
0.1108669 0.4334554 0.7890110
0.2676435 0.4349206 0.7907204
0.3531136 0.4363858 0.7929182
0.4446886 0.4410256 0.7931624
0.5326008 0.4488401 0.7943834
0.6278389 0.4598291 0.7960928
0.7374848 0.4766789 0.7987790
0.8576313 0.5054945 0.8036630
0.9809524 0.5533578 0.8153846
0.1199023 0.5286936 0.7667888
0.2774115 0.5255190 0.7682540
0.3582418 0.5262516 0.7682540
0.4466422 0.5277168 0.7694750
0.5321124 0.5306472 0.7704518
0.6251526 0.5396826 0.7733822
0.7340659 0.5509158 0.7768010
0.8534799 0.5721612 0.7816850
0.9799756 0.6134310 0.7968254
0.1369963 0.6297925 0.7440782
0.2923077 0.6241758 0.7433456
0.3667888 0.6222222 0.7445666
0.4507937 0.6212454 0.7457876
0.5340660 0.6231990 0.7474970
0.6244200 0.6261294 0.7492064
0.7301587 0.6339439 0.7526252
0.8490843 0.6478633 0.7601954
0.9755800 0.6832723 0.7775336
0.1709402 0.7396826 0.7184371
0.3108669 0.7318681 0.7177045
0.3785104 0.7296703 0.7184371
0.4568987 0.7279609 0.7196581
0.5362638 0.7260073 0.7208791
0.6253968 0.7257631 0.7242979
0.7277167 0.7294261 0.7279609
0.8437119 0.7377290 0.7387058
0.9724054 0.7631258 0.7611722
0.2151404 0.8549451 0.6989011
0.3409036 0.8481075 0.6979243
0.4009768 0.8442003 0.6979243
0.4732601 0.8410257 0.6991453
0.5477412 0.8376068 0.7010989
0.6317461 0.8349206 0.7040293
0.7289377 0.8339438 0.7089133
0.8410257 0.8385836 0.7189255
0.9684982 0.8620269 0.7465202
0.2766789 0.9733822 0.6879121
0.3807082 0.9670330 0.6869353
0.4346764 0.9643468 0.6874237
0.5010989 0.9619048 0.6864469
0.5704518 0.9570208 0.6888889
0.6485959 0.9531136 0.6918193
0.7384616 0.9487180 0.6991453
0.8463981 0.9443223 0.7120879
0.9650794 0.9553114 0.7489622
0.3675214 0.3882784 0.9916972
0.3731380 0.3792430 0.9880342
0.4112332 0.3699634 0.9851038
0.4942613 0.3758242 0.9909646
0.5719170 0.3450550 0.9848596
0.6649573 0.3560440 0.9855922
0.7643468 0.3736264 0.9807082
0.8781441 0.4124542 0.9772894
0.9880342 0.4676435 0.9797314
0.3030525 0.3401709 0.9799756
0.3587302 0.3428572 0.9785104
0.4258852 0.3477412 0.9794872
0.4976801 0.3565324 0.9797314
0.5755800 0.3670330 0.9785104
0.6617827 0.3821734 0.9760684
0.7619048 0.4046398 0.9724054
0.8735043 0.4400488 0.9689866
0.9860806 0.4971917 0.9721612
0.2412698 0.3963370 0.9631258
0.3560440 0.4031746 0.9623932
0.4212454 0.4070818 0.9619048
0.4952381 0.4131868 0.9606838
0.5719170 0.4227106 0.9599512
0.6581197 0.4349206 0.9584860
0.7579976 0.4537241 0.9587302
0.8695971 0.4840049 0.9565324
0.9848596 0.5365080 0.9594628
0.1843712 0.4808303 0.9416361
0.3579976 0.4805861 0.9416361
0.4212454 0.4827839 0.9413919
0.4949939 0.4857143 0.9409035
0.5702076 0.4923077 0.9416361
0.6554335 0.5008547 0.9406593
0.7543346 0.5155067 0.9394383
0.8656899 0.5406594 0.9377289
0.9821734 0.5858364 0.9445665
0.1789988 0.5631258 0.9203907
0.3643468 0.5601954 0.9213675
0.4246642 0.5604396 0.9211233
0.4959707 0.5621490 0.9199023
0.5706960 0.5648352 0.9201465
0.6532357 0.5711844 0.9201465
0.7514042 0.5816850 0.9189255
0.8617827 0.6007326 0.9186813
0.9785104 0.6405373 0.9274725
0.1948718 0.6520147 0.8979243
0.3699634 0.6456655 0.8967033
0.4283272 0.6454213 0.8969475
0.4979243 0.6454213 0.8957265
0.5704518 0.6471307 0.8957265
0.6525031 0.6503053 0.8957265
0.7470086 0.6576313 0.8967033
0.8568987 0.6715507 0.8971917
0.9755800 0.7054945 0.9108669
0.2200244 0.7565324 0.8720391
0.3826618 0.7477412 0.8688645
0.4371184 0.7465202 0.8703297
0.5035409 0.7443224 0.8693529
0.5733822 0.7435898 0.8705739
0.6532357 0.7443224 0.8698413
0.7450550 0.7470086 0.8695971
0.8527473 0.7550672 0.8727717
0.9714286 0.7811966 0.8923077
0.2583639 0.8661783 0.8454213
0.4048840 0.8571429 0.8429793
0.4559219 0.8547009 0.8432235
0.5179487 0.8515263 0.8424909
0.5838828 0.8485959 0.8424909
0.6590965 0.8463981 0.8439561
0.7465202 0.8461539 0.8459097
0.8520147 0.8498169 0.8522589
0.9682540 0.8761905 0.8766789
0.3203907 0.9787546 0.8275946
0.4410256 0.9726496 0.8261294
0.4876679 0.9702076 0.8263736
0.5455434 0.9682540 0.8273504
0.6075702 0.9650794 0.8280830
0.6774115 0.9611722 0.8315018
0.7594628 0.9587302 0.8363858
0.8630037 0.9553114 0.8451771
0.9687424 0.9663004 0.8766789
0.5030525 0.5269842 1.0000000
0.4800977 0.5006105 1.0000000
0.5164835 0.5030525 1.0000000
0.5719170 0.4920635 1.0000000
0.6515263 0.5064713 1.0000000
0.7311355 0.5072039 1.0000000
0.8200244 0.5120879 1.0000000
0.9208791 0.5304030 1.0000000
0.9934066 0.5423688 1.0000000
0.4671551 0.4940171 1.0000000
0.4905983 0.4967033 1.0000000
0.5396826 0.4974359 1.0000000
0.5960928 0.4932845 1.0000000
0.6691087 0.5086691 1.0000000
0.7367522 0.5074481 1.0000000
0.8197802 0.5233212 1.0000000
0.9167277 0.5492064 1.0000000
0.9924298 0.5680098 1.0000000
0.4473749 0.5115995 1.0000000
0.5050061 0.5211233 1.0000000
0.5506716 0.5240538 1.0000000
0.6034188 0.5252748 1.0000000
0.6659341 0.5355312 1.0000000
0.7335775 0.5445666 1.0000000
0.8148962 0.5584860 1.0000000
0.9123321 0.5821734 1.0000000
0.9909646 0.6000000 1.0000000
0.3873016 0.5733822 1.0000000
0.5047619 0.5777778 1.0000000
0.5499390 0.5807082 1.0000000
0.6031746 0.5824176 1.0000000
0.6598291 0.5843712 1.0000000
0.7323565 0.5982906 1.0000000
0.8122100 0.6090354 1.0000000
0.9094017 0.6283273 0.9997558
0.9877900 0.6415141 1.0000000
0.3291819 0.6444445 0.9980464
0.5084249 0.6429793 0.9980464
0.5538462 0.6459097 0.9980464
0.6061050 0.6466423 0.9978022
0.6617827 0.6476191 0.9978022
0.7304029 0.6549451 0.9978022
0.8122100 0.6676435 0.9978022
0.9079365 0.6815629 0.9975580
0.9863248 0.6888889 0.9980464
0.3216117 0.7242979 0.9953602
0.5169719 0.7194139 0.9948718
0.5592186 0.7196581 0.9951160
0.6129426 0.7213675 0.9948718
0.6676435 0.7216117 0.9946276
0.7328449 0.7242979 0.9948718
0.8144078 0.7352870 0.9946276
0.9069597 0.7435898 0.9948718
0.9833944 0.7455434 0.9963370
0.3418804 0.8146520 0.9916972
0.5279610 0.8061050 0.9914530
0.5682540 0.8051282 0.9914530
0.6195360 0.8051282 0.9914530
0.6742369 0.8051282 0.9914530
0.7372406 0.8065934 0.9912088
0.8148962 0.8102564 0.9909646
0.9054945 0.8170940 0.9916972
0.9789988 0.8136752 0.9934066
0.3753358 0.9169719 0.9860806
0.5452992 0.9067155 0.9853480
0.5843712 0.9050061 0.9848596
0.6322345 0.9032967 0.9846154
0.6832723 0.9018315 0.9841270
0.7433456 0.9010989 0.9836386
0.8188034 0.9023199 0.9833944
0.9079365 0.9050061 0.9836386
0.9731380 0.9084249 0.9843712
0.3890110 0.9909646 0.9733822
0.5294262 0.9865690 0.9706960
0.5697192 0.9858364 0.9709402
0.6178266 0.9838828 0.9699634
0.6700855 0.9811966 0.9682540
0.7299145 0.9787546 0.9672772
0.8048840 0.9750916 0.9670330
0.8989011 0.9716728 0.9684982
0.9780220 0.9777778 0.9765568
