Programming/LUT/Fuji_Astia.cube
TITLE "Astia"
LUT_3D_SIZE 9
0.0026862 0.0021978 0.0021978
0.0820513 0.0029304 0.0021978
0.2444444 0.0046398 0.0012210
0.3919414 0.0087912 0.0007326
0.5284494 0.0175824 0.0024420
0.6630037 0.0371184 0.0134310
0.7890110 0.0705739 0.0590965
0.8932845 0.1260073 0.1299145
0.9450549 0.1821734 0.1663004
0.0036630 0.0512821 0.0017094
0.0590965 0.0576313 0.0009768
0.2095238 0.0649573 0.0004884
0.3733822 0.0769231 0.0000000
0.5181929 0.0910867 0.0017094
0.6542125 0.1128205 0.0065934
0.7787546 0.1474970 0.0297924
0.8871795 0.1963370 0.1003663
0.9406593 0.2249084 0.1470086
0.0058608 0.1838828 0.0000000
0.0649573 0.1916972 0.0000000
0.2063492 0.2012210 0.0000000
0.3670330 0.2090354 0.0000000
0.5091575 0.2200244 0.0000000
0.6420025 0.2356532 0.0026862
0.7680098 0.2603175 0.0158730
0.8837607 0.2969475 0.0766789
0.9733822 0.3304029 0.1785104
0.0114774 0.3460318 0.0000000
0.0752137 0.3472528 0.0000000
0.2129426 0.3538462 0.0000000
0.3623932 0.3570208 0.0000000
0.5013431 0.3621490 0.0000000
0.6310135 0.3714286 0.0004884
0.7548230 0.3863248 0.0100122
0.8693529 0.4114774 0.0659341
0.9604396 0.4358974 0.1509158
0.0219780 0.4940171 0.0000000
0.0940171 0.4927961 0.0000000
0.2185592 0.4908425 0.0000000
0.3623932 0.4918193 0.0000000
0.4935287 0.4962149 0.0000000
0.6195360 0.4959707 0.0002442
0.7394384 0.5020757 0.0102564
0.8544567 0.5164835 0.0705739
0.9474970 0.5328450 0.1553114
0.0407814 0.6307693 0.0000000
0.1216117 0.6275946 0.0000000
0.2351648 0.6244200 0.0000000
0.3663004 0.6148962 0.0000000
0.4925519 0.6175824 0.0000000
0.6100122 0.6185592 0.0021978
0.7255189 0.6200244 0.0173382
0.8373626 0.6285715 0.0808303
0.9296703 0.6344323 0.1660562
0.0735043 0.7526252 0.0034188
0.1645910 0.7477412 0.0029304
0.2654457 0.7435898 0.0029304
0.3848596 0.7369964 0.0031746
0.4979243 0.7338217 0.0056166
0.6102564 0.7291819 0.0144078
0.7179487 0.7264957 0.0468864
0.8278388 0.7269841 0.1130647
0.8881563 0.7267399 0.1570208
0.1108669 0.8109890 0.0256410
0.2058608 0.8075702 0.0205128
0.2866911 0.8266178 0.0358974
0.4139194 0.8185592 0.0363858
0.5145299 0.7941392 0.0324786
0.6056166 0.8080586 0.0630037
0.7172161 0.8039072 0.1174603
0.8261294 0.8029304 0.1631258
0.8876679 0.8090354 0.2156288
0.1560440 0.8864469 0.1504274
0.2500611 0.8405373 0.0495727
0.2947497 0.8329670 0.0398046
0.4258852 0.8368742 0.0642247
0.5526252 0.8288156 0.0808303
0.6051282 0.8161172 0.0727717
0.7150183 0.8214896 0.1418803
0.8251526 0.8097680 0.1694750
0.9208791 0.8673993 0.2937729
0.0036630 0.0043956 0.0727717
0.0664225 0.0112332 0.0586081
0.2134310 0.0080586 0.0783883
0.3887668 0.0131868 0.0805861
0.5296704 0.0244200 0.0849817
0.6691087 0.0476190 0.0996337
0.7929182 0.0813187 0.1431013
0.9042735 0.1357753 0.2087912
0.9584860 0.1738706 0.2547009
0.0053724 0.0610501 0.0590965
0.0652015 0.0652015 0.0573871
0.2146520 0.0757021 0.0576313
0.3775336 0.0869353 0.0605617
0.5230770 0.1010989 0.0666667
0.6566545 0.1218559 0.0874237
0.7802198 0.1545788 0.1282051
0.8971917 0.2036630 0.1902320
0.9841270 0.2593407 0.2620269
0.0078144 0.1975580 0.0410256
0.0708181 0.2026862 0.0383394
0.2112332 0.2112332 0.0346764
0.3699634 0.2178266 0.0344322
0.5115995 0.2283272 0.0412698
0.6432235 0.2429792 0.0612943
0.7675214 0.2659341 0.1020757
0.8857143 0.3030525 0.1663004
0.9841270 0.3477412 0.2434676
0.0158730 0.3540904 0.0234432
0.0791209 0.3557998 0.0207570
0.2141636 0.3570208 0.0192918
0.3641026 0.3621490 0.0200244
0.5018315 0.3660562 0.0258852
0.6310135 0.3736264 0.0407814
0.7536020 0.3887668 0.0800977
0.8693529 0.4156288 0.1470086
0.9682540 0.4481075 0.2288156
0.0322344 0.4947497 0.0188034
0.0976801 0.4937729 0.0175824
0.2224664 0.4935287 0.0153846
0.3645910 0.4923077 0.0158730
0.4942613 0.4945055 0.0205128
0.6202686 0.4971917 0.0351648
0.7396826 0.5052503 0.0737485
0.8527473 0.5221002 0.1396825
0.9543346 0.5440782 0.2200244
0.0566545 0.6263736 0.0273504
0.1255189 0.6241758 0.0256410
0.2380952 0.6219780 0.0234432
0.3684982 0.6183150 0.0244200
0.4930403 0.6153846 0.0312576
0.6109890 0.6153846 0.0498169
0.7264957 0.6170940 0.0866911
0.8393162 0.6246642 0.1484738
0.9399267 0.6366301 0.2214896
0.0874237 0.7494506 0.0581197
0.1675214 0.7445666 0.0554335
0.2686203 0.7394384 0.0532357
0.3868132 0.7335775 0.0559219
0.5003663 0.7294261 0.0649573
0.6097680 0.7250305 0.0830281
0.7172161 0.7238095 0.1179487
0.8285714 0.7235653 0.1736264
0.9291819 0.7308913 0.2412698
0.1357753 0.8495727 0.1223443
0.2227106 0.8380952 0.1133089
0.3120879 0.8376068 0.1184371
0.4151404 0.8302808 0.1162393
0.5140415 0.8214896 0.1191697
0.6151404 0.8173382 0.1374847
0.7137973 0.8163614 0.1699634
0.8212454 0.8129426 0.2161172
0.9208791 0.8234432 0.2788767
0.1638584 0.8967033 0.1760684
0.2468864 0.8754579 0.1736264
0.3399267 0.8783883 0.1848596
0.4329670 0.8761905 0.1643468
0.5025641 0.8627595 0.1619048
0.6222222 0.8551893 0.1909646
0.7074481 0.8642247 0.2053724
0.8466423 0.8515263 0.2559219
0.9286935 0.8837607 0.3228327
0.0053724 0.0090354 0.2551893
0.0532357 0.0219780 0.2840049
0.1985348 0.0454212 0.2576313
0.3980464 0.0258852 0.2603175
0.5291820 0.0647131 0.2622711
0.6703297 0.0610501 0.2688645
0.7892552 0.1045177 0.2979243
0.9067155 0.1597070 0.3460318
0.9892552 0.2180708 0.3789988
0.0068376 0.0842491 0.2444444
0.0764347 0.0940171 0.2449328
0.2166056 0.1023199 0.2378510
0.3836386 0.1096459 0.2388278
0.5250306 0.1218559 0.2449328
0.6559219 0.1411477 0.2581197
0.7787546 0.1704518 0.2866911
0.8981685 0.2185592 0.3267399
0.9916972 0.2744811 0.3758242
0.0107448 0.2124542 0.2212454
0.0793651 0.2158730 0.2207570
0.2190476 0.2214896 0.2188034
0.3746032 0.2268620 0.2175824
0.5130647 0.2361416 0.2229548
0.6429793 0.2510379 0.2334554
0.7663004 0.2754579 0.2559219
0.8849817 0.3133089 0.2996337
0.9843712 0.3616606 0.3545788
0.0217338 0.3594628 0.2026862
0.0915751 0.3619048 0.1975580
0.2217338 0.3628816 0.1931624
0.3684982 0.3655678 0.1894994
0.5037851 0.3709402 0.1941392
0.6310135 0.3797314 0.2043956
0.7521368 0.3943834 0.2295482
0.8681319 0.4207570 0.2764347
0.9733822 0.4547009 0.3365079
0.0332112 0.4949939 0.1880342
0.1074481 0.4940171 0.1811966
0.2290598 0.4930403 0.1753358
0.3687424 0.4923077 0.1714286
0.4962149 0.4942613 0.1743590
0.6202686 0.4964591 0.1873016
0.7374848 0.5059829 0.2129426
0.8529915 0.5230770 0.2622711
0.9592186 0.5470086 0.3223443
0.0595849 0.6249084 0.1819292
0.1347985 0.6234432 0.1746032
0.2454212 0.6190476 0.1684982
0.3743590 0.6158730 0.1663004
0.4954823 0.6124542 0.1697192
0.6119658 0.6151404 0.1831502
0.7260073 0.6170940 0.2097680
0.8390720 0.6251526 0.2559219
0.9474970 0.6398047 0.3152625
0.0984127 0.7462760 0.1965812
0.1748474 0.7421246 0.1882784
0.2744811 0.7367522 0.1829060
0.3909646 0.7318681 0.1811966
0.5025641 0.7269841 0.1858364
0.6105006 0.7242979 0.1985348
0.7164835 0.7233211 0.2239316
0.8285714 0.7240537 0.2659341
0.9367521 0.7304029 0.3238095
0.1631258 0.8498169 0.2385836
0.2349206 0.8442003 0.2322344
0.3206349 0.8398046 0.2278388
0.4217338 0.8346764 0.2263736
0.5206349 0.8300366 0.2307692
0.6168498 0.8258852 0.2412698
0.7150183 0.8219780 0.2615385
0.8217338 0.8212454 0.2981685
0.9301587 0.8268620 0.3523810
0.2205128 0.9201465 0.3115995
0.2918193 0.9191697 0.3108669
0.3645910 0.9174603 0.3162393
0.4444444 0.8876679 0.2654457
0.5333334 0.8815629 0.2639805
0.6227106 0.8793651 0.2742369
0.7152625 0.8737485 0.2927961
0.8229548 0.8708181 0.3247863
0.9289377 0.8725275 0.3743590
0.0002442 0.0363858 0.4466422
0.0766789 0.0713065 0.4547009
0.2188034 0.0735043 0.4905983
0.3680098 0.0920635 0.5059829
0.5438340 0.0954823 0.4451770
0.6598291 0.1257631 0.4547009
0.7882784 0.1423687 0.4771673
0.9103785 0.1885226 0.4898657
0.9936508 0.2459096 0.5250306
0.0090354 0.1120879 0.4507937
0.0884005 0.1228327 0.4437118
0.2302808 0.1313797 0.4493285
0.3863248 0.1404151 0.4461538
0.5286936 0.1489622 0.4317460
0.6539683 0.1677656 0.4376068
0.7768010 0.1960928 0.4481075
0.8957265 0.2393162 0.4705739
0.9904762 0.2942613 0.5052503
0.0122100 0.2329670 0.4307692
0.0923077 0.2361416 0.4251526
0.2293040 0.2412698 0.4163614
0.3794872 0.2473748 0.4078144
0.5150183 0.2568987 0.4039072
0.6429793 0.2700855 0.4048840
0.7641026 0.2908425 0.4178266
0.8803419 0.3269841 0.4451770
0.9848596 0.3765568 0.4786325
0.0207570 0.3724054 0.4009768
0.1030525 0.3731380 0.3946276
0.2324786 0.3726496 0.3821734
0.3748474 0.3760684 0.3765568
0.5067155 0.3799756 0.3721612
0.6315019 0.3875458 0.3760684
0.7492064 0.4031746 0.3882784
0.8654457 0.4310134 0.4163614
0.9750916 0.4666667 0.4549451
0.0361416 0.4984127 0.3789988
0.1235653 0.4993895 0.3684982
0.2405372 0.4964591 0.3594628
0.3748474 0.4942613 0.3504274
0.5003663 0.4974359 0.3477412
0.6214896 0.5010989 0.3521368
0.7352870 0.5101343 0.3653236
0.8507937 0.5262516 0.3963370
0.9641026 0.5521368 0.4390720
0.0600733 0.6241758 0.3616606
0.1484738 0.6222222 0.3504274
0.2561661 0.6178266 0.3409036
0.3807082 0.6134310 0.3347985
0.5010989 0.6109890 0.3338217
0.6144078 0.6131868 0.3374847
0.7238095 0.6168498 0.3540904
0.8378510 0.6256410 0.3833944
0.9528694 0.6417583 0.4275946
0.1020757 0.7409036 0.3601954
0.1894994 0.7360196 0.3482296
0.2854701 0.7308913 0.3411478
0.3980464 0.7255189 0.3355311
0.5076923 0.7213675 0.3347985
0.6131868 0.7186813 0.3404151
0.7169719 0.7189255 0.3553114
0.8288156 0.7211233 0.3831502
0.9428571 0.7301587 0.4271062
0.1684982 0.8471307 0.3782662
0.2510379 0.8415141 0.3680098
0.3330891 0.8373626 0.3614164
0.4297924 0.8317460 0.3572650
0.5255190 0.8273504 0.3565324
0.6200244 0.8231990 0.3601954
0.7162393 0.8200244 0.3731380
0.8219780 0.8212454 0.3987790
0.9362637 0.8283272 0.4434676
0.2373626 0.9328449 0.4034188
0.3074481 0.9289377 0.3963370
0.3777778 0.9282051 0.3931624
0.4656899 0.9218559 0.3907204
0.5462760 0.9159951 0.3865690
0.6315019 0.9152625 0.3892552
0.7167277 0.9064713 0.3934066
0.8185592 0.9062271 0.4249084
0.9235653 0.9089133 0.4544567
0.0119658 0.0996337 0.6192918
0.0952381 0.1159951 0.6241758
0.2417582 0.1194139 0.6627595
0.3724054 0.1113553 0.6231990
0.4837607 0.1133089 0.6129426
0.6637363 0.1631258 0.6097680
0.7987790 0.1873016 0.6615385
0.9047619 0.2175824 0.6241758
0.9929182 0.2759463 0.6376069
0.0144078 0.1484738 0.6300367
0.1098901 0.1619048 0.6217338
0.2400488 0.1709402 0.6246642
0.3924298 0.1736264 0.6126984
0.5201465 0.1814408 0.5965812
0.6525031 0.2002442 0.5951160
0.7736264 0.2244200 0.5965812
0.8901099 0.2656899 0.6043956
0.9890110 0.3230769 0.6188034
0.0166056 0.2620269 0.6126984
0.1081807 0.2652015 0.6043956
0.2432234 0.2678877 0.5929182
0.3848596 0.2727717 0.5799756
0.5181929 0.2805861 0.5692308
0.6417583 0.2930403 0.5645910
0.7609280 0.3135531 0.5672772
0.8757021 0.3477412 0.5760684
0.9826618 0.3965812 0.5960928
0.0246642 0.3890110 0.5841270
0.1191697 0.3887668 0.5711844
0.2461538 0.3894994 0.5567766
0.3819292 0.3914530 0.5450550
0.5098901 0.3960928 0.5369964
0.6319903 0.4026862 0.5306472
0.7477412 0.4183150 0.5323566
0.8612943 0.4439560 0.5455434
0.9743590 0.4798535 0.5706960
0.0354090 0.5089133 0.5523810
0.1372405 0.5074481 0.5382174
0.2532357 0.5067155 0.5250306
0.3829060 0.5042735 0.5145299
0.5047619 0.5067155 0.5069597
0.6222222 0.5091575 0.5028083
0.7352870 0.5179487 0.5054945
0.8483517 0.5362638 0.5208791
0.9648352 0.5631258 0.5484738
0.0595849 0.6258852 0.5299146
0.1641026 0.6214896 0.5155067
0.2686203 0.6190476 0.5015873
0.3902320 0.6163614 0.4920635
0.5057387 0.6134310 0.4854701
0.6163614 0.6144078 0.4820513
0.7242979 0.6175824 0.4862027
0.8371184 0.6288157 0.5040293
0.9531136 0.6471307 0.5345544
0.1057387 0.7372406 0.5145299
0.2061050 0.7316239 0.4996337
0.2991453 0.7279609 0.4891331
0.4073260 0.7233211 0.4788767
0.5133089 0.7191697 0.4737485
0.6166056 0.7167277 0.4710623
0.7184371 0.7177045 0.4769231
0.8283272 0.7206349 0.4954823
0.9450549 0.7326007 0.5264958
0.1667888 0.8437119 0.5125763
0.2637363 0.8371184 0.4991453
0.3448108 0.8334554 0.4903541
0.4390720 0.8285714 0.4813187
0.5318682 0.8249084 0.4776557
0.6231990 0.8212454 0.4769231
0.7186813 0.8188034 0.4822955
0.8239316 0.8200244 0.4974359
0.9387057 0.8295482 0.5304030
0.2417582 0.9352869 0.5211233
0.3247863 0.9316239 0.5091575
0.3934066 0.9274725 0.5047619
0.4764347 0.9245421 0.4959707
0.5560440 0.9191697 0.4925519
0.6368743 0.9150183 0.4918193
0.7240537 0.9125763 0.4971917
0.8234432 0.9101343 0.5103785
0.9311355 0.9189255 0.5411478
0.0373626 0.1978022 0.8087912
0.0578755 0.1623932 0.7208791
0.2315018 0.1672772 0.7682540
0.3914530 0.1787546 0.7846154
0.5262516 0.1821734 0.7626374
0.6586081 0.2080586 0.7658120
0.7916972 0.2210012 0.7667888
0.8993895 0.2581197 0.7492064
0.9919414 0.3145299 0.7499390
0.0244200 0.2090354 0.8031746
0.1299145 0.2178266 0.7960928
0.2559219 0.2139194 0.7797314
0.4031746 0.2205128 0.7665446
0.5291820 0.2278388 0.7567766
0.6522589 0.2420024 0.7455434
0.7694750 0.2634921 0.7382174
0.8840049 0.3020757 0.7304029
0.9875458 0.3604396 0.7323565
0.0244200 0.3030525 0.7802198
0.1335775 0.3054945 0.7658120
0.2622711 0.3064713 0.7521368
0.3956044 0.3108669 0.7377290
0.5228328 0.3159951 0.7260073
0.6429793 0.3267399 0.7145299
0.7582418 0.3450550 0.7064713
0.8708181 0.3758242 0.7018315
0.9819292 0.4263736 0.7069597
0.0307692 0.4161172 0.7509158
0.1421245 0.4151404 0.7350428
0.2632479 0.4161172 0.7184371
0.3936508 0.4168498 0.7050061
0.5147741 0.4217338 0.6932845
0.6324787 0.4283272 0.6803419
0.7452992 0.4412698 0.6725275
0.8581197 0.4630037 0.6725275
0.9738706 0.5018315 0.6818071
0.0415140 0.5242980 0.7184371
0.1589744 0.5223444 0.6986569
0.2695971 0.5203907 0.6840049
0.3951160 0.5191697 0.6688645
0.5120879 0.5199023 0.6586081
0.6231990 0.5245422 0.6488401
0.7345544 0.5318682 0.6432235
0.8473749 0.5479854 0.6439561
0.9641026 0.5772894 0.6568987
0.0622711 0.6349207 0.6884005
0.1848596 0.6300367 0.6673993
0.2862027 0.6256410 0.6520147
0.4019536 0.6227106 0.6378511
0.5128205 0.6217338 0.6295483
0.6192918 0.6224664 0.6217338
0.7250305 0.6256410 0.6185592
0.8371184 0.6349207 0.6219780
0.9550672 0.6547009 0.6371185
0.1057387 0.7377290 0.6634921
0.2261294 0.7311355 0.6422467
0.3162393 0.7269841 0.6305251
0.4200244 0.7228327 0.6178266
0.5211233 0.7191697 0.6100122
0.6207570 0.7177045 0.6029304
0.7196581 0.7189255 0.6004884
0.8293040 0.7225885 0.6048840
0.9489622 0.7367522 0.6239316
0.1667888 0.8417583 0.6446887
0.2832723 0.8349206 0.6246642
0.3601954 0.8302808 0.6156288
0.4512821 0.8263736 0.6053724
0.5404152 0.8234432 0.5965812
0.6278389 0.8210012 0.5912088
0.7216117 0.8192918 0.5909646
0.8256410 0.8202686 0.5963370
0.9435897 0.8334554 0.6190476
0.2439560 0.9372405 0.6356533
0.3443224 0.9340659 0.6195360
0.4100122 0.9308913 0.6117216
0.4893773 0.9274725 0.6014652
0.5658120 0.9230769 0.5960928
0.6437119 0.9194139 0.5916972
0.7277167 0.9162393 0.5938950
0.8273504 0.9133089 0.6000000
0.9360195 0.9257631 0.6219780
0.0910867 0.2969475 0.9423687
0.1531136 0.3343101 0.9589744
0.2610501 0.2590965 0.9296703
0.4148962 0.2442002 0.9001221
0.5448108 0.2500611 0.9120879
0.6671551 0.2583639 0.9155067
0.7726496 0.2793651 0.8930403
0.8866911 0.3135531 0.8713065
0.9877900 0.3645910 0.8573871
0.0568987 0.2778999 0.9567766
0.1648352 0.2808303 0.9416361
0.2869353 0.2820513 0.9340659
0.4170940 0.2871795 0.9189255
0.5367522 0.2908425 0.9037851
0.6542125 0.3010989 0.8847375
0.7643468 0.3203907 0.8669109
0.8766789 0.3533578 0.8507937
0.9843712 0.4078144 0.8395604
0.0373626 0.3567766 0.9394383
0.1697192 0.3589744 0.9184371
0.2869353 0.3587302 0.9042735
0.4109890 0.3623932 0.8886447
0.5308914 0.3663004 0.8717949
0.6451771 0.3753358 0.8542125
0.7538462 0.3924298 0.8380952
0.8661783 0.4195360 0.8231990
0.9802198 0.4669109 0.8178266
0.0427350 0.4549451 0.9054945
0.1768010 0.4544567 0.8835165
0.2879121 0.4529915 0.8693529
0.4109890 0.4532357 0.8510379
0.5255190 0.4566545 0.8339438
0.6358975 0.4627595 0.8183150
0.7435898 0.4742369 0.8053724
0.8542125 0.4954823 0.7956044
0.9731380 0.5333334 0.7926740
0.0505495 0.5514042 0.8761905
0.1916972 0.5474970 0.8505495
0.2967033 0.5462760 0.8329670
0.4139194 0.5445666 0.8146520
0.5238096 0.5440782 0.7985348
0.6290599 0.5496948 0.7860806
0.7340659 0.5570208 0.7750916
0.8449329 0.5706960 0.7672772
0.9650794 0.6000000 0.7704518
0.0700855 0.6510379 0.8444445
0.2183150 0.6442003 0.8126984
0.3135531 0.6405373 0.7978022
0.4229548 0.6368743 0.7819292
0.5267400 0.6358975 0.7680098
0.6263736 0.6358975 0.7560440
0.7260073 0.6400489 0.7474970
0.8376068 0.6463981 0.7440782
0.9594628 0.6691087 0.7509158
0.1064713 0.7457876 0.8095238
0.2547009 0.7362638 0.7792430
0.3404151 0.7328449 0.7660562
0.4393162 0.7294261 0.7526252
0.5343102 0.7260073 0.7404152
0.6280831 0.7242979 0.7318681
0.7233211 0.7260073 0.7250305
0.8312576 0.7296703 0.7238095
0.9526252 0.7472528 0.7343102
0.1672772 0.8415141 0.7794872
0.3091575 0.8349206 0.7523810
0.3826618 0.8310134 0.7409036
0.4691087 0.8280830 0.7299145
0.5526252 0.8246642 0.7203907
0.6366301 0.8219780 0.7128205
0.7250305 0.8214896 0.7069597
0.8278388 0.8241758 0.7064713
0.9452991 0.8405373 0.7228327
0.2515263 0.9431013 0.7543346
0.3706960 0.9379731 0.7335775
0.4339438 0.9357753 0.7252747
0.5094017 0.9345543 0.7145299
0.5811966 0.9296703 0.7076923
0.6547009 0.9264957 0.7020757
0.7355312 0.9230769 0.6998779
0.8329670 0.9199023 0.7018315
0.9411477 0.9316239 0.7211233
0.1714286 0.4280830 1.0000000
0.1894994 0.4180708 1.0000000
0.2649573 0.4056166 1.0000000
0.4085470 0.4031746 0.9997558
0.5416362 0.3594628 0.9985348
0.6605617 0.3584860 0.9956044
0.7665446 0.3638584 0.9912088
0.8769231 0.3909646 0.9799756
0.9848596 0.4334554 0.9697192
0.1233211 0.3785104 1.0000000
0.2153846 0.3772894 0.9997558
0.3240537 0.3760684 0.9990232
0.4378510 0.3768010 0.9978022
0.5496948 0.3789988 0.9960928
0.6573871 0.3853480 0.9907204
0.7604396 0.3995116 0.9811966
0.8688645 0.4251526 0.9663004
0.9807082 0.4703297 0.9548230
0.0700855 0.4319902 0.9995116
0.2219780 0.4329670 0.9978022
0.3240537 0.4327228 0.9963370
0.4378510 0.4329670 0.9926740
0.5448108 0.4368742 0.9851038
0.6503053 0.4427350 0.9750916
0.7521368 0.4556777 0.9623932
0.8600733 0.4769231 0.9452991
0.9758242 0.5169719 0.9338217
0.0603175 0.5130647 0.9968254
0.2307692 0.5098901 0.9924298
0.3286935 0.5086691 0.9863248
0.4390720 0.5072039 0.9765568
0.5421246 0.5098901 0.9655678
0.6442003 0.5137973 0.9501832
0.7443224 0.5233212 0.9350427
0.8522589 0.5404152 0.9213675
0.9699634 0.5724054 0.9164835
0.0686203 0.5938950 0.9899878
0.2439560 0.5882784 0.9765568
0.3372405 0.5855922 0.9660562
0.4432234 0.5836386 0.9496948
0.5431014 0.5831502 0.9360195
0.6398047 0.5855922 0.9223443
0.7382174 0.5914530 0.9094017
0.8456655 0.6024420 0.8979243
0.9621490 0.6285715 0.8971917
0.0822955 0.6752137 0.9768010
0.2656899 0.6654457 0.9494506
0.3523810 0.6627595 0.9365079
0.4507937 0.6598291 0.9211233
0.5457876 0.6586081 0.9074481
0.6395605 0.6586081 0.8954823
0.7333333 0.6617827 0.8866911
0.8393162 0.6686203 0.8771673
0.9567766 0.6903541 0.8805861
0.1133089 0.7601954 0.9536020
0.3006105 0.7492064 0.9184371
0.3780220 0.7462760 0.9076923
0.4678877 0.7426130 0.8937729
0.5545788 0.7404152 0.8835165
0.6420025 0.7394384 0.8720391
0.7313797 0.7406594 0.8617827
0.8341880 0.7450550 0.8539683
0.9511600 0.7633700 0.8620269
0.1684982 0.8493285 0.9201465
0.3496948 0.8422467 0.8866911
0.4173382 0.8395604 0.8769231
0.4957265 0.8363858 0.8659341
0.5721612 0.8332112 0.8554335
0.6495727 0.8312576 0.8468865
0.7338217 0.8305250 0.8395604
0.8332112 0.8324786 0.8349206
0.9467643 0.8512821 0.8463981
0.2588523 0.9504274 0.8910867
0.4097680 0.9445665 0.8644689
0.4676435 0.9423687 0.8561661
0.5357754 0.9391941 0.8476191
0.6019536 0.9365079 0.8390720
0.6703297 0.9328449 0.8341880
0.7482296 0.9313797 0.8295482
0.8429793 0.9304029 0.8256410
0.9474970 0.9411477 0.8434677
0.2813187 0.5770452 1.0000000
0.2654457 0.5518926 1.0000000
0.3382173 0.5509158 1.0000000
0.4529915 0.5328450 1.0000000
0.5684982 0.5416362 1.0000000
0.6742369 0.5352870 1.0000000
0.7772894 0.5328450 1.0000000
0.8854701 0.5384616 1.0000000
0.9809524 0.5333334 1.0000000
0.2488400 0.5443224 1.0000000
0.2940171 0.5450550 1.0000000
0.3885226 0.5413920 1.0000000
0.4925519 0.5308914 1.0000000
0.5936508 0.5413920 1.0000000
0.6840049 0.5340660 1.0000000
0.7789988 0.5423688 1.0000000
0.8808303 0.5572650 1.0000000
0.9772894 0.5606838 1.0000000
0.2249084 0.5604396 1.0000000
0.3340659 0.5643468 1.0000000
0.4166056 0.5633700 1.0000000
0.5076923 0.5599512 1.0000000
0.5960928 0.5660562 1.0000000
0.6825397 0.5694750 1.0000000
0.7738706 0.5763126 1.0000000
0.8757021 0.5894994 0.9997558
0.9728938 0.5926740 0.9985348
0.1499390 0.6190476 1.0000000
0.3433456 0.6146520 1.0000000
0.4231990 0.6139194 1.0000000
0.5108669 0.6117216 1.0000000
0.5934066 0.6100122 1.0000000
0.6813187 0.6185592 1.0000000
0.7702076 0.6231990 0.9990232
0.8717949 0.6329671 0.9973138
0.9675214 0.6324787 0.9963370
0.1199023 0.6796093 1.0000000
0.3582418 0.6695971 1.0000000
0.4356532 0.6693529 1.0000000
0.5191697 0.6666667 1.0000000
0.5980464 0.6647131 0.9992674
0.6810745 0.6673993 0.9973138
0.7699634 0.6744811 0.9953602
0.8700855 0.6808303 0.9938950
0.9619048 0.6769231 0.9936508
0.1279609 0.7401710 1.0000000
0.3807082 0.7318681 1.0000000
0.4517705 0.7294261 0.9995116
0.5323566 0.7284493 0.9975580
0.6073260 0.7264957 0.9956044
0.6844933 0.7267399 0.9941392
0.7724054 0.7328449 0.9924298
0.8691087 0.7360196 0.9914530
0.9589744 0.7301587 0.9909646
0.1516484 0.8073260 0.9997558
0.4105006 0.8034188 0.9975580
0.4747253 0.8009768 0.9958486
0.5482296 0.7995116 0.9943834
0.6185592 0.7982906 0.9924298
0.6910867 0.7982906 0.9907204
0.7743590 0.7997558 0.9877900
0.8686203 0.8026862 0.9860806
0.9538462 0.7934066 0.9841270
0.1985348 0.8888889 0.9970696
0.4520147 0.8884005 0.9926740
0.5086691 0.8862027 0.9912088
0.5731380 0.8842491 0.9890110
0.6351649 0.8820513 0.9863248
0.7020757 0.8808303 0.9833944
0.7799756 0.8813187 0.9802198
0.8730159 0.8820513 0.9765568
0.9514042 0.8803419 0.9692308
0.2676435 0.9672772 0.9931624
0.4695971 0.9604396 0.9868132
0.5221002 0.9589744 0.9841270
0.5807082 0.9557998 0.9802198
0.6385837 0.9526252 0.9753358
0.7006105 0.9501832 0.9689866
0.7748474 0.9479854 0.9614164
0.8666667 0.9457875 0.9545788
0.9560440 0.9521368 0.9555556
