Programming/LUT/Fuji_Provia.cube
TITLE "Provia"
LUT_3D_SIZE 17
0.0024420 0.0021978 0.0019536
0.0151404 0.0021978 0.0024420
0.0652015 0.0034188 0.0053724
0.1404151 0.0046398 0.0085470
0.2126984 0.0068376 0.0102564
0.2918193 0.0100122 0.0119658
0.3704518 0.0153846 0.0131868
0.4449328 0.0231990 0.0158730
0.5128205 0.0334554 0.0185592
0.5824176 0.0481074 0.0227106
0.6598291 0.0644689 0.0271062
0.7343102 0.0852259 0.0324786
0.8036630 0.1091575 0.0398046
0.8678877 0.1377289 0.0488400
0.9260073 0.1716728 0.0605617
0.9789988 0.2195360 0.0730159
0.9870574 0.2268620 0.0749695
0.0039072 0.0109890 0.0026862
0.0166056 0.0102564 0.0026862
0.0522589 0.0146520 0.0043956
0.1159951 0.0195360 0.0068376
0.1931624 0.0244200 0.0070818
0.2800977 0.0312576 0.0087912
0.3628816 0.0388278 0.0105006
0.4388278 0.0483516 0.0126984
0.5089133 0.0598291 0.0146520
0.5802198 0.0730159 0.0170940
0.6561661 0.0896215 0.0207570
0.7286935 0.1101343 0.0249084
0.7985348 0.1340659 0.0310134
0.8634921 0.1633700 0.0395604
0.9233211 0.1960928 0.0522589
0.9787546 0.2300366 0.0698413
0.9873016 0.2349206 0.0725275
0.0024420 0.0410256 0.0019536
0.0124542 0.0446886 0.0019536
0.0461538 0.0505495 0.0026862
0.1072039 0.0561661 0.0043956
0.1853480 0.0630037 0.0046398
0.2715507 0.0722833 0.0056166
0.3548230 0.0810745 0.0068376
0.4322344 0.0913309 0.0080586
0.5023199 0.1020757 0.0087912
0.5731380 0.1150183 0.0105006
0.6478633 0.1308913 0.0129426
0.7208791 0.1504274 0.0158730
0.7921856 0.1738706 0.0207570
0.8588523 0.2009768 0.0283272
0.9213675 0.2302808 0.0405372
0.9768010 0.2576313 0.0573871
0.9848596 0.2617827 0.0600733
0.0024420 0.0903541 0.0009768
0.0134310 0.0964591 0.0012210
0.0478632 0.1035409 0.0019536
0.1072039 0.1113553 0.0024420
0.1841270 0.1194139 0.0031746
0.2688645 0.1277167 0.0041514
0.3509158 0.1365079 0.0048840
0.4273504 0.1457876 0.0053724
0.4971917 0.1557998 0.0061050
0.5663004 0.1675214 0.0073260
0.6402931 0.1824176 0.0085470
0.7133089 0.2004884 0.0114774
0.7858364 0.2205128 0.0151404
0.8549451 0.2439560 0.0217338
0.9196581 0.2708181 0.0324786
0.9733822 0.2957265 0.0498169
0.9833944 0.3013431 0.0590965
0.0034188 0.1623932 0.0000000
0.0144078 0.1689866 0.0002442
0.0488400 0.1743590 0.0009768
0.1069597 0.1816850 0.0017094
0.1811966 0.1887668 0.0019536
0.2644689 0.1958486 0.0024420
0.3474970 0.2021978 0.0026862
0.4227106 0.2102564 0.0034188
0.4908425 0.2190476 0.0043956
0.5592186 0.2288156 0.0056166
0.6327229 0.2410256 0.0070818
0.7067155 0.2556777 0.0087912
0.7802198 0.2717949 0.0124542
0.8515263 0.2925519 0.0188034
0.9169719 0.3150183 0.0312576
0.9687424 0.3377289 0.0566545
0.9894994 0.3531136 0.0981685
0.0043956 0.2412698 0.0000000
0.0151404 0.2459096 0.0000000
0.0490842 0.2495726 0.0000000
0.1054945 0.2547009 0.0002442
0.1799756 0.2615385 0.0009768
0.2586081 0.2676435 0.0014652
0.3399267 0.2735043 0.0017094
0.4158730 0.2808303 0.0021978
0.4832723 0.2876679 0.0026862
0.5509158 0.2949939 0.0041514
0.6253968 0.3040293 0.0053724
0.6993895 0.3150183 0.0073260
0.7726496 0.3277167 0.0109890
0.8451771 0.3443224 0.0175824
0.9101343 0.3623932 0.0307692
0.9614164 0.3814408 0.0534799
0.9775336 0.3909646 0.0717949
0.0043956 0.3250305 0.0000000
0.0148962 0.3277167 0.0000000
0.0473748 0.3286935 0.0000000
0.1035409 0.3321123 0.0000000
0.1775336 0.3377289 0.0000000
0.2542125 0.3394383 0.0002442
0.3328449 0.3438340 0.0009768
0.4078144 0.3479854 0.0014652
0.4757021 0.3516484 0.0021978
0.5431014 0.3575092 0.0029304
0.6166056 0.3636142 0.0046398
0.6903541 0.3714286 0.0065934
0.7643468 0.3814408 0.0100122
0.8354090 0.3943834 0.0180708
0.9020757 0.4109890 0.0334554
0.9567766 0.4283272 0.0590965
0.9846154 0.4395604 0.0864469
0.0056166 0.4000000 0.0000000
0.0166056 0.4031746 0.0000000
0.0471306 0.4043956 0.0000000
0.1010989 0.4041514 0.0000000
0.1724054 0.4056166 0.0000000
0.2498168 0.4048840 0.0000000
0.3260073 0.4063492 0.0007326
0.3992674 0.4092796 0.0014652
0.4669109 0.4126984 0.0021978
0.5350428 0.4153846 0.0029304
0.6080586 0.4202686 0.0046398
0.6822955 0.4251526 0.0065934
0.7565324 0.4336996 0.0114774
0.8273504 0.4456654 0.0210012
0.8949939 0.4610501 0.0390720
0.9482296 0.4754579 0.0637363
0.9680098 0.4827839 0.0771673
0.0063492 0.4666667 0.0000000
0.0192918 0.4664225 0.0000000
0.0490842 0.4683761 0.0000000
0.0989011 0.4688645 0.0000000
0.1663004 0.4676435 0.0000000
0.2442002 0.4661783 0.0002442
0.3191697 0.4688645 0.0012210
0.3887668 0.4710623 0.0017094
0.4568987 0.4739927 0.0021978
0.5264958 0.4747253 0.0031746
0.5980464 0.4764347 0.0048840
0.6739927 0.4800977 0.0073260
0.7460318 0.4854701 0.0134310
0.8163614 0.4930403 0.0256410
0.8864469 0.5045177 0.0473748
0.9438339 0.5172161 0.0737485
0.9775336 0.5264958 0.1010989
0.0073260 0.5304030 0.0000000
0.0207570 0.5296704 0.0000000
0.0498169 0.5282052 0.0000000
0.0952381 0.5269842 0.0002442
0.1614164 0.5264958 0.0007326
0.2371184 0.5264958 0.0014652
0.3111111 0.5267400 0.0019536
0.3809524 0.5264958 0.0021978
0.4476191 0.5279610 0.0024420
0.5159951 0.5289378 0.0039072
0.5894994 0.5306472 0.0058608
0.6608059 0.5340660 0.0100122
0.7362638 0.5367522 0.0180708
0.8065934 0.5431014 0.0322344
0.8744811 0.5543346 0.0566545
0.9313797 0.5648352 0.0810745
0.9543346 0.5689866 0.0949939
0.0090354 0.6034188 0.0004884
0.0251526 0.6024420 0.0012210
0.0515263 0.6012210 0.0014652
0.0976801 0.5997558 0.0017094
0.1577534 0.5987790 0.0019536
0.2280830 0.5936508 0.0021978
0.3020757 0.5899878 0.0024420
0.3765568 0.5904762 0.0029304
0.4390720 0.5943834 0.0041514
0.5020757 0.5980464 0.0061050
0.5758242 0.5985348 0.0095238
0.6500611 0.5980464 0.0158730
0.7238095 0.6004884 0.0261294
0.7958486 0.6058608 0.0412698
0.8625153 0.6131868 0.0649573
0.9213675 0.6210012 0.0935287
0.9626374 0.6241758 0.1223443
0.0097680 0.6715507 0.0021978
0.0273504 0.6752137 0.0026862
0.0544567 0.6752137 0.0029304
0.0957265 0.6739927 0.0031746
0.1528694 0.6705739 0.0036630
0.2217338 0.6683761 0.0043956
0.2915751 0.6642247 0.0051282
0.3638584 0.6644689 0.0061050
0.4295482 0.6639805 0.0085470
0.4957265 0.6617827 0.0117216
0.5660562 0.6612943 0.0173382
0.6366301 0.6603175 0.0251526
0.7125763 0.6600733 0.0383394
0.7838828 0.6622711 0.0554335
0.8520147 0.6681319 0.0793651
0.9050061 0.6717949 0.1008547
0.9194139 0.6725275 0.1089133
0.0129426 0.7377290 0.0063492
0.0329670 0.7384616 0.0073260
0.0600733 0.7357754 0.0078144
0.0979243 0.7338217 0.0083028
0.1536020 0.7328449 0.0090354
0.2175824 0.7301587 0.0102564
0.2862027 0.7260073 0.0119658
0.3545788 0.7233211 0.0151404
0.4173382 0.7235653 0.0195360
0.4842491 0.7211233 0.0256410
0.5572650 0.7191697 0.0336996
0.6268620 0.7169719 0.0432234
0.6998779 0.7177045 0.0581197
0.7711844 0.7181929 0.0749695
0.8415141 0.7213675 0.0964591
0.8942613 0.7233211 0.1155067
0.9089133 0.7238095 0.1213675
0.0175824 0.7892552 0.0158730
0.0390720 0.7890110 0.0175824
0.0671551 0.7880342 0.0180708
0.1040293 0.7909646 0.0217338
0.1533578 0.7902320 0.0244200
0.2119658 0.7873016 0.0288156
0.2815629 0.7824176 0.0300366
0.3482296 0.7780220 0.0363858
0.4122100 0.7721612 0.0378510
0.4757021 0.7760684 0.0495727
0.5438340 0.7746032 0.0583639
0.6180708 0.7670330 0.0654457
0.6898657 0.7692308 0.0825397
0.7614164 0.7692308 0.0971917
0.8310134 0.7697192 0.1157509
0.8879121 0.7719170 0.1360195
0.9042735 0.7680098 0.1409035
0.0202686 0.8109890 0.0283272
0.0446886 0.8087912 0.0295482
0.0757021 0.8114774 0.0290598
0.1164835 0.8339438 0.0454212
0.1413919 0.8363858 0.0512821
0.2051282 0.8312576 0.0639805
0.2840049 0.8258852 0.0578755
0.3445666 0.8195360 0.0722833
0.4158730 0.7963370 0.0537241
0.4781441 0.8134310 0.0730159
0.5274726 0.8134310 0.0808303
0.6083028 0.7916972 0.0822955
0.6840049 0.8078144 0.1174603
0.7636142 0.8075702 0.1223443
0.8258852 0.8075702 0.1387057
0.8854701 0.8139194 0.1680098
0.8962149 0.8156288 0.1746032
0.0246642 0.8564103 0.0739927
0.0551893 0.8488401 0.0710623
0.1028083 0.8410257 0.0507937
0.1223443 0.8427351 0.0517705
0.1404151 0.8429793 0.0554335
0.2114774 0.8385836 0.0700855
0.2854701 0.8344322 0.0654457
0.3509158 0.8351648 0.0893773
0.4495727 0.8229548 0.0793651
0.4852259 0.8229548 0.0808303
0.5233212 0.8222222 0.0876679
0.5970696 0.8166056 0.1098901
0.6805861 0.8188034 0.1294261
0.7621490 0.8146520 0.1274725
0.8249084 0.8134310 0.1428571
0.8869353 0.8236874 0.1775336
0.9047619 0.8400488 0.2000000
0.0241758 0.9050061 0.1316239
0.0410256 0.8952381 0.1213675
0.1047619 0.8515263 0.0603175
0.1228327 0.8432235 0.0520147
0.1479854 0.8434677 0.0554335
0.2520147 0.8439561 0.0710623
0.2898657 0.8476191 0.0813187
0.3536020 0.8659341 0.1299145
0.4498169 0.8380952 0.0969475
0.4852259 0.8249084 0.0832723
0.5240538 0.8236874 0.0893773
0.6012210 0.8280830 0.1230769
0.6764347 0.8283272 0.1389499
0.7506716 0.8224664 0.1333333
0.8229548 0.8156288 0.1445666
0.8898657 0.8349206 0.1909646
0.9245421 0.8766789 0.2427350
0.0034188 0.0029304 0.0129426
0.0151404 0.0039072 0.0134310
0.0612943 0.0061050 0.0166056
0.1401709 0.0083028 0.0239316
0.2131868 0.0095238 0.0273504
0.2993895 0.0126984 0.0312576
0.3758242 0.0205128 0.0327228
0.4493285 0.0297924 0.0366300
0.5172161 0.0400488 0.0400488
0.5877900 0.0529915 0.0442002
0.6647131 0.0688645 0.0500611
0.7367522 0.0876679 0.0573871
0.8075702 0.1115995 0.0676435
0.8730159 0.1394383 0.0798535
0.9313797 0.1714286 0.0952381
0.9780220 0.2065934 0.1106227
0.9846154 0.2126984 0.1137973
0.0043956 0.0124542 0.0146520
0.0161172 0.0139194 0.0136752
0.0532357 0.0197802 0.0158730
0.1174603 0.0268620 0.0222222
0.1982906 0.0297924 0.0229548
0.2866911 0.0351648 0.0263736
0.3682540 0.0427350 0.0300366
0.4432234 0.0520147 0.0339438
0.5133089 0.0625153 0.0373626
0.5836386 0.0757021 0.0415140
0.6588523 0.0920635 0.0471306
0.7313797 0.1120879 0.0542125
0.8017094 0.1367521 0.0637363
0.8686203 0.1660562 0.0754579
0.9284493 0.1982906 0.0901099
0.9780220 0.2297924 0.1076923
0.9858364 0.2380952 0.1137973
0.0041514 0.0466422 0.0136752
0.0156288 0.0493285 0.0131868
0.0529915 0.0547009 0.0156288
0.1145299 0.0598291 0.0207570
0.1929182 0.0676435 0.0227106
0.2786325 0.0761905 0.0253968
0.3611722 0.0852259 0.0285714
0.4376068 0.0952381 0.0317460
0.5079365 0.1059829 0.0346764
0.5777778 0.1184371 0.0385836
0.6515263 0.1340659 0.0432234
0.7245421 0.1526252 0.0500611
0.7953602 0.1750916 0.0588523
0.8637363 0.2021978 0.0695971
0.9269841 0.2324786 0.0844933
0.9765568 0.2600733 0.1018315
0.9843712 0.2673993 0.1081807
0.0043956 0.1010989 0.0107448
0.0168498 0.1059829 0.0112332
0.0559219 0.1106227 0.0134310
0.1142857 0.1179487 0.0161172
0.1914530 0.1255189 0.0185592
0.2747253 0.1328449 0.0212454
0.3565324 0.1413919 0.0234432
0.4327228 0.1506716 0.0258852
0.5018315 0.1606838 0.0290598
0.5704518 0.1721612 0.0329670
0.6434677 0.1865690 0.0380952
0.7167277 0.2034188 0.0444444
0.7885226 0.2229548 0.0527473
0.8583639 0.2468864 0.0642247
0.9238095 0.2735043 0.0796093
0.9738706 0.2981685 0.0979243
0.9841270 0.3062271 0.1064713
0.0053724 0.1733822 0.0083028
0.0178266 0.1787546 0.0085470
0.0561661 0.1829060 0.0097680
0.1150183 0.1882784 0.0117216
0.1882784 0.1960928 0.0131868
0.2703297 0.2024420 0.0153846
0.3518926 0.2085470 0.0168498
0.4268620 0.2161172 0.0188034
0.4949939 0.2249084 0.0222222
0.5623932 0.2344322 0.0266178
0.6349207 0.2459096 0.0319902
0.7089133 0.2593407 0.0385836
0.7814408 0.2752137 0.0473748
0.8522589 0.2945055 0.0593407
0.9184371 0.3169719 0.0761905
0.9706960 0.3401709 0.0998779
0.9924298 0.3575092 0.1250305
0.0058608 0.2539683 0.0056166
0.0178266 0.2561661 0.0061050
0.0539683 0.2593407 0.0073260
0.1125763 0.2637363 0.0083028
0.1860806 0.2683761 0.0090354
0.2644689 0.2739927 0.0100122
0.3438340 0.2796093 0.0114774
0.4183150 0.2852259 0.0134310
0.4862027 0.2910867 0.0166056
0.5536020 0.2979243 0.0205128
0.6263736 0.3064713 0.0258852
0.7003663 0.3172161 0.0332112
0.7733822 0.3299145 0.0422466
0.8444445 0.3457876 0.0554335
0.9106227 0.3645910 0.0749695
0.9648352 0.3855922 0.1003663
0.9902320 0.4061050 0.1294261
0.0061050 0.3330891 0.0039072
0.0173382 0.3330891 0.0039072
0.0520147 0.3357753 0.0048840
0.1086691 0.3387057 0.0061050
0.1807082 0.3411478 0.0070818
0.2598291 0.3431014 0.0078144
0.3362637 0.3479854 0.0085470
0.4090354 0.3516484 0.0105006
0.4774115 0.3548230 0.0129426
0.5448108 0.3594628 0.0168498
0.6173382 0.3653236 0.0222222
0.6915751 0.3733822 0.0293040
0.7648352 0.3831502 0.0393162
0.8356532 0.3958486 0.0544567
0.9025641 0.4122100 0.0754579
0.9575092 0.4307692 0.1008547
0.9897436 0.4468865 0.1277167
0.0080586 0.4046398 0.0034188
0.0190476 0.4041514 0.0036630
0.0517705 0.4061050 0.0039072
0.1054945 0.4070818 0.0048840
0.1760684 0.4073260 0.0061050
0.2534799 0.4080586 0.0070818
0.3291819 0.4100122 0.0080586
0.4002442 0.4126984 0.0097680
0.4678877 0.4144078 0.0124542
0.5357754 0.4175824 0.0161172
0.6085470 0.4224664 0.0214896
0.6832723 0.4285714 0.0290598
0.7570208 0.4361416 0.0405372
0.8271062 0.4466422 0.0568987
0.8942613 0.4605617 0.0783883
0.9509158 0.4766789 0.1020757
0.9855922 0.4932845 0.1213675
0.0087912 0.4678877 0.0036630
0.0210012 0.4669109 0.0041514
0.0520147 0.4676435 0.0046398
0.1035409 0.4678877 0.0051282
0.1711844 0.4681319 0.0061050
0.2466422 0.4681319 0.0075702
0.3216117 0.4686203 0.0083028
0.3929182 0.4703297 0.0105006
0.4578755 0.4722833 0.0131868
0.5264958 0.4739927 0.0166056
0.5997558 0.4771673 0.0219780
0.6742369 0.4810745 0.0300366
0.7474970 0.4859585 0.0422466
0.8175824 0.4947497 0.0595849
0.8857143 0.5059829 0.0822955
0.9443223 0.5206349 0.1067155
0.9843712 0.5352870 0.1289377
0.0097680 0.5323566 0.0053724
0.0234432 0.5304030 0.0061050
0.0529915 0.5301588 0.0065934
0.1015873 0.5304030 0.0073260
0.1658120 0.5304030 0.0080586
0.2393162 0.5291820 0.0090354
0.3142857 0.5284494 0.0102564
0.3851038 0.5277168 0.0117216
0.4495727 0.5291820 0.0144078
0.5162393 0.5316240 0.0185592
0.5902320 0.5330892 0.0251526
0.6647131 0.5350428 0.0346764
0.7369964 0.5382174 0.0473748
0.8075702 0.5455434 0.0654457
0.8754579 0.5560440 0.0886447
0.9357753 0.5667888 0.1120879
0.9768010 0.5755800 0.1306471
0.0117216 0.6009768 0.0083028
0.0278388 0.6000000 0.0090354
0.0561661 0.5995116 0.0097680
0.1018315 0.6000000 0.0102564
0.1619048 0.5992674 0.0112332
0.2310134 0.5965812 0.0122100
0.3032967 0.5946276 0.0134310
0.3755800 0.5929182 0.0158730
0.4393162 0.5934066 0.0192918
0.5052503 0.5953602 0.0244200
0.5772894 0.5975580 0.0324786
0.6527473 0.5975580 0.0437118
0.7260073 0.6000000 0.0571429
0.7965812 0.6046398 0.0742369
0.8642247 0.6114774 0.0962149
0.9255189 0.6202686 0.1199023
0.9682540 0.6253968 0.1391941
0.0122100 0.6705739 0.0124542
0.0305250 0.6715507 0.0141636
0.0581197 0.6715507 0.0148962
0.1001221 0.6713065 0.0156288
0.1567766 0.6693529 0.0168498
0.2241758 0.6671551 0.0188034
0.2947497 0.6642247 0.0207570
0.3653236 0.6627595 0.0239316
0.4305250 0.6610501 0.0285714
0.4971917 0.6595849 0.0344322
0.5663004 0.6590965 0.0432234
0.6383395 0.6593407 0.0549451
0.7133089 0.6595849 0.0688645
0.7841270 0.6622711 0.0852259
0.8525031 0.6666667 0.1062271
0.9079365 0.6715507 0.1260073
0.9284493 0.6737485 0.1347985
0.0148962 0.7391942 0.0214896
0.0361416 0.7384616 0.0239316
0.0632479 0.7372406 0.0253968
0.1025641 0.7357754 0.0266178
0.1565324 0.7335775 0.0288156
0.2205128 0.7306471 0.0317460
0.2884005 0.7272283 0.0354090
0.3562882 0.7247863 0.0398046
0.4205128 0.7228327 0.0454212
0.4869353 0.7208791 0.0517705
0.5570208 0.7186813 0.0610501
0.6275946 0.7177045 0.0720391
0.6998779 0.7177045 0.0852259
0.7719170 0.7179487 0.1006105
0.8420025 0.7203907 0.1199023
0.9008547 0.7238095 0.1401709
0.9387057 0.7262515 0.1557998
0.0180708 0.7997558 0.0405372
0.0415140 0.7980464 0.0424908
0.0673993 0.7965812 0.0434676
0.1064713 0.7960928 0.0466422
0.1562882 0.7936508 0.0495727
0.2158730 0.7897436 0.0532357
0.2818071 0.7863248 0.0573871
0.3482296 0.7819292 0.0625153
0.4109890 0.7780220 0.0673993
0.4752137 0.7785104 0.0754579
0.5455434 0.7763126 0.0840049
0.6175824 0.7721612 0.0932845
0.6903541 0.7719170 0.1064713
0.7601954 0.7721612 0.1206349
0.8302808 0.7716728 0.1367521
0.8932845 0.7714286 0.1557998
0.9347985 0.7592186 0.1672772
0.0239316 0.8442003 0.0656899
0.0515263 0.8383394 0.0661783
0.0735043 0.8373626 0.0612943
0.1137973 0.8395604 0.0681319
0.1504274 0.8388278 0.0717949
0.2087912 0.8341880 0.0774115
0.2825397 0.8297924 0.0808303
0.3426130 0.8256410 0.0876679
0.4036630 0.8178266 0.0869353
0.4681319 0.8185592 0.0957265
0.5313798 0.8156288 0.1018315
0.6014652 0.8107448 0.1123321
0.6805861 0.8134310 0.1308913
0.7528694 0.8131868 0.1428571
0.8197802 0.8112332 0.1553114
0.8859585 0.8161172 0.1775336
0.9072039 0.8200244 0.1892552
0.0251526 0.8678877 0.0871795
0.0500611 0.8603175 0.0849817
0.0781441 0.8493285 0.0693529
0.1157509 0.8478633 0.0735043
0.1518926 0.8503053 0.0818071
0.2163614 0.8498169 0.0913309
0.2822955 0.8466423 0.0949939
0.3421246 0.8424909 0.1023199
0.4034188 0.8329670 0.1001221
0.4671551 0.8266178 0.1013431
0.5294262 0.8229548 0.1064713
0.6009768 0.8256410 0.1252747
0.6737485 0.8302808 0.1428571
0.7377290 0.8285714 0.1514042
0.8166056 0.8197802 0.1601954
0.8884005 0.8361416 0.1943834
0.9233211 0.8739927 0.2405372
0.0241758 0.9067155 0.1340659
0.0358974 0.8984127 0.1262515
0.0776557 0.8590965 0.0805861
0.1169719 0.8520147 0.0793651
0.1579976 0.8554335 0.0888889
0.2456654 0.8766789 0.1277167
0.2805861 0.8788767 0.1355311
0.3394383 0.8757021 0.1452992
0.3797314 0.8647131 0.1365079
0.4620269 0.8356532 0.1120879
0.5323566 0.8305250 0.1155067
0.6239316 0.8551893 0.1599512
0.6620269 0.8608059 0.1728938
0.6989011 0.8556777 0.1726496
0.8144078 0.8297924 0.1697192
0.8893773 0.8576313 0.2200244
0.9299145 0.8923077 0.2612943
0.0051282 0.0073260 0.0568987
0.0219780 0.0100122 0.0566545
0.0639805 0.0151404 0.0527473
0.1467644 0.0161172 0.0700855
0.2024420 0.0124542 0.0808303
0.3111111 0.0163614 0.0876679
0.3792430 0.0241758 0.0937729
0.4529915 0.0344322 0.0974359
0.5201465 0.0451770 0.0971917
0.5914530 0.0615385 0.0969475
0.6681319 0.0788767 0.1001221
0.7394384 0.0971917 0.1067155
0.8100122 0.1206349 0.1152625
0.8761905 0.1477412 0.1277167
0.9365079 0.1821734 0.1433455
0.9799756 0.2122100 0.1638584
0.9875458 0.2229548 0.1728938
0.0061050 0.0217338 0.0498169
0.0217338 0.0241758 0.0495727
0.0612943 0.0312576 0.0505495
0.1294261 0.0356532 0.0612943
0.2061050 0.0390720 0.0698413
0.2971917 0.0449328 0.0776557
0.3746032 0.0527473 0.0866911
0.4476191 0.0627595 0.0886447
0.5164835 0.0725275 0.0901099
0.5868132 0.0859585 0.0927961
0.6610501 0.1023199 0.0976801
0.7330891 0.1208791 0.1047619
0.8031746 0.1443224 0.1142857
0.8705739 0.1728938 0.1255189
0.9340659 0.2063492 0.1401709
0.9819292 0.2393162 0.1626374
0.9946276 0.2683761 0.1890110
0.0070818 0.0571429 0.0539683
0.0229548 0.0600733 0.0547009
0.0634921 0.0644689 0.0581197
0.1233211 0.0708181 0.0627595
0.2039072 0.0793651 0.0693529
0.2881563 0.0871795 0.0752137
0.3680098 0.0954823 0.0798535
0.4427350 0.1052503 0.0822955
0.5123321 0.1155067 0.0852259
0.5804640 0.1277167 0.0896215
0.6532357 0.1426129 0.0945055
0.7252747 0.1601954 0.1006105
0.7960928 0.1814408 0.1094017
0.8649573 0.2073260 0.1196581
0.9308913 0.2378510 0.1343101
0.9819292 0.2698413 0.1562882
0.9956044 0.2964591 0.1836386
0.0075702 0.1115995 0.0554335
0.0231990 0.1147741 0.0556777
0.0656899 0.1186813 0.0588523
0.1233211 0.1264957 0.0612943
0.2004884 0.1340659 0.0642247
0.2832723 0.1411477 0.0678877
0.3626374 0.1489622 0.0705739
0.4376068 0.1577534 0.0742369
0.5054945 0.1675214 0.0769231
0.5728938 0.1787546 0.0810745
0.6451771 0.1926740 0.0864469
0.7179487 0.2090354 0.0930403
0.7894994 0.2278388 0.1018315
0.8595849 0.2510379 0.1125763
0.9264957 0.2781441 0.1279609
0.9797314 0.3074481 0.1504274
0.9951160 0.3306471 0.1731380
0.0073260 0.1833944 0.0483516
0.0222222 0.1875458 0.0471306
0.0632479 0.1916972 0.0498169
0.1230769 0.1965812 0.0529915
0.1960928 0.2043956 0.0549451
0.2771673 0.2100122 0.0576313
0.3565324 0.2158730 0.0600733
0.4302808 0.2224664 0.0632479
0.4971917 0.2310134 0.0666667
0.5641026 0.2398046 0.0713065
0.6361417 0.2505495 0.0774115
0.7091575 0.2634921 0.0852259
0.7811966 0.2788767 0.0942613
0.8522589 0.2976801 0.1064713
0.9199023 0.3206349 0.1238095
0.9758242 0.3472528 0.1484738
0.9953602 0.3680098 0.1733822
0.0073260 0.2617827 0.0417582
0.0212454 0.2634921 0.0395604
0.0598291 0.2664225 0.0415140
0.1191697 0.2698413 0.0437118
0.1919414 0.2747253 0.0451770
0.2705739 0.2793651 0.0468864
0.3477412 0.2847375 0.0505495
0.4214896 0.2893773 0.0542125
0.4888889 0.2949939 0.0583639
0.5560440 0.3013431 0.0630037
0.6273504 0.3096459 0.0691087
0.7003663 0.3199023 0.0774115
0.7733822 0.3326007 0.0874237
0.8437119 0.3482296 0.1006105
0.9113553 0.3682540 0.1203907
0.9697192 0.3914530 0.1470086
0.9938950 0.4112332 0.1743590
0.0078144 0.3379731 0.0344322
0.0202686 0.3387057 0.0332112
0.0566545 0.3416362 0.0344322
0.1142857 0.3435898 0.0363858
0.1860806 0.3455434 0.0388278
0.2644689 0.3474970 0.0410256
0.3396825 0.3516484 0.0444444
0.4124542 0.3553114 0.0481074
0.4796093 0.3579976 0.0525031
0.5470086 0.3619048 0.0571429
0.6188034 0.3680098 0.0637363
0.6918193 0.3750916 0.0725275
0.7650794 0.3851038 0.0835165
0.8354090 0.3985348 0.0986569
0.9030525 0.4153846 0.1196581
0.9621490 0.4349206 0.1465202
0.9919414 0.4507937 0.1721612
0.0097680 0.4085470 0.0310134
0.0224664 0.4080586 0.0310134
0.0568987 0.4100122 0.0322344
0.1115995 0.4109890 0.0334554
0.1811966 0.4112332 0.0361416
0.2576313 0.4126984 0.0383394
0.3328449 0.4136752 0.0412698
0.4036630 0.4158730 0.0446886
0.4695971 0.4183150 0.0490842
0.5372406 0.4212454 0.0544567
0.6097680 0.4256410 0.0617827
0.6830281 0.4315018 0.0708181
0.7560440 0.4393162 0.0827839
0.8261294 0.4500611 0.0989011
0.8937729 0.4637363 0.1201465
0.9545788 0.4800977 0.1472528
0.9894994 0.4947497 0.1716728
0.0107448 0.4720391 0.0312576
0.0241758 0.4708181 0.0322344
0.0571429 0.4717949 0.0329670
0.1091575 0.4722833 0.0344322
0.1760684 0.4720391 0.0366300
0.2507937 0.4720391 0.0388278
0.3250305 0.4717949 0.0422466
0.3965812 0.4722833 0.0454212
0.4605617 0.4747253 0.0500611
0.5274726 0.4766789 0.0554335
0.6004884 0.4796093 0.0630037
0.6737485 0.4835165 0.0727717
0.7470086 0.4898657 0.0857143
0.8166056 0.4986569 0.1025641
0.8847375 0.5098901 0.1238095
0.9467643 0.5242980 0.1501832
0.9858364 0.5374848 0.1731380
0.0129426 0.5345544 0.0339438
0.0273504 0.5335776 0.0354090
0.0586081 0.5338218 0.0363858
0.1079365 0.5343102 0.0378510
0.1714286 0.5335776 0.0405372
0.2434676 0.5330892 0.0432234
0.3164835 0.5318682 0.0461538
0.3877900 0.5316240 0.0493285
0.4529915 0.5318682 0.0539683
0.5179487 0.5340660 0.0608059
0.5902320 0.5355312 0.0695971
0.6637363 0.5379732 0.0803419
0.7367522 0.5418804 0.0930403
0.8068376 0.5487180 0.1091575
0.8747253 0.5575092 0.1296703
0.9382173 0.5692308 0.1545788
0.9804640 0.5789988 0.1743590
0.0156288 0.6014652 0.0424908
0.0317460 0.6007326 0.0442002
0.0615385 0.6007326 0.0459096
0.1076923 0.6004884 0.0473748
0.1672772 0.5997558 0.0498169
0.2361416 0.5982906 0.0522589
0.3074481 0.5968254 0.0549451
0.3775336 0.5956044 0.0586081
0.4429792 0.5943834 0.0639805
0.5094017 0.5943834 0.0708181
0.5797314 0.5958486 0.0800977
0.6527473 0.5970696 0.0910867
0.7255189 0.5992674 0.1030525
0.7958486 0.6039072 0.1181929
0.8639805 0.6102564 0.1374847
0.9274725 0.6195360 0.1609280
0.9716728 0.6278389 0.1792430
0.0166056 0.6705739 0.0537241
0.0344322 0.6700855 0.0559219
0.0630037 0.6691087 0.0568987
0.1062271 0.6673993 0.0583639
0.1631258 0.6659341 0.0605617
0.2293040 0.6644689 0.0627595
0.2991453 0.6620269 0.0661783
0.3684982 0.6600733 0.0713065
0.4332112 0.6581197 0.0771673
0.4991453 0.6564103 0.0837607
0.5697192 0.6559219 0.0923077
0.6402931 0.6568987 0.1032967
0.7130647 0.6576313 0.1147741
0.7841270 0.6598291 0.1291819
0.8529915 0.6642247 0.1467644
0.9152625 0.6708181 0.1680098
0.9572650 0.6764347 0.1853480
0.0197802 0.7391942 0.0678877
0.0412698 0.7372406 0.0710623
0.0686203 0.7362638 0.0725275
0.1089133 0.7347986 0.0735043
0.1626374 0.7323565 0.0761905
0.2246642 0.7299145 0.0791209
0.2923077 0.7264957 0.0835165
0.3597070 0.7238095 0.0886447
0.4229548 0.7213675 0.0937729
0.4884005 0.7189255 0.0998779
0.5587302 0.7167277 0.1076923
0.6297925 0.7157509 0.1169719
0.7003663 0.7164835 0.1282051
0.7716728 0.7169719 0.1416361
0.8417583 0.7191697 0.1579976
0.9047619 0.7247863 0.1777778
0.9501832 0.7321123 0.1970696
